;FLAVOR:Marlin
;TIME:1876
;Filament used: 1.47388m
;Layer height: 0.2
;MINX:32.531
;MINY:77.69
;MINZ:0.2
;MAXX:177.469
;MAXY:132.31
;MAXZ:1.475
;Generated with Cura_SteamEngine 4.2.1
M140 S60
M105
M190 S60
M104 S200
M105
M109 S200
M82 ;absolute extrusion mode
G21 ;metric values
G90 ;absolute positioning
M82 ;set extruder to absolute mode
M107 ;start with the fan off
G28 X0 Y0 ;move X/Y to min endstops
G28 Z0 ;move Z to min endstops
G1 Z15.0 F100 ;move the platform down 15mm
G92 E0 ;zero the extruded length
G1 F200 E3 ;extrude 3mm of feed stock
G92 E0 ;zero the extruded length again
G1 F100
M117 Printing...
G5
M141 S28
G92 E0
G92 E0
G1 F2400 E-6
;LAYER_COUNT:7
;LAYER:0
M106 S255
M204 S3000
M205 X10 Y10
G0 F3000 X65.626 Y78.54 Z0.2
M204 S1800
M205 X8 Y8
;TYPE:SKIRT
G1 F2400 E0
G1 X66.111 Y78.223 E0.02698
G1 X66.635 Y77.976 E0.05395
G1 X67.188 Y77.804 E0.08092
G1 X67.76 Y77.709 E0.10792
G1 X68.159 Y77.69 E0.12652
G1 X141.831 Y77.69 E3.557
G1 X142.409 Y77.73 E3.58398
G1 X142.976 Y77.849 E3.61095
G1 X143.521 Y78.045 E3.63792
G1 X144.034 Y78.314 E3.66489
G1 X144.505 Y78.651 E3.69186
G1 X144.925 Y79.05 E3.71884
G1 X145.287 Y79.503 E3.74584
G1 X145.582 Y80.001 E3.77279
G1 X145.807 Y80.535 E3.79977
G1 X145.955 Y81.095 E3.82674
G1 X146.031 Y81.833 E3.86129
G1 X146.172 Y92.127 E4.34067
G1 X176.239 Y122.195 E6.32066
G1 X176.619 Y122.632 E6.34763
G1 X176.936 Y123.117 E6.37461
G1 X177.183 Y123.641 E6.40158
G1 X177.355 Y124.194 E6.42855
G1 X177.45 Y124.766 E6.45555
G1 X177.469 Y125.165 E6.47415
G1 X177.469 Y125.397 E6.48495
G1 X177.429 Y125.975 E6.51193
G1 X177.31 Y126.542 E6.53891
G1 X177.114 Y127.087 E6.56588
G1 X176.845 Y127.6 E6.59285
G1 X176.508 Y128.071 E6.61982
G1 X176.239 Y128.366 E6.63841
G1 X173.57 Y131.036 E6.8142
G1 X173.134 Y131.417 E6.84116
G1 X172.649 Y131.734 E6.86814
G1 X172.232 Y131.937 E6.88973
G1 X172.13 Y131.98 E6.89489
G1 X171.581 Y132.168 E6.92191
G1 X171.013 Y132.278 E6.94885
G1 X170.498 Y132.31 E6.97288
G1 X114.033 Y132.306 E9.60212
G1 X110.159 Y132.305 E9.78251
G1 X109.581 Y132.265 E9.80949
G1 X109.014 Y132.146 E9.83647
G1 X108.469 Y131.95 E9.86344
G1 X107.956 Y131.681 E9.89041
G1 X107.485 Y131.344 E9.91738
G1 X107.189 Y131.075 E9.936
G1 X107.025 Y130.911 E9.9468
G1 X106.645 Y130.474 E9.97377
G1 X106.328 Y129.989 E10.00075
G1 X106.081 Y129.465 E10.02772
G1 X105.909 Y128.912 E10.05469
G1 X105.814 Y128.34 E10.08169
G1 X105.795 Y127.941 E10.10029
G1 X105.795 Y124.304 E10.26964
G1 X104.195 Y124.304 E10.34414
G1 X104.195 Y127.94 E10.51345
G1 X104.155 Y128.518 E10.54043
G1 X104.036 Y129.085 E10.56741
G1 X103.84 Y129.63 E10.59438
G1 X103.571 Y130.143 E10.62135
G1 X103.234 Y130.614 E10.64832
G1 X102.965 Y130.91 E10.66694
G1 X102.801 Y131.074 E10.67774
G1 X102.364 Y131.454 E10.70471
G1 X101.879 Y131.771 E10.73169
G1 X101.355 Y132.018 E10.75866
G1 X100.802 Y132.19 E10.78563
G1 X100.23 Y132.285 E10.81263
G1 X99.831 Y132.304 E10.83123
G1 X39.502 Y132.299 E13.6404
G1 X38.924 Y132.259 E13.66738
G1 X38.357 Y132.14 E13.69435
G1 X37.87 Y131.969 E13.71839
G1 X37.768 Y131.926 E13.72354
G1 X37.251 Y131.665 E13.75051
G1 X36.775 Y131.335 E13.77748
G1 X36.43 Y131.025 E13.79908
G1 X33.761 Y128.355 E13.97487
G1 X33.38 Y127.918 E14.00186
G1 X33.064 Y127.433 E14.02882
G1 X32.817 Y126.909 E14.05579
G1 X32.645 Y126.356 E14.08276
G1 X32.55 Y125.784 E14.10976
G1 X32.531 Y125.386 E14.12831
G1 X32.531 Y125.154 E14.13911
G1 X32.571 Y124.576 E14.16609
G1 X32.69 Y124.009 E14.19307
G1 X32.886 Y123.464 E14.22004
G1 X33.155 Y122.951 E14.24701
G1 X33.492 Y122.48 E14.27398
G1 X33.761 Y122.184 E14.2926
G1 X63.795 Y92.15 E16.27039
G1 X63.795 Y82.054 E16.74051
G1 X63.835 Y81.476 E16.76748
G1 X63.954 Y80.909 E16.79446
G1 X64.15 Y80.364 E16.82143
G1 X64.419 Y79.851 E16.8484
G1 X64.756 Y79.38 E16.87537
G1 X65.025 Y79.084 E16.89399
G1 X65.189 Y78.92 E16.90479
G1 X65.626 Y78.54 E16.93176
M204 S3000
M205 X10 Y10
G0 F3000 X65.994 Y78.964
M204 S1800
M205 X8 Y8
G1 F2400 X66.45 Y78.676 E16.95687
G1 X66.943 Y78.459 E16.98195
G1 X67.463 Y78.317 E17.00705
G1 X68.159 Y78.25 E17.03961
G1 X141.831 Y78.25 E20.47009
G1 X142.369 Y78.29 E20.49521
G1 X142.895 Y78.409 E20.52032
G1 X143.397 Y78.604 E20.5454
G1 X143.866 Y78.872 E20.57055
G1 X144.289 Y79.205 E20.59562
G1 X144.659 Y79.598 E20.62075
G1 X144.966 Y80.041 E20.64585
G1 X145.205 Y80.525 E20.67099
G1 X145.37 Y81.038 E20.69608
G1 X145.457 Y81.57 E20.72118
G1 X145.471 Y81.84 E20.73377
G1 X145.615 Y92.362 E21.22376
G1 X175.843 Y122.591 E23.21436
G1 X176.195 Y123 E23.23949
G1 X176.483 Y123.456 E23.2646
G1 X176.7 Y123.949 E23.28968
G1 X176.842 Y124.47 E23.31483
G1 X176.909 Y125.165 E23.34734
G1 X176.909 Y125.397 E23.35814
G1 X176.869 Y125.935 E23.38326
G1 X176.75 Y126.461 E23.40838
G1 X176.555 Y126.963 E23.43345
G1 X176.287 Y127.432 E23.4586
G1 X175.843 Y127.97 E23.49109
G1 X173.174 Y130.64 E23.66688
G1 X172.766 Y130.992 E23.69197
G1 X172.31 Y131.28 E23.71708
G1 X172.014 Y131.421 E23.73235
G1 X171.912 Y131.464 E23.7375
G1 X171.401 Y131.636 E23.76261
G1 X170.87 Y131.731 E23.78773
G1 X170.498 Y131.75 E23.80507
G1 X114.033 Y131.746 E26.43432
G1 X110.159 Y131.745 E26.61471
G1 X109.621 Y131.705 E26.63983
G1 X109.095 Y131.586 E26.66494
G1 X108.592 Y131.391 E26.69006
G1 X108.124 Y131.123 E26.71517
G1 X107.585 Y130.679 E26.74769
G1 X107.421 Y130.515 E26.75849
G1 X107.069 Y130.106 E26.78362
G1 X106.781 Y129.65 E26.80873
G1 X106.564 Y129.157 E26.83381
G1 X106.422 Y128.637 E26.85891
G1 X106.355 Y127.941 E26.89147
G1 X106.355 Y123.744 E27.0869
G1 X103.635 Y123.744 E27.21355
G1 X103.635 Y127.94 E27.40894
G1 X103.595 Y128.478 E27.43406
G1 X103.476 Y129.004 E27.45917
G1 X103.281 Y129.506 E27.48425
G1 X103.013 Y129.975 E27.5094
G1 X102.569 Y130.514 E27.54192
G1 X102.405 Y130.678 E27.55272
G1 X101.996 Y131.03 E27.57784
G1 X101.54 Y131.318 E27.60296
G1 X101.047 Y131.535 E27.62804
G1 X100.527 Y131.677 E27.65314
G1 X99.831 Y131.744 E27.6857
G1 X39.502 Y131.739 E30.49487
G1 X38.964 Y131.699 E30.51999
G1 X38.438 Y131.58 E30.5451
G1 X38.088 Y131.453 E30.56244
G1 X37.986 Y131.41 E30.56759
G1 X37.506 Y131.164 E30.59271
G1 X37.068 Y130.85 E30.6178
G1 X36.826 Y130.629 E30.63306
G1 X34.157 Y127.959 E30.80885
G1 X33.805 Y127.551 E30.83394
G1 X33.517 Y127.095 E30.85906
G1 X33.3 Y126.601 E30.88418
G1 X33.158 Y126.081 E30.90928
G1 X33.091 Y125.386 E30.94179
G1 X33.091 Y125.154 E30.9526
G1 X33.131 Y124.616 E30.97772
G1 X33.25 Y124.09 E31.00283
G1 X33.445 Y123.588 E31.02791
G1 X33.713 Y123.119 E31.05306
G1 X34.157 Y122.58 E31.08558
G1 X64.355 Y92.382 E33.07417
G1 X64.355 Y82.054 E33.55508
G1 X64.395 Y81.516 E33.5802
G1 X64.514 Y80.99 E33.60531
G1 X64.709 Y80.488 E33.63039
G1 X64.977 Y80.019 E33.65554
G1 X65.421 Y79.48 E33.68806
G1 X65.585 Y79.316 E33.69886
G1 X65.994 Y78.964 E33.72399
M204 S3000
M205 X10 Y10
G0 F3000 X66.359 Y79.391
M204 S1800
M205 X8 Y8
G1 F2400 X66.783 Y79.134 E33.74707
G1 X67.244 Y78.949 E33.7702
G1 X67.727 Y78.84 E33.79326
G1 X68.159 Y78.81 E33.81342
G1 X141.831 Y78.81 E37.2439
G1 X142.325 Y78.85 E37.26698
G1 X142.807 Y78.969 E37.2901
G1 X143.263 Y79.163 E37.31317
G1 X143.682 Y79.428 E37.33626
G1 X144.053 Y79.758 E37.35938
G1 X144.367 Y80.142 E37.38247
G1 X144.615 Y80.572 E37.40559
G1 X144.79 Y81.035 E37.42864
G1 X144.889 Y81.522 E37.45178
G1 X144.911 Y81.848 E37.46699
G1 X145.058 Y92.597 E37.96756
G1 X175.447 Y122.987 E39.96876
G1 X175.768 Y123.365 E39.99185
G1 X176.025 Y123.789 E40.01494
G1 X176.21 Y124.25 E40.03807
G1 X176.319 Y124.734 E40.06117
G1 X176.349 Y125.165 E40.08128
G1 X176.349 Y125.397 E40.09209
G1 X176.309 Y125.891 E40.11517
G1 X176.19 Y126.373 E40.13828
G1 X175.996 Y126.829 E40.16136
G1 X175.731 Y127.248 E40.18444
G1 X175.447 Y127.574 E40.20458
G1 X172.778 Y130.244 E40.38037
G1 X172.401 Y130.566 E40.40345
G1 X171.796 Y130.905 E40.43575
G1 X171.694 Y130.948 E40.4409
G1 X171.223 Y131.103 E40.46399
G1 X170.498 Y131.19 E40.49799
G1 X114.033 Y131.186 E43.12724
G1 X110.159 Y131.185 E43.30763
G1 X109.664 Y131.145 E43.33075
G1 X109.183 Y131.026 E43.35382
G1 X108.727 Y130.832 E43.3769
G1 X108.308 Y130.566 E43.40001
G1 X107.981 Y130.283 E43.42015
G1 X107.817 Y130.119 E43.43095
G1 X107.496 Y129.741 E43.45404
G1 X107.239 Y129.317 E43.47712
G1 X107.054 Y128.856 E43.50025
G1 X106.945 Y128.373 E43.52331
G1 X106.915 Y127.941 E43.54347
G1 X106.915 Y123.184 E43.76498
G1 X103.075 Y123.184 E43.94379
G1 X103.075 Y127.94 E44.16525
G1 X103.035 Y128.434 E44.18832
G1 X102.916 Y128.916 E44.21144
G1 X102.722 Y129.372 E44.23452
G1 X102.457 Y129.791 E44.2576
G1 X102.173 Y130.118 E44.27777
G1 X102.009 Y130.282 E44.28857
G1 X101.631 Y130.603 E44.31166
G1 X101.207 Y130.86 E44.33475
G1 X100.746 Y131.045 E44.35788
G1 X100.263 Y131.154 E44.38093
G1 X99.831 Y131.184 E44.4011
G1 X39.502 Y131.179 E47.21027
G1 X39.007 Y131.139 E47.23339
G1 X38.306 Y130.937 E47.26736
G1 X38.204 Y130.894 E47.27252
G1 X37.764 Y130.665 E47.29561
G1 X37.222 Y130.233 E47.32789
G1 X34.553 Y127.563 E47.50368
G1 X34.231 Y127.186 E47.52677
G1 X33.975 Y126.761 E47.54987
G1 X33.79 Y126.301 E47.57295
G1 X33.681 Y125.817 E47.59606
G1 X33.651 Y125.386 E47.61617
G1 X33.651 Y125.154 E47.62698
G1 X33.691 Y124.66 E47.65005
G1 X33.81 Y124.178 E47.67317
G1 X34.004 Y123.722 E47.69625
G1 X34.269 Y123.303 E47.71933
G1 X34.553 Y122.976 E47.7395
G1 X64.915 Y92.614 E49.73889
G1 X64.915 Y82.054 E50.23061
G1 X64.955 Y81.56 E50.25369
G1 X65.074 Y81.078 E50.2768
G1 X65.268 Y80.622 E50.29988
G1 X65.533 Y80.203 E50.32296
G1 X65.817 Y79.876 E50.34313
G1 X65.981 Y79.712 E50.35393
G1 X66.359 Y79.391 E50.37702
M204 S3000
M205 X10 Y10
G0 F3000 X66.721 Y79.82
M204 S1800
M205 X8 Y8
G1 F2400 X67.111 Y79.598 E50.39792
G1 X67.534 Y79.449 E50.4188
G1 X68.159 Y79.37 E50.44814
G1 X141.831 Y79.37 E53.87861
G1 X142.278 Y79.41 E53.89951
G1 X142.71 Y79.528 E53.92036
G1 X143.115 Y79.722 E53.94127
G1 X143.479 Y79.984 E53.96216
G1 X143.791 Y80.306 E53.98303
G1 X144.041 Y80.679 E54.00394
G1 X144.221 Y81.09 E54.02484
G1 X144.325 Y81.526 E54.04571
G1 X144.351 Y81.856 E54.06112
G1 X144.501 Y92.832 E54.57226
G1 X175.051 Y123.383 E56.58406
G1 X175.339 Y123.727 E56.60495
G1 X175.561 Y124.117 E56.62585
G1 X175.71 Y124.54 E56.64673
G1 X175.789 Y125.165 E56.67606
G1 X175.789 Y125.397 E56.68687
G1 X175.749 Y125.844 E56.70776
G1 X175.631 Y126.276 E56.72862
G1 X175.437 Y126.681 E56.74953
G1 X175.051 Y127.179 E56.77887
G1 X172.382 Y129.849 E56.95466
G1 X172.038 Y130.136 E56.97552
G1 X171.579 Y130.389 E56.99992
G1 X171.477 Y130.432 E57.00508
G1 X171.05 Y130.569 E57.02596
G1 X170.498 Y130.63 E57.05182
G1 X114.033 Y130.626 E59.68106
G1 X110.159 Y130.625 E59.86145
G1 X109.712 Y130.585 E59.88235
G1 X109.279 Y130.467 E59.90325
G1 X108.875 Y130.273 E59.92412
G1 X108.377 Y129.887 E59.95346
G1 X108.213 Y129.723 E59.96426
G1 X107.925 Y129.379 E59.98515
G1 X107.703 Y128.989 E60.00604
G1 X107.554 Y128.566 E60.02693
G1 X107.475 Y127.941 E60.05626
G1 X107.475 Y122.624 E60.30384
G1 X102.515 Y122.624 E60.5348
G1 X102.515 Y127.94 E60.78234
G1 X102.475 Y128.387 E60.80323
G1 X102.357 Y128.819 E60.82409
G1 X102.163 Y129.224 E60.845
G1 X101.777 Y129.722 E60.87434
G1 X101.613 Y129.886 E60.88513
G1 X101.269 Y130.174 E60.90603
G1 X100.879 Y130.396 E60.92692
G1 X100.456 Y130.545 E60.9478
G1 X99.831 Y130.624 E60.97714
G1 X39.502 Y130.619 E63.78631
G1 X39.055 Y130.579 E63.80721
G1 X38.523 Y130.421 E63.83305
G1 X38.421 Y130.378 E63.8382
G1 X38.025 Y130.168 E63.85907
G1 X37.618 Y129.838 E63.88347
G1 X34.949 Y127.168 E64.05926
G1 X34.661 Y126.823 E64.08019
G1 X34.439 Y126.434 E64.10105
G1 X34.29 Y126.011 E64.12193
G1 X34.211 Y125.386 E64.15126
G1 X34.211 Y125.154 E64.16207
G1 X34.251 Y124.707 E64.18296
G1 X34.369 Y124.275 E64.20382
G1 X34.563 Y123.87 E64.22473
G1 X34.949 Y123.372 E64.25407
G1 X65.475 Y92.846 E66.26426
G1 X65.475 Y82.054 E66.76678
G1 X65.515 Y81.607 E66.78767
G1 X65.633 Y81.175 E66.80853
G1 X65.827 Y80.77 E66.82944
G1 X66.213 Y80.272 E66.85878
G1 X66.377 Y80.108 E66.86958
G1 X66.721 Y79.82 E66.89047
M204 S3000
M205 X10 Y10
G0 F3000 X67.079 Y80.254
M204 S1800
M205 X8 Y8
G1 F2400 X67.43 Y80.071 E66.9089
G1 X67.81 Y79.961 E66.92732
G1 X68.159 Y79.93 E66.94363
G1 X141.831 Y79.93 E70.37411
G1 X142.224 Y79.97 E70.3925
G1 X142.602 Y80.088 E70.41094
G1 X142.948 Y80.279 E70.42935
G1 X143.249 Y80.536 E70.44778
G1 X143.491 Y80.849 E70.4662
G1 X143.667 Y81.203 E70.48461
G1 X143.767 Y81.586 E70.50304
G1 X143.791 Y81.863 E70.51599
G1 X143.944 Y93.067 E71.03774
G1 X174.655 Y123.779 E73.06014
G1 X174.905 Y124.086 E73.07858
G1 X175.088 Y124.436 E73.09697
G1 X175.198 Y124.816 E73.11539
G1 X175.229 Y125.165 E73.13171
G1 X175.229 Y125.397 E73.14251
G1 X175.189 Y125.79 E73.1609
G1 X175.071 Y126.168 E73.17934
G1 X174.88 Y126.514 E73.19775
G1 X174.655 Y126.783 E73.21408
G1 X171.986 Y129.453 E73.38987
G1 X171.68 Y129.703 E73.40827
G1 X171.361 Y129.873 E73.4251
G1 X171.259 Y129.916 E73.43025
G1 X170.881 Y130.032 E73.44866
G1 X170.498 Y130.07 E73.46658
G1 X114.033 Y130.066 E76.09583
G1 X110.159 Y130.065 E76.27622
G1 X109.765 Y130.025 E76.29466
G1 X109.388 Y129.907 E76.31306
G1 X109.042 Y129.716 E76.33146
G1 X108.773 Y129.491 E76.34779
G1 X108.609 Y129.327 E76.35859
G1 X108.359 Y129.021 E76.37699
G1 X108.176 Y128.67 E76.39542
G1 X108.066 Y128.29 E76.41384
G1 X108.035 Y127.941 E76.43016
G1 X108.035 Y122.064 E76.70381
G1 X101.955 Y122.064 E76.98692
G1 X101.955 Y127.94 E77.26054
G1 X101.915 Y128.333 E77.27893
G1 X101.797 Y128.711 E77.29737
G1 X101.606 Y129.057 E77.31577
G1 X101.381 Y129.326 E77.3321
G1 X101.217 Y129.49 E77.3429
G1 X100.911 Y129.74 E77.3613
G1 X100.56 Y129.923 E77.37973
G1 X100.18 Y130.033 E77.39815
G1 X99.831 Y130.064 E77.41447
G1 X39.502 Y130.059 E80.22364
G1 X39.108 Y130.019 E80.24208
G1 X38.741 Y129.905 E80.25997
G1 X38.639 Y129.862 E80.26513
G1 X38.292 Y129.672 E80.28355
G1 X38.014 Y129.442 E80.30035
G1 X35.345 Y126.772 E80.47614
G1 X35.095 Y126.465 E80.49458
G1 X34.912 Y126.115 E80.51297
G1 X34.802 Y125.735 E80.53139
G1 X34.771 Y125.386 E80.5477
G1 X34.771 Y125.154 E80.55851
G1 X34.811 Y124.761 E80.5769
G1 X34.929 Y124.383 E80.59534
G1 X35.12 Y124.037 E80.61374
G1 X35.345 Y123.768 E80.63007
G1 X66.035 Y93.078 E82.65106
G1 X66.035 Y82.054 E83.16439
G1 X66.075 Y81.661 E83.18278
G1 X66.193 Y81.283 E83.20122
G1 X66.384 Y80.937 E83.21962
G1 X66.609 Y80.668 E83.23595
G1 X66.773 Y80.504 E83.24675
G1 X67.079 Y80.254 E83.26515
M204 S3000
M205 X10 Y10
G0 F3000 X67.432 Y80.694
M204 S1800
M205 X8 Y8
G1 F2400 X67.736 Y80.555 E83.28072
G1 X68.159 Y80.49 E83.30064
G1 X141.831 Y80.49 E86.73112
G1 X142.163 Y80.53 E86.74669
G1 X142.475 Y80.647 E86.76221
G1 X142.752 Y80.835 E86.7778
G1 X142.975 Y81.083 E86.79333
G1 X143.134 Y81.377 E86.80889
G1 X143.218 Y81.701 E86.82447
G1 X143.231 Y81.871 E86.83241
G1 X143.387 Y93.302 E87.36474
G1 X174.259 Y124.175 E89.39775
G1 X174.465 Y124.438 E89.4133
G1 X174.604 Y124.742 E89.42887
G1 X174.669 Y125.165 E89.44879
G1 X174.669 Y125.397 E89.4596
G1 X174.629 Y125.729 E89.47517
G1 X174.512 Y126.041 E89.49068
G1 X174.259 Y126.387 E89.51064
G1 X171.59 Y129.057 E89.68643
G1 X171.327 Y129.263 E89.70199
G1 X171.144 Y129.357 E89.71157
G1 X171.042 Y129.4 E89.71672
G1 X170.721 Y129.492 E89.73227
G1 X170.498 Y129.51 E89.74269
G1 X114.033 Y129.506 E92.37194
G1 X110.159 Y129.505 E92.55233
G1 X109.827 Y129.465 E92.5679
G1 X109.514 Y129.348 E92.58346
G1 X109.169 Y129.095 E92.60338
G1 X109.005 Y128.931 E92.61418
G1 X108.799 Y128.668 E92.62973
G1 X108.66 Y128.364 E92.6453
G1 X108.595 Y127.941 E92.66523
G1 X108.595 Y121.504 E92.96496
G1 X101.395 Y121.504 E93.30022
G1 X101.395 Y127.94 E93.59991
G1 X101.355 Y128.272 E93.61548
G1 X101.238 Y128.584 E93.631
G1 X100.985 Y128.93 E93.65096
