;FLAVOR:Marlin
;TIME:9720
;Filament used: 7.64848m
;Layer height: 0.2
;MINX:31.773
;MINY:44.273
;MINZ:0.2
;MAXX:178.227
;MAXY:165.728
;MAXZ:5.4
;Generated with Cura_SteamEngine 4.2.1
M140 S60
M105
M190 S60
M104 S200
M105
M109 S200
M82 ;absolute extrusion mode
G21 ;metric values
G90 ;absolute positioning
M82 ;set extruder to absolute mode
M107 ;start with the fan off
G28 X0 Y0 ;move X/Y to min endstops
G28 Z0 ;move Z to min endstops
G1 Z15.0 F100 ;move the platform down 15mm
G92 E0 ;zero the extruded length
G1 F200 E3 ;extrude 3mm of feed stock
G92 E0 ;zero the extruded length again
G1 F100
M117 Printing...
G5
M141 S28
G92 E0
G92 E0
G1 F2400 E-6
;LAYER_COUNT:27
;LAYER:0
M106 S255
M204 S3000
M205 X10 Y10
G0 F3000 X36.947 Y46.793 Z0.2
M204 S1800
M205 X8 Y8
;TYPE:SKIRT
G1 F2400 E0
G1 X37.55 Y46.378 E0.03409
G1 X38.898 Y45.614 E0.10623
G1 X39.556 Y45.313 E0.13993
G1 X41.017 Y44.791 E0.21217
G1 X41.715 Y44.607 E0.24578
G1 X43.243 Y44.343 E0.31799
G1 X43.961 Y44.282 E0.35154
G1 X45.508 Y44.283 E0.42357
G1 X46.188 Y44.339 E0.45534
G1 X46.758 Y44.433 E0.48224
G1 X46.836 Y44.447 E0.48593
G1 X47.84 Y44.632 E0.53347
G1 X48.524 Y44.819 E0.56649
G1 X49.94 Y45.338 E0.63672
G1 X50.58 Y45.635 E0.66957
G1 X51.921 Y46.402 E0.7415
G1 X52.517 Y46.815 E0.77527
G1 X53.712 Y47.806 E0.84756
G1 X53.999 Y48.067 E0.86562
G1 X60.493 Y54.553 E1.293
G1 X60.495 Y54.555 E1.29313
G1 X73.216 Y67.277 E2.13086
G1 X73.913 Y67.871 E2.1735
G1 X74.558 Y68.267 E2.20875
G1 X75.251 Y68.554 E2.24367
G1 X75.977 Y68.728 E2.27844
G1 X76.892 Y68.8 E2.32117
G1 X133.108 Y68.8 E4.93883
G1 X134.025 Y68.728 E4.98166
G1 X134.746 Y68.555 E5.01618
G1 X135.448 Y68.264 E5.05157
G1 X136.059 Y67.89 E5.08493
G1 X136.789 Y67.272 E5.12946
G1 X155.948 Y48.111 E6.39118
G1 X156.214 Y47.867 E6.40799
G1 X157.354 Y46.908 E6.47736
G1 X157.922 Y46.506 E6.50976
G1 X159.251 Y45.721 E6.58163
G1 X159.905 Y45.407 E6.61541
G1 X161.361 Y44.858 E6.68787
G1 X162.055 Y44.663 E6.72144
G1 X163.578 Y44.372 E6.79364
G1 X164.298 Y44.298 E6.82734
G1 X165.841 Y44.273 E6.8992
G1 X166.558 Y44.322 E6.93266
G1 X168.099 Y44.563 E7.00529
G1 X168.811 Y44.74 E7.03945
G1 X170.274 Y45.241 E7.11146
G1 X170.932 Y45.531 E7.14494
G1 X172.289 Y46.275 E7.21701
G1 X172.893 Y46.678 E7.25082
G1 X174.105 Y47.647 E7.32307
G1 X174.72 Y48.252 E7.36324
G1 X175.705 Y49.444 E7.43525
G1 X176.121 Y50.048 E7.4694
G1 X176.886 Y51.398 E7.54165
G1 X177.187 Y52.054 E7.57526
G1 X177.709 Y53.513 E7.64741
G1 X177.893 Y54.214 E7.68116
G1 X178.157 Y55.744 E7.75345
G1 X178.218 Y56.461 E7.78696
G1 X178.217 Y58.006 E7.8589
G1 X178.154 Y58.729 E7.8927
G1 X177.885 Y60.261 E7.96512
G1 X177.697 Y60.964 E7.99901
G1 X177.17 Y62.42 E8.07111
G1 X176.867 Y63.076 E8.10476
G1 X176.098 Y64.421 E8.1769
G1 X175.685 Y65.017 E8.21067
G1 X174.694 Y66.212 E8.28295
G1 X174.433 Y66.499 E8.30102
G1 X168.466 Y72.474 E8.69422
G1 X168.464 Y72.476 E8.69435
G1 X152.722 Y88.217 E9.73095
G1 X152.128 Y88.914 E9.7736
G1 X151.734 Y89.557 E9.80871
G1 X151.446 Y90.251 E9.8437
G1 X151.272 Y90.979 E9.87855
G1 X151.2 Y91.892 E9.9212
G1 X151.2 Y118.11 E11.14202
G1 X151.26 Y118.874 E11.1777
G1 X151.462 Y119.787 E11.22124
G1 X151.733 Y120.442 E11.25425
G1 X152.128 Y121.086 E11.28943
G1 X152.722 Y121.783 E11.33207
G1 X174.389 Y143.448 E12.75881
G1 X174.633 Y143.714 E12.77562
G1 X175.592 Y144.854 E12.84499
G1 X175.994 Y145.422 E12.87739
G1 X176.779 Y146.751 E12.94927
G1 X177.093 Y147.405 E12.98305
G1 X177.642 Y148.861 E13.0555
G1 X177.837 Y149.554 E13.08903
G1 X178.128 Y151.075 E13.16113
G1 X178.202 Y151.796 E13.19488
G1 X178.227 Y153.341 E13.26683
G1 X178.178 Y154.058 E13.3003
G1 X177.937 Y155.599 E13.37293
G1 X177.76 Y156.311 E13.40709
G1 X177.259 Y157.774 E13.4791
G1 X176.969 Y158.432 E13.51258
G1 X176.225 Y159.789 E13.58464
G1 X175.822 Y160.393 E13.61845
G1 X174.853 Y161.605 E13.69071
G1 X174.247 Y162.221 E13.73094
G1 X173.053 Y163.207 E13.80305
G1 X172.45 Y163.622 E13.83713
G1 X171.102 Y164.386 E13.90928
G1 X170.444 Y164.687 E13.94297
G1 X168.983 Y165.209 E14.01522
G1 X168.285 Y165.393 E14.04883
G1 X166.757 Y165.657 E14.12103
G1 X166.039 Y165.718 E14.15459
G1 X164.494 Y165.717 E14.22653
G1 X163.769 Y165.653 E14.26042
G1 X162.235 Y165.383 E14.33295
G1 X161.534 Y165.197 E14.36672
G1 X160.08 Y164.671 E14.43872
G1 X159.423 Y164.367 E14.47242
G1 X158.077 Y163.597 E14.54463
G1 X157.482 Y163.184 E14.57836
G1 X156.287 Y162.193 E14.65065
G1 X156 Y161.932 E14.66871
G1 X149.132 Y155.072 E15.12072
G1 X149.13 Y155.07 E15.12085
G1 X136.783 Y142.722 E15.93395
G1 X136.084 Y142.126 E15.97672
G1 X135.454 Y141.74 E16.01113
G1 X134.74 Y141.443 E16.04714
G1 X134.027 Y141.272 E16.08128
G1 X133.108 Y141.2 E16.1242
G1 X76.892 Y141.2 E18.74185
G1 X75.977 Y141.272 E18.78459
G1 X75.251 Y141.446 E18.81936
G1 X74.555 Y141.735 E18.85445
G1 X73.916 Y142.126 E18.88933
G1 X73.216 Y142.723 E18.93217
G1 X54.052 Y161.889 E20.19422
G1 X53.785 Y162.133 E20.21106
G1 X52.646 Y163.091 E20.28036
G1 X52.08 Y163.493 E20.31269
G1 X50.75 Y164.279 E20.38462
G1 X50.095 Y164.593 E20.41845
G1 X48.639 Y165.142 E20.4909
G1 X47.945 Y165.337 E20.52447
G1 X46.37 Y165.638 E20.59914
G1 X45.624 Y165.713 E20.63405
G1 X44.133 Y165.728 E20.70348
G1 X43.442 Y165.678 E20.73574
G1 X41.901 Y165.437 E20.80837
G1 X41.189 Y165.26 E20.84253
G1 X39.726 Y164.759 E20.91454
G1 X39.068 Y164.469 E20.94802
G1 X37.711 Y163.725 E21.02008
G1 X37.107 Y163.322 E21.05389
G1 X35.895 Y162.353 E21.12615
G1 X35.28 Y161.748 E21.16632
G1 X34.293 Y160.553 E21.23849
G1 X33.877 Y159.948 E21.27268
G1 X33.114 Y158.601 E21.34476
G1 X32.813 Y157.945 E21.37837
G1 X32.29 Y156.482 E21.45072
G1 X32.106 Y155.781 E21.48446
G1 X31.843 Y154.255 E21.55657
G1 X31.782 Y153.539 E21.59003
G1 X31.783 Y151.994 E21.66197
G1 X31.846 Y151.271 E21.69576
G1 X32.115 Y149.739 E21.76819
G1 X32.303 Y149.036 E21.80208
G1 X32.83 Y147.58 E21.87418
G1 X33.133 Y146.924 E21.90783
G1 X33.902 Y145.579 E21.97997
G1 X34.315 Y144.983 E22.01373
G1 X35.306 Y143.788 E22.08602
G1 X35.569 Y143.5 E22.10418
G1 X57.272 Y121.79 E23.53359
G1 X57.872 Y121.086 E23.57666
G1 X58.266 Y120.443 E23.61178
G1 X58.554 Y119.749 E23.64677
G1 X58.728 Y119.021 E23.68162
G1 X58.8 Y118.108 E23.72426
G1 X58.8 Y91.89 E24.94508
G1 X58.739 Y91.115 E24.98128
G1 X58.54 Y90.219 E25.02402
G1 X58.264 Y89.553 E25.05759
G1 X57.874 Y88.916 E25.09237
G1 X57.277 Y88.216 E25.13521
G1 X35.61 Y66.551 E26.56195
G1 X35.366 Y66.284 E26.57879
G1 X34.408 Y65.145 E26.6481
G1 X34.006 Y64.578 E26.68046
G1 X33.221 Y63.249 E26.75233
G1 X32.907 Y62.595 E26.78612
G1 X32.357 Y61.136 E26.85872
G1 X32.161 Y60.441 E26.89234
G1 X31.871 Y58.921 E26.9644
G1 X31.798 Y58.202 E26.99805
G1 X31.773 Y56.659 E27.06991
G1 X31.822 Y55.942 E27.10337
G1 X32.063 Y54.401 E27.176
G1 X32.24 Y53.689 E27.21016
G1 X32.741 Y52.226 E27.28217
G1 X33.031 Y51.568 E27.31565
G1 X33.775 Y50.211 E27.38771
G1 X34.178 Y49.607 E27.42152
G1 X35.147 Y48.395 E27.49378
G1 X35.753 Y47.779 E27.53402
G1 X36.947 Y46.793 E27.60612
M204 S3000
M205 X10 Y10
G0 F3000 X37.303 Y47.225
M204 S1800
M205 X8 Y8
G1 F2400 X37.826 Y46.865 E27.63569
G1 X39.174 Y46.101 E27.70784
G1 X39.744 Y45.84 E27.73703
G1 X41.205 Y45.318 E27.80927
G1 X41.81 Y45.159 E27.8384
G1 X43.338 Y44.895 E27.9106
G1 X43.96 Y44.842 E27.93967
G1 X45.507 Y44.843 E28.0117
G1 X46.097 Y44.892 E28.03927
G1 X46.667 Y44.986 E28.06617
G1 X46.735 Y44.997 E28.06938
G1 X47.739 Y45.182 E28.11692
G1 X48.332 Y45.344 E28.14554
G1 X49.748 Y45.863 E28.21576
G1 X50.302 Y46.121 E28.24422
G1 X51.643 Y46.888 E28.31616
G1 X52.16 Y47.246 E28.34544
G1 X53.355 Y48.237 E28.41773
G1 X53.603 Y48.464 E28.43338
G1 X60.097 Y54.95 E28.86076
G1 X60.099 Y54.951 E28.86086
G1 X72.838 Y67.691 E29.69978
G1 X73.584 Y68.327 E29.74543
G1 X74.297 Y68.764 E29.78437
G1 X75.077 Y69.088 E29.8237
G1 X75.89 Y69.283 E29.86263
G1 X76.873 Y69.36 E29.90854
G1 X133.127 Y69.36 E32.52796
G1 X134.11 Y69.283 E32.57388
G1 X134.921 Y69.088 E32.61272
G1 X135.706 Y68.763 E32.65228
G1 X136.387 Y68.346 E32.68946
G1 X137.17 Y67.683 E32.73723
G1 X156.344 Y48.507 E33.99994
G1 X156.575 Y48.296 E34.01451
G1 X157.715 Y47.337 E34.08388
G1 X158.207 Y46.988 E34.11197
G1 X159.536 Y46.203 E34.18384
G1 X160.103 Y45.931 E34.21312
G1 X161.559 Y45.382 E34.28558
G1 X162.16 Y45.213 E34.31465
G1 X163.683 Y44.922 E34.38685
G1 X164.307 Y44.857 E34.41606
G1 X165.85 Y44.832 E34.48792
G1 X166.471 Y44.876 E34.51691
G1 X168.012 Y45.117 E34.58954
G1 X168.629 Y45.269 E34.61913
G1 X170.092 Y45.77 E34.69113
G1 X170.663 Y46.022 E34.72019
G1 X172.02 Y46.766 E34.79226
G1 X172.543 Y47.115 E34.82153
G1 X173.755 Y48.084 E34.89379
G1 X174.288 Y48.608 E34.92859
G1 X175.273 Y49.8 E35.0006
G1 X175.634 Y50.324 E35.03023
G1 X176.399 Y51.674 E35.10248
G1 X176.659 Y52.243 E35.13161
G1 X177.181 Y53.702 E35.20376
G1 X177.341 Y54.309 E35.23299
G1 X177.605 Y55.839 E35.30529
G1 X177.658 Y56.46 E35.33431
G1 X177.657 Y58.005 E35.40625
G1 X177.602 Y58.633 E35.43561
G1 X177.333 Y60.165 E35.50803
G1 X177.171 Y60.774 E35.53738
G1 X176.644 Y62.23 E35.60948
G1 X176.381 Y62.798 E35.63863
G1 X175.612 Y64.143 E35.71077
G1 X175.254 Y64.66 E35.74005
G1 X174.263 Y65.855 E35.81234
G1 X174.037 Y66.103 E35.82796
G1 X168.07 Y72.078 E36.22116
G1 X168.068 Y72.08 E36.2213
G1 X152.308 Y87.839 E37.25908
G1 X151.674 Y88.583 E37.3046
G1 X151.235 Y89.298 E37.34367
G1 X150.91 Y90.083 E37.38323
G1 X150.718 Y90.886 E37.42168
G1 X150.64 Y91.873 E37.46778
G1 X150.64 Y118.129 E38.69037
G1 X150.705 Y118.96 E38.72918
G1 X150.925 Y119.952 E38.77649
G1 X151.234 Y120.7 E38.81418
G1 X151.674 Y121.417 E38.85335
G1 X152.308 Y122.161 E38.89887
G1 X173.993 Y143.844 E40.3268
G1 X174.204 Y144.075 E40.34136
G1 X175.163 Y145.215 E40.41073
G1 X175.512 Y145.707 E40.43882
G1 X176.297 Y147.036 E40.51069
G1 X176.569 Y147.603 E40.53998
G1 X177.118 Y149.059 E40.61243
G1 X177.287 Y149.659 E40.64146
G1 X177.578 Y151.18 E40.71357
G1 X177.643 Y151.805 E40.74283
G1 X177.668 Y153.35 E40.81478
G1 X177.624 Y153.971 E40.84377
G1 X177.383 Y155.512 E40.91639
G1 X177.231 Y156.129 E40.94598
G1 X176.73 Y157.592 E41.01799
G1 X176.478 Y158.163 E41.04705
G1 X175.734 Y159.52 E41.11911
G1 X175.385 Y160.043 E41.14839
G1 X174.416 Y161.255 E41.22065
G1 X173.891 Y161.789 E41.25552
G1 X172.697 Y162.775 E41.32762
G1 X172.174 Y163.135 E41.35719
G1 X170.826 Y163.899 E41.42933
G1 X170.256 Y164.16 E41.45853
G1 X168.795 Y164.682 E41.53077
G1 X168.19 Y164.841 E41.5599
G1 X166.662 Y165.105 E41.6321
G1 X166.04 Y165.158 E41.66117
G1 X164.495 Y165.157 E41.73311
G1 X163.866 Y165.102 E41.76251
G1 X162.332 Y164.832 E41.83504
G1 X161.725 Y164.67 E41.86429
G1 X160.271 Y164.144 E41.93629
G1 X159.702 Y163.881 E41.96548
G1 X158.356 Y163.111 E42.03769
G1 X157.839 Y162.753 E42.06697
G1 X156.644 Y161.762 E42.13926
G1 X156.396 Y161.535 E42.15491
G1 X149.528 Y154.675 E42.60692
G1 X149.526 Y154.674 E42.60702
G1 X137.161 Y142.308 E43.42131
G1 X136.419 Y141.676 E43.4667
G1 X135.706 Y141.239 E43.50564
G1 X134.917 Y140.91 E43.54544
G1 X134.112 Y140.718 E43.58398
G1 X133.127 Y140.64 E43.62999
G1 X76.873 Y140.64 E46.24941
G1 X75.89 Y140.717 E46.29532
G1 X75.077 Y140.912 E46.33425
G1 X74.298 Y141.235 E46.37352
G1 X73.583 Y141.674 E46.41259
G1 X72.838 Y142.309 E46.45817
G1 X53.656 Y161.493 E47.7214
G1 X53.425 Y161.705 E47.736
G1 X52.286 Y162.663 E47.8053
G1 X51.795 Y163.011 E47.83333
G1 X50.465 Y163.797 E47.90526
G1 X49.897 Y164.069 E47.93459
G1 X48.441 Y164.618 E48.00704
G1 X47.84 Y164.787 E48.03612
G1 X46.265 Y165.088 E48.11078
G1 X45.619 Y165.153 E48.14101
G1 X44.128 Y165.168 E48.21044
G1 X43.529 Y165.124 E48.23841
G1 X41.988 Y164.883 E48.31104
G1 X41.371 Y164.731 E48.34063
G1 X39.908 Y164.23 E48.41264
G1 X39.337 Y163.978 E48.4417
G1 X37.98 Y163.234 E48.51376
G1 X37.457 Y162.885 E48.54304
G1 X36.245 Y161.916 E48.61529
G1 X35.711 Y161.391 E48.65016
G1 X34.724 Y160.196 E48.72233
G1 X34.364 Y159.672 E48.75193
G1 X33.601 Y158.325 E48.82402
G1 X33.34 Y157.756 E48.85317
G1 X32.817 Y156.293 E48.92552
G1 X32.658 Y155.686 E48.95473
G1 X32.395 Y154.16 E49.02684
G1 X32.342 Y153.54 E49.05581
G1 X32.343 Y151.995 E49.12775
G1 X32.398 Y151.367 E49.15711
G1 X32.667 Y149.835 E49.22954
G1 X32.829 Y149.226 E49.25888
G1 X33.356 Y147.77 E49.33098
G1 X33.619 Y147.202 E49.36013
G1 X34.388 Y145.857 E49.43227
G1 X34.746 Y145.34 E49.46155
G1 X35.737 Y144.145 E49.53384
G1 X35.965 Y143.896 E49.54956
G1 X57.686 Y122.168 E50.98016
G1 X58.326 Y121.417 E51.0261
G1 X58.765 Y120.702 E51.06517
G1 X59.09 Y119.917 E51.10473
G1 X59.282 Y119.114 E51.14318
G1 X59.36 Y118.127 E51.18928
G1 X59.36 Y91.872 E52.41182
G1 X59.294 Y91.035 E52.45092
G1 X59.075 Y90.046 E52.49809
G1 X58.765 Y89.298 E52.53579
G1 X58.326 Y88.583 E52.57486
G1 X57.691 Y87.838 E52.62044
G1 X36.006 Y66.155 E54.04837
G1 X35.794 Y65.924 E54.06297
G1 X34.836 Y64.785 E54.13227
G1 X34.488 Y64.293 E54.16033
G1 X33.703 Y62.964 E54.2322
G1 X33.431 Y62.397 E54.26149
G1 X32.881 Y60.938 E54.33409
G1 X32.711 Y60.336 E54.36322
G1 X32.421 Y58.816 E54.43527
G1 X32.357 Y58.193 E54.46443
G1 X32.332 Y56.65 E54.53629
G1 X32.376 Y56.029 E54.56528
G1 X32.617 Y54.488 E54.63791
G1 X32.769 Y53.871 E54.6675
G1 X33.27 Y52.408 E54.7395
G1 X33.522 Y51.837 E54.76857
G1 X34.266 Y50.48 E54.84063
G1 X34.615 Y49.957 E54.86991
G1 X35.584 Y48.745 E54.94216
G1 X36.109 Y48.211 E54.97703
G1 X37.303 Y47.225 E55.04914
M204 S3000
M205 X10 Y10
G0 F3000 X37.66 Y47.657
M204 S1800
M205 X8 Y8
G1 F2400 X38.102 Y47.352 E55.07414
G1 X39.45 Y46.588 E55.14629
G1 X39.933 Y46.368 E55.171
G1 X41.394 Y45.846 E55.24325
G1 X41.906 Y45.711 E55.2679
G1 X43.434 Y45.447 E55.34011
G1 X43.96 Y45.402 E55.36469
G1 X45.507 Y45.403 E55.43672
G1 X46.006 Y45.444 E55.46004
G1 X46.576 Y45.538 E55.48694
G1 X46.633 Y45.548 E55.48963
G1 X47.637 Y45.733 E55.53717
G1 X48.139 Y45.87 E55.5614
G1 X49.555 Y46.389 E55.63162
G1 X50.024 Y46.607 E55.65571
G1 X51.365 Y47.374 E55.72764
G1 X51.802 Y47.677 E55.7524
G1 X52.997 Y48.668 E55.82469
G1 X53.208 Y48.86 E55.83797
G1 X59.702 Y55.346 E56.26535
G1 X59.703 Y55.347 E56.26542
G1 X72.455 Y68.1 E57.10519
G1 X73.255 Y68.782 E57.15414
G1 X74.04 Y69.264 E57.19704
G1 X74.908 Y69.623 E57.24077
G1 X75.805 Y69.838 E57.28373
G1 X76.842 Y69.92 E57.33216
G1 X133.158 Y69.92 E59.95447
G1 X134.197 Y69.838 E60.003
G1 X135.097 Y69.622 E60.0461
G1 X135.955 Y69.267 E60.08934
G1 X136.716 Y68.801 E60.13089
G1 X137.551 Y68.094 E60.18183
G1 X156.74 Y48.903 E61.44553
G1 X156.935 Y48.724 E61.45785
G1 X158.075 Y47.765 E61.52722
G1 X158.492 Y47.47 E61.55101
G1 X159.821 Y46.685 E61.62288
G1 X160.3 Y46.455 E61.64762
G1 X161.756 Y45.906 E61.72008
G1 X162.265 Y45.763 E61.7447
G1 X163.788 Y45.472 E61.8169
G1 X164.316 Y45.417 E61.84162
G1 X165.859 Y45.392 E61.91347
G1 X166.385 Y45.429 E61.93803
G1 X167.926 Y45.67 E62.01066
G1 X168.448 Y45.799 E62.03569
G1 X169.911 Y46.3 E62.1077
G1 X170.394 Y46.513 E62.13228
G1 X171.751 Y47.257 E62.20434
G1 X172.193 Y47.552 E62.22909
G1 X173.405 Y48.521 E62.30134
G1 X173.856 Y48.965 E62.33081
G1 X174.841 Y50.157 E62.40281
G1 X175.147 Y50.601 E62.42792
G1 X175.912 Y51.951 E62.50018
G1 X176.132 Y52.431 E62.52476
G1 X176.654 Y53.89 E62.59692
G1 X176.789 Y54.404 E62.62166
G1 X177.053 Y55.934 E62.69396
G1 X177.098 Y56.46 E62.71854
G1 X177.097 Y58.005 E62.79048
G1 X177.051 Y58.536 E62.8153
G1 X176.782 Y60.068 E62.88773
G1 X176.644 Y60.583 E62.91256
G1 X176.117 Y62.039 E62.98466
G1 X175.895 Y62.52 E63.00933
G1 X175.126 Y63.865 E63.08147
G1 X174.823 Y64.302 E63.10623
G1 X173.832 Y65.497 E63.17852
G1 X173.64 Y65.707 E63.19177
G1 X167.673 Y71.682 E63.58497
G1 X167.672 Y71.684 E63.58507
G1 X151.899 Y87.456 E64.62372
G1 X151.219 Y88.254 E64.67254
G1 X150.732 Y89.049 E64.71595
G1 X150.376 Y89.906 E64.75916
