;FLAVOR:Marlin
;TIME:802
;Filament used: 1.34027m
;Layer height: 0.3
;MINX:57.804
;MINY:57.804
;MINZ:0.3
;MAXX:152.196
;MAXY:152.196
;MAXZ:1.2
;Generated with Cura_SteamEngine 4.2.1
M140 S60
M105
M190 S60
M104 S200
M105
M109 S200
M82 ;absolute extrusion mode
G21 ;metric values
G90 ;absolute positioning
M82 ;set extruder to absolute mode
M107 ;start with the fan off
G28 X0 Y0 ;move X/Y to min endstops
G28 Z0 ;move Z to min endstops
G1 Z15.0 F100 ;move the platform down 15mm
G92 E0 ;zero the extruded length
G1 F200 E3 ;extrude 3mm of feed stock
G92 E0 ;zero the extruded length again
G1 F100
M117 Printing...
G5
M141 S28
G92 E0
G92 E0
G1 F2400 E-6
;LAYER_COUNT:4
;LAYER:0
M106 S255
M204 S3000
M205 X10 Y10
G0 F3000 X72.013 Y71.245 Z0.3
M204 S1800
M205 X8 Y8
;TYPE:SKIRT
G1 F2400 E0
G1 X72.111 Y71.15 E0.00953
G1 X73.163 Y70.158 E0.11053
G1 X73.267 Y70.063 E0.12037
G1 X74.339 Y69.118 E0.22018
G1 X74.448 Y69.025 E0.23019
G1 X75.557 Y68.113 E0.33048
G1 X75.664 Y68.028 E0.34002
G1 X76.803 Y67.152 E0.44038
G1 X76.918 Y67.067 E0.45037
G1 X78.093 Y66.225 E0.55134
G1 X78.209 Y66.145 E0.56118
G1 X79.398 Y65.352 E0.661
G1 X79.514 Y65.277 E0.67065
G1 X80.734 Y64.52 E0.77093
G1 X80.852 Y64.449 E0.78055
G1 X82.106 Y63.727 E0.88162
G1 X82.235 Y63.656 E0.8919
G1 X83.497 Y62.987 E0.99167
G1 X83.616 Y62.926 E1.00101
G1 X84.906 Y62.294 E1.10134
G1 X85.038 Y62.233 E1.1115
G1 X86.349 Y61.646 E1.21183
G1 X86.474 Y61.592 E1.22134
G1 X87.803 Y61.048 E1.32164
G1 X87.938 Y60.996 E1.33175
G1 X89.296 Y60.494 E1.43287
G1 X89.427 Y60.447 E1.44259
G1 X90.79 Y59.994 E1.54291
G1 X90.919 Y59.954 E1.55235
G1 X92.289 Y59.547 E1.65217
G1 X92.428 Y59.508 E1.66225
G1 X93.828 Y59.144 E1.76329
G1 X93.964 Y59.111 E1.77306
G1 X95.356 Y58.798 E1.87272
G1 X95.497 Y58.769 E1.88277
G1 X96.909 Y58.502 E1.98314
G1 X97.048 Y58.478 E1.99299
G1 X98.478 Y58.257 E2.09406
G1 X98.612 Y58.239 E2.1035
G1 X100.034 Y58.066 E2.20356
G1 X100.177 Y58.051 E2.2136
G1 X101.603 Y57.927 E2.31358
G1 X101.74 Y57.917 E2.32317
G1 X103.183 Y57.839 E2.42411
G1 X103.325 Y57.834 E2.43403
G1 X104.761 Y57.805 E2.53435
G1 X104.893 Y57.804 E2.54357
G1 X106.322 Y57.82 E2.64339
G1 X106.47 Y57.825 E2.65373
G1 X107.913 Y57.892 E2.75463
G1 X108.054 Y57.9 E2.76449
G1 X109.485 Y58.015 E2.86476
G1 X109.625 Y58.029 E2.87459
G1 X111.045 Y58.191 E2.97441
G1 X111.181 Y58.209 E2.984
G1 X112.613 Y58.42 E3.0851
G1 X112.754 Y58.443 E3.09508
G1 X114.159 Y58.699 E3.19482
G1 X114.297 Y58.727 E3.20466
G1 X115.711 Y59.034 E3.30572
G1 X115.85 Y59.066 E3.31569
G1 X117.234 Y59.416 E3.4154
G1 X117.366 Y59.452 E3.42495
G1 X118.755 Y59.852 E3.52591
G1 X118.885 Y59.892 E3.53541
G1 X120.243 Y60.331 E3.6351
G1 X120.382 Y60.378 E3.64535
G1 X121.734 Y60.868 E3.74579
G1 X121.863 Y60.918 E3.75545
G1 X123.205 Y61.455 E3.85641
G1 X123.337 Y61.51 E3.8664
G1 X124.652 Y62.089 E3.96676
G1 X124.778 Y62.147 E3.97644
G1 X126.065 Y62.765 E4.07616
G1 X126.186 Y62.825 E4.0856
G1 X127.46 Y63.488 E4.18591
G1 X127.59 Y63.559 E4.19625
G1 X128.851 Y64.273 E4.29747
G1 X128.967 Y64.341 E4.30686
G1 X130.185 Y65.083 E4.40648
G1 X130.305 Y65.159 E4.4164
G1 X131.505 Y65.947 E4.51667
G1 X131.625 Y66.029 E4.52682
G1 X132.807 Y66.865 E4.62794
G1 X132.917 Y66.946 E4.63748
G1 X134.062 Y67.813 E4.7378
G1 X134.172 Y67.898 E4.74751
G1 X135.281 Y68.797 E4.84722
G1 X135.391 Y68.89 E4.85728
G1 X136.475 Y69.832 E4.95759
G1 X136.575 Y69.922 E4.96699
G1 X137.63 Y70.9 E5.06747
G1 X137.736 Y71.001 E5.07769
G1 X138.754 Y72.013 E5.17795
G1 X138.849 Y72.11 E5.18743
G1 X139.842 Y73.163 E5.28853
G1 X139.937 Y73.268 E5.29842
G1 X140.882 Y74.34 E5.39823
G1 X140.974 Y74.448 E5.40814
G1 X141.887 Y75.557 E5.50847
G1 X141.974 Y75.666 E5.51821
G1 X142.849 Y76.804 E5.61848
G1 X142.933 Y76.917 E5.62831
G1 X143.776 Y78.093 E5.72938
G1 X143.857 Y78.21 E5.73932
G1 X144.649 Y79.398 E5.83904
G1 X144.723 Y79.514 E5.84865
G1 X145.48 Y80.734 E5.94894
G1 X145.551 Y80.853 E5.95861
G1 X146.272 Y82.106 E6.05959
G1 X146.342 Y82.233 E6.06972
G1 X147.012 Y83.496 E6.16958
G1 X147.073 Y83.615 E6.17892
G1 X147.705 Y84.904 E6.27919
G1 X147.767 Y85.035 E6.28931
G1 X148.355 Y86.347 E6.38973
G1 X148.409 Y86.473 E6.3993
G1 X148.953 Y87.801 E6.49954
G1 X149.006 Y87.938 E6.5098
G1 X149.504 Y89.287 E6.61024
G1 X149.55 Y89.418 E6.61994
G1 X150.006 Y90.791 E6.72099
G1 X150.046 Y90.919 E6.73035
G1 X150.453 Y92.289 E6.83018
G1 X150.492 Y92.43 E6.84039
G1 X150.855 Y93.829 E6.94135
G1 X150.888 Y93.963 E6.95098
G1 X151.201 Y95.356 E7.05071
G1 X151.229 Y95.493 E7.06047
G1 X151.497 Y96.904 E7.16079
G1 X151.522 Y97.045 E7.17079
G1 X151.742 Y98.466 E7.27122
G1 X151.76 Y98.603 E7.28087
G1 X151.933 Y100.029 E7.38121
G1 X151.948 Y100.17 E7.39111
G1 X152.073 Y101.602 E7.49151
G1 X152.083 Y101.739 E7.5011
G1 X152.161 Y103.172 E7.60134
G1 X152.166 Y103.315 E7.61134
G1 X152.195 Y104.754 E7.71187
G1 X152.196 Y104.886 E7.72109
G1 X152.18 Y106.321 E7.82132
G1 X152.175 Y106.469 E7.83166
G1 X152.108 Y107.914 E7.9327
G1 X152.1 Y108.054 E7.9425
G1 X151.986 Y109.478 E8.04227
G1 X151.972 Y109.62 E8.05224
G1 X151.809 Y111.047 E8.15256
G1 X151.791 Y111.183 E8.16214
G1 X151.58 Y112.613 E8.2631
G1 X151.557 Y112.752 E8.27294
G1 X151.301 Y114.158 E8.37276
G1 X151.273 Y114.297 E8.38267
G1 X150.966 Y115.711 E8.48373
G1 X150.934 Y115.848 E8.49356
G1 X150.585 Y117.231 E8.59318
G1 X150.548 Y117.367 E8.60303
G1 X150.147 Y118.757 E8.70407
G1 X150.109 Y118.884 E8.71333
G1 X149.67 Y120.243 E8.81308
G1 X149.621 Y120.384 E8.82351
G1 X149.131 Y121.735 E8.92388
G1 X149.083 Y121.862 E8.93337
G1 X148.55 Y123.195 E9.03364
G1 X148.494 Y123.328 E9.04372
G1 X147.915 Y124.643 E9.14408
G1 X147.857 Y124.768 E9.1537
G1 X147.235 Y126.064 E9.25411
G1 X147.175 Y126.185 E9.26354
G1 X146.513 Y127.458 E9.36376
G1 X146.442 Y127.588 E9.3741
G1 X145.733 Y128.841 E9.47466
G1 X145.663 Y128.96 E9.4843
G1 X144.915 Y130.186 E9.58462
G1 X144.841 Y130.304 E9.59434
G1 X144.052 Y131.506 E9.69477
G1 X143.97 Y131.626 E9.70492
G1 X143.135 Y132.807 E9.80595
G1 X143.055 Y132.916 E9.81539
G1 X142.188 Y134.062 E9.91576
G1 X142.102 Y134.172 E9.92551
G1 X141.204 Y135.28 E10.02513
G1 X141.111 Y135.391 E10.03524
G1 X140.168 Y136.476 E10.13565
G1 X140.078 Y136.576 E10.14504
G1 X139.101 Y137.63 E10.24542
G1 X139 Y137.736 E10.25565
G1 X137.987 Y138.755 E10.35601
G1 X137.889 Y138.85 E10.36554
G1 X136.837 Y139.842 E10.46654
G1 X136.733 Y139.937 E10.47638
G1 X135.661 Y140.882 E10.57619
G1 X135.552 Y140.975 E10.5862
G1 X134.443 Y141.887 E10.68649
G1 X134.336 Y141.972 E10.69603
G1 X133.197 Y142.848 E10.79639
G1 X133.082 Y142.933 E10.80638
G1 X131.907 Y143.775 E10.90735
G1 X131.791 Y143.855 E10.91719
G1 X130.602 Y144.648 E11.01701
G1 X130.486 Y144.723 E11.02666
G1 X129.266 Y145.48 E11.12694
G1 X129.148 Y145.551 E11.13656
G1 X127.894 Y146.273 E11.23763
G1 X127.765 Y146.344 E11.24791
G1 X126.503 Y147.013 E11.34768
G1 X126.384 Y147.074 E11.35702
G1 X125.094 Y147.706 E11.45735
G1 X124.962 Y147.767 E11.46751
G1 X123.651 Y148.354 E11.56784
G1 X123.526 Y148.408 E11.57735
G1 X122.197 Y148.952 E11.67765
G1 X122.062 Y149.004 E11.68776
G1 X120.704 Y149.506 E11.78888
G1 X120.573 Y149.553 E11.7986
G1 X119.21 Y150.006 E11.89892
G1 X119.081 Y150.046 E11.90835
G1 X117.711 Y150.453 E12.00818
G1 X117.572 Y150.492 E12.01826
G1 X116.172 Y150.856 E12.1193
G1 X116.036 Y150.889 E12.12907
G1 X114.644 Y151.202 E12.22873
G1 X114.503 Y151.231 E12.23878
G1 X113.091 Y151.498 E12.33915
G1 X112.952 Y151.522 E12.349
G1 X111.522 Y151.743 E12.45007
G1 X111.388 Y151.761 E12.45951
G1 X109.966 Y151.934 E12.55957
G1 X109.823 Y151.949 E12.56961
G1 X108.397 Y152.073 E12.66959
G1 X108.26 Y152.083 E12.67918
G1 X106.817 Y152.161 E12.78011
G1 X106.675 Y152.166 E12.79004
G1 X105.239 Y152.195 E12.89036
G1 X105.107 Y152.196 E12.89958
G1 X103.678 Y152.18 E12.9994
G1 X103.53 Y152.175 E13.00974
G1 X102.087 Y152.108 E13.11064
G1 X101.946 Y152.1 E13.1205
G1 X100.515 Y151.985 E13.22077
G1 X100.375 Y151.971 E13.2306
G1 X98.956 Y151.809 E13.33035
G1 X98.82 Y151.791 E13.33994
G1 X97.387 Y151.58 E13.44111
G1 X97.246 Y151.557 E13.45108
G1 X95.841 Y151.301 E13.55083
G1 X95.703 Y151.273 E13.56067
G1 X94.289 Y150.966 E13.66173
G1 X94.15 Y150.934 E13.6717
G1 X92.766 Y150.584 E13.77141
G1 X92.634 Y150.548 E13.78096
G1 X91.245 Y150.148 E13.88192
G1 X91.114 Y150.108 E13.89149
G1 X89.754 Y149.668 E13.99133
G1 X89.616 Y149.621 E14.00151
G1 X88.267 Y149.132 E14.10173
G1 X88.139 Y149.083 E14.1113
G1 X86.796 Y148.546 E14.21233
G1 X86.663 Y148.49 E14.22241
G1 X85.348 Y147.911 E14.32277
G1 X85.222 Y147.853 E14.33245
G1 X83.927 Y147.231 E14.4328
G1 X83.807 Y147.171 E14.44217
G1 X82.54 Y146.512 E14.54192
G1 X82.407 Y146.44 E14.55248
G1 X81.147 Y145.726 E14.65363
G1 X81.033 Y145.659 E14.66287
G1 X79.807 Y144.912 E14.76315
G1 X79.686 Y144.835 E14.77316
G1 X78.494 Y144.052 E14.87278
G1 X78.375 Y143.971 E14.88283
G1 X77.193 Y143.135 E14.98395
G1 X77.083 Y143.054 E14.99349
G1 X75.938 Y142.187 E15.09381
G1 X75.828 Y142.102 E15.10352
G1 X74.719 Y141.203 E15.20323
G1 X74.609 Y141.11 E15.21329
G1 X73.524 Y140.167 E15.3137
G1 X73.423 Y140.077 E15.32315
G1 X72.363 Y139.094 E15.42412
G1 X72.258 Y138.993 E15.43429
G1 X71.238 Y137.979 E15.53475
G1 X71.143 Y137.881 E15.54428
G1 X70.158 Y136.836 E15.64459
G1 X70.063 Y136.732 E15.65443
G1 X69.112 Y135.653 E15.75488
G1 X69.02 Y135.545 E15.76479
G1 X68.113 Y134.443 E15.86448
G1 X68.027 Y134.334 E15.87418
G1 X67.145 Y133.187 E15.97524
G1 X67.06 Y133.073 E15.98517
G1 X66.224 Y131.906 E16.08544
G1 X66.144 Y131.79 E16.09528
G1 X65.351 Y130.601 E16.19511
G1 X65.276 Y130.485 E16.20475
G1 X64.515 Y129.258 E16.3056
G1 X64.443 Y129.138 E16.31537
G1 X63.726 Y127.891 E16.41584
G1 X63.657 Y127.765 E16.42588
G1 X62.984 Y126.496 E16.52621
G1 X62.923 Y126.378 E16.53548
G1 X62.29 Y125.088 E16.63585
G1 X62.227 Y124.953 E16.64625
G1 X61.64 Y123.641 E16.74665
G1 X61.587 Y123.517 E16.75607
G1 X61.047 Y122.198 E16.85561
G1 X60.994 Y122.061 E16.86587
G1 X60.493 Y120.703 E16.96697
G1 X60.447 Y120.572 E16.97667
G1 X59.994 Y119.207 E17.07713
G1 X59.954 Y119.081 E17.08636
G1 X59.547 Y117.712 E17.18611
G1 X59.508 Y117.57 E17.1964
G1 X59.145 Y116.171 E17.29735
G1 X59.112 Y116.037 E17.30699
G1 X58.797 Y114.635 E17.40736
G1 X58.769 Y114.496 E17.41726
G1 X58.503 Y113.093 E17.517
G1 X58.478 Y112.953 E17.52693
G1 X58.257 Y111.524 E17.62793
G1 X58.238 Y111.387 E17.63759
G1 X58.065 Y109.959 E17.73806
G1 X58.051 Y109.819 E17.74789
G1 X57.927 Y108.398 E17.84752
G1 X57.917 Y108.26 E17.85718
G1 X57.839 Y106.818 E17.95805
G1 X57.834 Y106.676 E17.96797
G1 X57.805 Y105.247 E18.0678
G1 X57.804 Y105.115 E18.07702
G1 X57.82 Y103.679 E18.17733
G1 X57.825 Y103.531 E18.18767
G1 X57.892 Y102.086 E18.28871
G1 X57.9 Y101.946 E18.2985
G1 X58.014 Y100.522 E18.39828
G1 X58.028 Y100.38 E18.40825
G1 X58.191 Y98.953 E18.50856
G1 X58.209 Y98.817 E18.51815
G1 X58.42 Y97.387 E18.61911
G1 X58.443 Y97.248 E18.62895
G1 X58.699 Y95.842 E18.72877
G1 X58.727 Y95.703 E18.73867
G1 X59.034 Y94.289 E18.83973
G1 X59.066 Y94.152 E18.84956
G1 X59.415 Y92.769 E18.94919
G1 X59.452 Y92.633 E18.95903
G1 X59.853 Y91.243 E19.06008
G1 X59.891 Y91.116 E19.06934
G1 X60.33 Y89.757 E19.16909
G1 X60.379 Y89.616 E19.17951
G1 X60.869 Y88.265 E19.27989
G1 X60.917 Y88.138 E19.28937
G1 X61.45 Y86.805 E19.38964
G1 X61.506 Y86.672 E19.39972
G1 X62.085 Y85.357 E19.50008
G1 X62.143 Y85.232 E19.50971
G1 X62.765 Y83.936 E19.61011
G1 X62.825 Y83.815 E19.61954
G1 X63.487 Y82.542 E19.71976
G1 X63.558 Y82.412 E19.73011
G1 X64.267 Y81.159 E19.83067
G1 X64.337 Y81.04 E19.84031
G1 X65.085 Y79.814 E19.94062
G1 X65.159 Y79.696 E19.95035
G1 X65.948 Y78.494 E20.05077
G1 X66.03 Y78.374 E20.06093
G1 X66.865 Y77.193 E20.16195
G1 X66.945 Y77.084 E20.17139
G1 X67.812 Y75.938 E20.27176
G1 X67.898 Y75.828 E20.28152
G1 X68.796 Y74.72 E20.38113
G1 X68.889 Y74.609 E20.39125
G1 X69.832 Y73.524 E20.49165
G1 X69.922 Y73.424 E20.50105
G1 X70.899 Y72.37 E20.60143
G1 X71 Y72.264 E20.61166
G1 X72.013 Y71.245 E20.71201
M204 S3000
M205 X10 Y10
G0 F3000 X72.411 Y71.64
M204 S1800
M205 X8 Y8
G1 F2400 X72.495 Y71.558 E20.72021
G1 X73.547 Y70.566 E20.82121
G1 X73.637 Y70.483 E20.82976
G1 X74.709 Y69.538 E20.92957
G1 X74.804 Y69.458 E20.93825
G1 X75.913 Y68.546 E21.03854
G1 X76.006 Y68.472 E21.04684
G1 X77.145 Y67.596 E21.1472
G1 X77.244 Y67.522 E21.15583
G1 X78.419 Y66.68 E21.2568
G1 X78.519 Y66.611 E21.26528
G1 X79.708 Y65.818 E21.36511
G1 X79.809 Y65.753 E21.3735
G1 X81.029 Y64.996 E21.47378
G1 X81.132 Y64.934 E21.48218
G1 X82.386 Y64.212 E21.58324
G1 X82.497 Y64.151 E21.59209
G1 X83.759 Y63.482 E21.69186
G1 X83.863 Y63.429 E21.70001
G1 X85.153 Y62.797 E21.80034
G1 X85.266 Y62.744 E21.80906
G1 X86.577 Y62.157 E21.90939
G1 X86.686 Y62.11 E21.91768
G1 X88.015 Y61.566 E22.01798
G1 X88.132 Y61.521 E22.02674
G1 X89.49 Y61.019 E22.12786
G1 X89.604 Y60.979 E22.1363
G1 X90.967 Y60.526 E22.23662
G1 X91.078 Y60.491 E22.24475
G1 X92.448 Y60.084 E22.34457
G1 X92.569 Y60.05 E22.35335
G1 X93.969 Y59.686 E22.45439
G1 X94.086 Y59.658 E22.46279
G1 X95.478 Y59.345 E22.56244
G1 X95.601 Y59.319 E22.57122
G1 X97.013 Y59.052 E22.67159
G1 X97.133 Y59.032 E22.68009
G1 X98.563 Y58.811 E22.78116
G1 X98.679 Y58.795 E22.78934
G1 X100.101 Y58.622 E22.88939
G1 X100.226 Y58.609 E22.89817
G1 X101.652 Y58.485 E22.99814
G1 X101.771 Y58.476 E23.00648
G1 X103.214 Y58.398 E23.10742
G1 X103.337 Y58.394 E23.11601
G1 X104.773 Y58.365 E23.21633
G1 X104.887 Y58.364 E23.22429
G1 X106.316 Y58.38 E23.32411
G1 X106.444 Y58.384 E23.33306
G1 X107.887 Y58.451 E23.43395
G1 X108.01 Y58.459 E23.44256
G1 X109.441 Y58.574 E23.54283
G1 X109.562 Y58.585 E23.55132
G1 X110.982 Y58.747 E23.65114
G1 X111.1 Y58.763 E23.65946
G1 X112.532 Y58.974 E23.76056
G1 X112.653 Y58.994 E23.76913
G1 X114.058 Y59.25 E23.86888
G1 X114.178 Y59.274 E23.87743
G1 X115.592 Y59.581 E23.97849
G1 X115.712 Y59.609 E23.9871
G1 X117.096 Y59.959 E24.08681
G1 X117.211 Y59.99 E24.09512
G1 X118.6 Y60.39 E24.19608
G1 X118.713 Y60.424 E24.20433
G1 X120.071 Y60.863 E24.30401
G1 X120.191 Y60.905 E24.31289
G1 X121.543 Y61.395 E24.41333
G1 X121.655 Y61.438 E24.42171
G1 X122.997 Y61.975 E24.52267
G1 X123.112 Y62.023 E24.53138
G1 X124.427 Y62.602 E24.63173
G1 X124.536 Y62.652 E24.64011
G1 X125.823 Y63.27 E24.73983
G1 X125.927 Y63.322 E24.74795
G1 X127.201 Y63.985 E24.84826
G1 X127.314 Y64.047 E24.85726
G1 X128.575 Y64.761 E24.95848
G1 X128.676 Y64.819 E24.96661
G1 X129.894 Y65.561 E25.06623
G1 X129.998 Y65.627 E25.07483
G1 X131.198 Y66.415 E25.1751
G1 X131.302 Y66.486 E25.1839
G1 X132.484 Y67.322 E25.28502
G1 X132.579 Y67.392 E25.29326
G1 X133.724 Y68.259 E25.39358
G1 X133.819 Y68.333 E25.40199
G1 X134.928 Y69.232 E25.5017
G1 X135.024 Y69.312 E25.51043
G1 X136.108 Y70.254 E25.61074
G1 X136.195 Y70.333 E25.61895
G1 X137.25 Y71.311 E25.71942
G1 X137.341 Y71.399 E25.72827
G1 X138.359 Y72.411 E25.82853
G1 X138.441 Y72.495 E25.83673
G1 X139.434 Y73.548 E25.93782
G1 X139.517 Y73.638 E25.94637
G1 X140.462 Y74.71 E26.04618
G1 X140.541 Y74.803 E26.05471
G1 X141.454 Y75.912 E26.15504
G1 X141.53 Y76.007 E26.16354
G1 X142.405 Y77.145 E26.2638
G1 X142.477 Y77.243 E26.27229
G1 X143.32 Y78.419 E26.37336
G1 X143.391 Y78.521 E26.38204
G1 X144.183 Y79.709 E26.48176
G1 X144.247 Y79.809 E26.49006
G1 X145.004 Y81.029 E26.59034
G1 X145.066 Y81.133 E26.5988
G1 X145.787 Y82.386 E26.69977
G1 X145.848 Y82.495 E26.70849
G1 X146.518 Y83.758 E26.80835
G1 X146.57 Y83.862 E26.81648
G1 X147.202 Y85.151 E26.91675
G1 X147.256 Y85.264 E26.92549
G1 X147.844 Y86.576 E27.02591
G1 X147.89 Y86.685 E27.03418
G1 X148.434 Y88.013 E27.13441
G1 X148.481 Y88.132 E27.14335
G1 X148.979 Y89.481 E27.24379
G1 X149.018 Y89.595 E27.2522
