;FLAVOR:Marlin
;TIME:1679
;Filament used: 2.39139m
;Layer height: 0.3
;MINX:82.552
;MINY:66.652
;MINZ:0.3
;MAXX:125.099
;MAXY:143.347
;MAXZ:10.5
;Generated with Cura_SteamEngine 4.2.1
M140 S60
M105
M190 S60
M104 S200
M105
M109 S200
M82 ;absolute extrusion mode
G21 ;metric values
G90 ;absolute positioning
M82 ;set extruder to absolute mode
M107 ;start with the fan off
G28 X0 Y0 ;move X/Y to min endstops
G28 Z0 ;move Z to min endstops
G1 Z15.0 F100 ;move the platform down 15mm
G92 E0 ;zero the extruded length
G1 F200 E3 ;extrude 3mm of feed stock
G92 E0 ;zero the extruded length again
G1 F100
M117 Printing...
G5
M141 S28
G92 E0
G92 E0
G1 F2400 E-6
;LAYER_COUNT:35
;LAYER:0
M106 S255
M204 S3000
M205 X10 Y10
G0 F3000 X83.513 Y68.343 Z0.3
M204 S1800
M205 X8 Y8
;TYPE:SKIRT
G1 F2400 E0
G1 X83.8 Y68.029 E0.02971
G1 X83.967 Y67.864 E0.04611
G1 X84.406 Y67.487 E0.08653
G1 X84.893 Y67.173 E0.127
G1 X85.419 Y66.929 E0.1675
G1 X85.973 Y66.76 E0.20795
G1 X86.545 Y66.669 E0.24841
G1 X86.978 Y66.652 E0.27868
G1 X87.76 Y66.663 E0.3333
G1 X87.88 Y66.667 E0.34169
G1 X88.909 Y66.711 E0.41362
G1 X89.037 Y66.718 E0.42258
G1 X90.047 Y66.792 E0.49331
G1 X90.173 Y66.803 E0.50215
G1 X91.195 Y66.909 E0.57391
G1 X91.32 Y66.924 E0.58271
G1 X92.335 Y67.06 E0.65423
G1 X92.453 Y67.078 E0.66257
G1 X93.452 Y67.241 E0.73327
G1 X93.582 Y67.264 E0.74249
G1 X94.595 Y67.462 E0.81458
G1 X94.71 Y67.486 E0.82279
G1 X95.707 Y67.71 E0.89416
G1 X95.836 Y67.741 E0.90343
G1 X96.816 Y67.994 E0.97412
G1 X96.939 Y68.028 E0.98304
G1 X97.929 Y68.316 E1.05505
G1 X98.042 Y68.351 E1.06331
G1 X99.006 Y68.661 E1.13404
G1 X99.129 Y68.702 E1.1431
G1 X100.092 Y69.045 E1.2145
G1 X100.211 Y69.09 E1.22338
G1 X101.171 Y69.465 E1.29537
G1 X101.283 Y69.51 E1.3038
G1 X102.226 Y69.91 E1.37535
G1 X102.342 Y69.962 E1.38422
G1 X103.261 Y70.385 E1.45489
G1 X103.38 Y70.442 E1.4641
G1 X104.302 Y70.902 E1.53607
G1 X104.407 Y70.956 E1.54432
G1 X105.301 Y71.434 E1.61513
G1 X105.416 Y71.498 E1.62432
G1 X106.302 Y72.008 E1.69572
G1 X106.408 Y72.071 E1.70433
G1 X107.284 Y72.61 E1.77617
G1 X107.385 Y72.674 E1.78453
G1 X108.241 Y73.235 E1.85601
G1 X108.351 Y73.31 E1.86531
G1 X109.179 Y73.891 E1.93596
G1 X109.282 Y73.966 E1.94486
G1 X110.107 Y74.583 E2.01681
G1 X110.203 Y74.656 E2.02524
G1 X110.997 Y75.286 E2.09603
G1 X111.097 Y75.368 E2.10506
G1 X111.878 Y76.028 E2.17648
G1 X111.971 Y76.109 E2.1851
G1 X112.737 Y76.796 E2.25697
G1 X112.827 Y76.88 E2.26557
G1 X113.562 Y77.579 E2.33641
G1 X113.656 Y77.671 E2.3456
G1 X114.374 Y78.398 E2.41697
G1 X114.459 Y78.486 E2.42551
G1 X115.155 Y79.233 E2.49682
G1 X115.241 Y79.328 E2.50577
G1 X115.92 Y80.103 E2.57774
G1 X115.996 Y80.192 E2.58592
G1 X116.641 Y80.971 E2.65656
G1 X116.722 Y81.073 E2.66565
G1 X117.35 Y81.881 E2.73713
G1 X117.429 Y81.985 E2.74625
G1 X118.03 Y82.81 E2.81755
G1 X118.1 Y82.91 E2.82607
G1 X118.678 Y83.754 E2.89752
G1 X118.748 Y83.858 E2.90628
G1 X119.3 Y84.718 E2.97765
G1 X119.366 Y84.825 E2.98643
G1 X119.892 Y85.701 E3.0578
G1 X119.956 Y85.812 E3.06675
G1 X120.454 Y86.702 E3.13799
G1 X120.51 Y86.806 E3.14624
G1 X120.984 Y87.712 E3.21765
G1 X121.043 Y87.829 E3.22681
G1 X121.488 Y88.748 E3.29812
G1 X121.542 Y88.864 E3.30706
G1 X121.959 Y89.797 E3.37844
G1 X122.004 Y89.9 E3.38629
G1 X122.396 Y90.844 E3.45768
G1 X122.449 Y90.98 E3.46788
G1 X122.808 Y91.937 E3.53927
G1 X122.848 Y92.048 E3.54751
G1 X123.182 Y93.021 E3.61936
G1 X123.219 Y93.134 E3.62767
G1 X123.521 Y94.102 E3.69849
G1 X123.559 Y94.231 E3.70789
G1 X123.832 Y95.216 E3.77928
G1 X123.862 Y95.331 E3.78758
G1 X124.107 Y96.323 E3.85895
G1 X124.136 Y96.445 E3.86771
G1 X124.353 Y97.452 E3.93966
G1 X124.378 Y97.578 E3.94863
G1 X124.561 Y98.574 E4.01936
G1 X124.583 Y98.704 E4.02857
G1 X124.736 Y99.714 E4.09992
G1 X124.752 Y99.834 E4.10838
G1 X124.876 Y100.849 E4.1798
G1 X124.889 Y100.97 E4.1883
G1 X124.984 Y101.995 E4.2602
G1 X124.994 Y102.118 E4.26882
G1 X125.058 Y103.131 E4.33971
G1 X125.064 Y103.268 E4.34929
G1 X125.095 Y104.287 E4.4205
G1 X125.097 Y104.407 E4.42888
G1 X125.099 Y105.431 E4.5004
G1 X125.097 Y105.554 E4.50899
G1 X125.069 Y106.574 E4.58026
G1 X125.064 Y106.708 E4.58963
G1 X125.003 Y107.737 E4.66163
G1 X124.994 Y107.849 E4.66948
G1 X124.907 Y108.857 E4.74014
G1 X124.894 Y108.993 E4.74969
G1 X124.773 Y110.009 E4.82115
G1 X124.757 Y110.126 E4.8294
G1 X124.608 Y111.135 E4.90064
G1 X124.586 Y111.266 E4.90992
G1 X124.403 Y112.281 E4.98195
G1 X124.381 Y112.394 E4.98999
G1 X124.174 Y113.386 E5.06077
G1 X124.145 Y113.519 E5.07028
G1 X123.904 Y114.512 E5.14165
G1 X123.872 Y114.635 E5.15053
G1 X123.601 Y115.62 E5.22188
G1 X123.568 Y115.732 E5.23004
G1 X123.267 Y116.718 E5.30205
G1 X123.226 Y116.845 E5.31137
G1 X122.9 Y117.803 E5.38205
G1 X122.862 Y117.909 E5.38991
G1 X122.507 Y118.867 E5.46127
G1 X122.457 Y118.995 E5.47087
G1 X122.07 Y119.943 E5.54239
G1 X122.022 Y120.058 E5.55109
G1 X121.608 Y120.992 E5.62245
G1 X121.558 Y121.099 E5.6307
G1 X121.118 Y122.021 E5.70206
G1 X121.058 Y122.143 E5.71155
G1 X120.588 Y123.051 E5.78296
G1 X120.532 Y123.154 E5.79115
G1 X120.037 Y124.048 E5.86253
G1 X119.97 Y124.166 E5.87201
G1 X119.442 Y125.051 E5.94399
G1 X119.379 Y125.153 E5.95236
G1 X118.836 Y126.007 E6.02304
G1 X118.771 Y126.105 E6.03126
G1 X118.199 Y126.951 E6.10259
G1 X118.123 Y127.061 E6.11193
G1 X117.524 Y127.889 E6.1833
G1 X117.444 Y127.995 E6.19258
G1 X116.818 Y128.805 E6.26408
G1 X116.743 Y128.9 E6.27254
G1 X116.091 Y129.695 E6.34435
G1 X116.015 Y129.785 E6.35258
G1 X115.351 Y130.55 E6.42333
G1 X115.268 Y130.643 E6.43204
G1 X114.575 Y131.395 E6.50346
G1 X114.48 Y131.494 E6.51305
G1 X113.763 Y132.223 E6.58447
G1 X113.676 Y132.309 E6.59301
G1 X112.94 Y133.015 E6.66424
G1 X112.848 Y133.101 E6.67304
G1 X112.083 Y133.792 E6.74504
G1 X111.992 Y133.872 E6.75351
G1 X111.221 Y134.529 E6.82426
G1 X111.129 Y134.605 E6.83259
G1 X110.333 Y135.245 E6.90393
G1 X110.222 Y135.332 E6.91378
G1 X109.397 Y135.951 E6.98582
G1 X109.301 Y136.02 E6.99408
G1 X108.474 Y136.605 E7.06483
G1 X108.37 Y136.676 E7.07363
G1 X107.518 Y137.241 E7.14503
G1 X107.411 Y137.31 E7.15393
G1 X106.537 Y137.852 E7.22576
G1 X106.428 Y137.917 E7.23462
G1 X105.544 Y138.429 E7.30597
G1 X105.439 Y138.488 E7.31439
G1 X104.547 Y138.971 E7.38524
G1 X104.434 Y139.03 E7.39414
G1 X103.521 Y139.489 E7.46552
G1 X103.407 Y139.544 E7.47436
G1 X102.473 Y139.979 E7.54632
G1 X102.356 Y140.032 E7.55529
G1 X101.419 Y140.434 E7.62651
G1 X101.311 Y140.478 E7.63465
G1 X100.368 Y140.852 E7.70551
G1 X100.241 Y140.9 E7.71499
G1 X99.279 Y141.246 E7.7864
G1 X99.161 Y141.287 E7.79512
G1 X98.19 Y141.604 E7.86647
G1 X98.074 Y141.64 E7.87495
G1 X97.086 Y141.931 E7.94689
G1 X96.964 Y141.965 E7.95573
G1 X95.984 Y142.222 E8.0265
G1 X95.861 Y142.252 E8.03534
G1 X94.866 Y142.481 E8.10666
G1 X94.747 Y142.507 E8.11516
G1 X93.736 Y142.709 E8.18717
G1 X93.607 Y142.732 E8.19633
G1 X92.598 Y142.901 E8.26778
G1 X92.479 Y142.919 E8.27619
G1 X91.473 Y143.058 E8.34712
G1 X91.348 Y143.074 E8.35592
G1 X90.336 Y143.183 E8.42702
G1 X90.202 Y143.195 E8.43641
G1 X89.182 Y143.272 E8.50786
G1 X89.066 Y143.279 E8.51598
G1 X88.037 Y143.328 E8.58793
G1 X87.906 Y143.332 E8.59708
G1 X86.988 Y143.347 E8.66121
G1 X86.409 Y143.317 E8.70171
G1 X85.84 Y143.207 E8.74218
G1 X85.292 Y143.02 E8.78263
G1 X84.775 Y142.759 E8.82308
G1 X84.298 Y142.43 E8.86355
G1 X83.967 Y142.136 E8.89447
G1 X83.8 Y141.971 E8.91087
G1 X83.417 Y141.536 E8.95135
G1 X83.097 Y141.053 E8.99182
G1 X82.847 Y140.53 E9.03231
G1 X82.672 Y139.978 E9.07276
G1 X82.573 Y139.407 E9.11323
G1 X82.552 Y138.983 E9.14288
G1 X82.552 Y71.017 E13.89006
G1 X82.592 Y70.439 E13.93052
G1 X82.711 Y69.872 E13.97099
G1 X82.907 Y69.327 E14.01144
G1 X83.176 Y68.814 E14.0519
G1 X83.513 Y68.343 E14.09235
M204 S3000
M205 X10 Y10
G0 F3000 X83.734 Y68.982
M204 S1800
M205 X8 Y8
G1 F2400 X84.194 Y68.428 E14.14265
G1 X84.361 Y68.263 E14.15904
G1 X84.771 Y67.913 E14.1967
G1 X85.229 Y67.628 E14.23437
G1 X85.724 Y67.414 E14.27204
G1 X86.245 Y67.275 E14.3097
G1 X86.97 Y67.212 E14.36053
G1 X87.752 Y67.223 E14.41516
G1 X87.857 Y67.226 E14.4225
G1 X88.886 Y67.27 E14.49443
G1 X88.996 Y67.277 E14.50213
G1 X90.006 Y67.351 E14.57287
G1 X90.116 Y67.36 E14.58057
G1 X91.138 Y67.466 E14.65234
G1 X91.245 Y67.479 E14.65987
G1 X92.26 Y67.615 E14.7314
G1 X92.363 Y67.631 E14.73868
G1 X93.362 Y67.794 E14.80938
G1 X93.474 Y67.814 E14.81732
G1 X94.487 Y68.012 E14.88942
G1 X94.587 Y68.033 E14.89655
G1 X95.584 Y68.257 E14.96792
G1 X95.696 Y68.284 E14.97597
G1 X96.676 Y68.537 E15.04667
G1 X96.783 Y68.566 E15.05441
G1 X97.773 Y68.854 E15.12642
G1 X97.87 Y68.884 E15.13351
G1 X98.834 Y69.194 E15.20424
G1 X98.941 Y69.23 E15.21213
G1 X99.904 Y69.573 E15.28353
G1 X100.007 Y69.611 E15.2912
G1 X100.967 Y69.986 E15.36318
G1 X101.064 Y70.026 E15.37051
G1 X102.007 Y70.426 E15.44206
G1 X102.108 Y70.47 E15.44975
G1 X103.027 Y70.893 E15.52041
G1 X103.13 Y70.943 E15.52841
G1 X104.052 Y71.403 E15.60038
G1 X104.143 Y71.45 E15.60753
G1 X105.037 Y71.928 E15.67834
G1 X105.137 Y71.983 E15.68631
G1 X106.023 Y72.493 E15.75772
G1 X106.115 Y72.548 E15.7652
G1 X106.991 Y73.087 E15.83704
G1 X107.078 Y73.143 E15.84427
G1 X107.934 Y73.704 E15.91575
G1 X108.03 Y73.768 E15.92381
G1 X108.858 Y74.349 E15.99446
G1 X108.947 Y74.414 E16.00216
G1 X109.772 Y75.031 E16.07412
G1 X109.854 Y75.095 E16.08138
G1 X110.648 Y75.725 E16.15218
G1 X110.735 Y75.796 E16.16002
G1 X111.516 Y76.456 E16.23144
G1 X111.597 Y76.526 E16.23892
G1 X112.363 Y77.213 E16.31078
G1 X112.441 Y77.285 E16.3182
G1 X113.176 Y77.984 E16.38904
G1 X113.258 Y78.064 E16.39705
G1 X113.976 Y78.791 E16.46841
G1 X114.049 Y78.868 E16.47582
G1 X114.745 Y79.615 E16.54714
G1 X114.82 Y79.697 E16.5549
G1 X115.499 Y80.472 E16.62687
G1 X115.565 Y80.55 E16.634
G1 X116.21 Y81.329 E16.70464
G1 X116.28 Y81.416 E16.71244
G1 X116.908 Y82.224 E16.78392
G1 X116.976 Y82.315 E16.79185
G1 X117.577 Y83.14 E16.86315
G1 X117.638 Y83.226 E16.87051
G1 X118.216 Y84.07 E16.94196
G1 X118.276 Y84.161 E16.94957
G1 X118.828 Y85.021 E17.02095
G1 X118.886 Y85.113 E17.02855
G1 X119.412 Y85.989 E17.09991
G1 X119.468 Y86.086 E17.10774
G1 X119.966 Y86.976 E17.17897
G1 X120.014 Y87.066 E17.18609
G1 X120.488 Y87.972 E17.25751
G1 X120.539 Y88.073 E17.26542
G1 X120.984 Y88.992 E17.33673
G1 X121.031 Y89.093 E17.34451
G1 X121.448 Y90.026 E17.41589
G1 X121.487 Y90.115 E17.42268
G1 X121.879 Y91.059 E17.49407
G1 X121.925 Y91.177 E17.50292
G1 X122.284 Y92.134 E17.57431
G1 X122.319 Y92.23 E17.58145
G1 X122.653 Y93.203 E17.6533
G1 X122.685 Y93.301 E17.6605
G1 X122.987 Y94.269 E17.73133
G1 X123.02 Y94.381 E17.73948
G1 X123.293 Y95.366 E17.81088
G1 X123.319 Y95.465 E17.81802
G1 X123.564 Y96.457 E17.88939
G1 X123.588 Y96.563 E17.89698
G1 X123.805 Y97.57 E17.96893
G1 X123.827 Y97.679 E17.9767
G1 X124.01 Y98.675 E18.04743
G1 X124.029 Y98.788 E18.05544
G1 X124.182 Y99.798 E18.12679
G1 X124.196 Y99.902 E18.13412
G1 X124.32 Y100.917 E18.20554
G1 X124.331 Y101.022 E18.21291
G1 X124.426 Y102.047 E18.28481
G1 X124.435 Y102.153 E18.29224
G1 X124.499 Y103.166 E18.36314
G1 X124.504 Y103.285 E18.37145
G1 X124.535 Y104.304 E18.44266
G1 X124.537 Y104.408 E18.44993
G1 X124.539 Y105.432 E18.52145
G1 X124.538 Y105.539 E18.52892
G1 X124.51 Y106.559 E18.60019
G1 X124.505 Y106.674 E18.60823
G1 X124.444 Y107.703 E18.68023
G1 X124.437 Y107.801 E18.68709
G1 X124.35 Y108.809 E18.75776
G1 X124.337 Y108.926 E18.76598
G1 X124.216 Y109.942 E18.83745
G1 X124.203 Y110.044 E18.84463
G1 X124.054 Y111.053 E18.91587
G1 X124.035 Y111.167 E18.92394
G1 X123.852 Y112.182 E18.99598
G1 X123.833 Y112.28 E19.00295
G1 X123.626 Y113.272 E19.07373
G1 X123.6 Y113.387 E19.08197
G1 X123.359 Y114.38 E19.15334
G1 X123.332 Y114.487 E19.16104
G1 X123.061 Y115.472 E19.2324
G1 X123.032 Y115.569 E19.23947
G1 X122.731 Y116.555 E19.31148
G1 X122.696 Y116.665 E19.31954
G1 X122.37 Y117.623 E19.39022
G1 X122.337 Y117.715 E19.39705
G1 X121.982 Y118.673 E19.46841
G1 X121.939 Y118.784 E19.47672
G1 X121.552 Y119.732 E19.54824
G1 X121.51 Y119.831 E19.55575
G1 X121.096 Y120.765 E19.62711
G1 X121.053 Y120.858 E19.63426
G1 X120.613 Y121.78 E19.70562
G1 X120.561 Y121.885 E19.7138
G1 X120.091 Y122.793 E19.78522
G1 X120.042 Y122.883 E19.79237
G1 X119.547 Y123.777 E19.86375
G1 X119.489 Y123.879 E19.87195
G1 X118.961 Y124.764 E19.94392
G1 X118.907 Y124.852 E19.95114
G1 X118.364 Y125.706 E20.02182
G1 X118.307 Y125.792 E20.02903
G1 X117.735 Y126.638 E20.10036
G1 X117.669 Y126.733 E20.10844
G1 X117.07 Y127.561 E20.17982
G1 X117.001 Y127.653 E20.18785
G1 X116.375 Y128.463 E20.25935
G1 X116.31 Y128.545 E20.26666
G1 X115.658 Y129.34 E20.33847
G1 X115.592 Y129.418 E20.34561
G1 X114.928 Y130.183 E20.41636
G1 X114.856 Y130.264 E20.42393
G1 X114.163 Y131.016 E20.49536
G1 X114.081 Y131.101 E20.50361
G1 X113.364 Y131.83 E20.57503
G1 X113.289 Y131.905 E20.58243
G1 X112.553 Y132.611 E20.65367
G1 X112.473 Y132.685 E20.66128
G1 X111.708 Y133.376 E20.73328
G1 X111.629 Y133.446 E20.74065
G1 X110.858 Y134.103 E20.81141
G1 X110.778 Y134.169 E20.81865
G1 X109.982 Y134.809 E20.88999
G1 X109.886 Y134.884 E20.8985
G1 X109.061 Y135.503 E20.97054
G1 X108.978 Y135.563 E20.97769
G1 X108.151 Y136.148 E21.04844
G1 X108.061 Y136.21 E21.05608
G1 X107.209 Y136.775 E21.12748
G1 X107.115 Y136.834 E21.13523
G1 X106.241 Y137.376 E21.20707
G1 X106.147 Y137.433 E21.21474
G1 X105.263 Y137.945 E21.2861
G1 X105.172 Y137.996 E21.29338
G1 X104.28 Y138.479 E21.36423
G1 X104.182 Y138.53 E21.37195
G1 X103.269 Y138.989 E21.44332
G1 X103.171 Y139.037 E21.45095
G1 X102.237 Y139.472 E21.52291
G1 X102.135 Y139.517 E21.5307
G1 X101.198 Y139.919 E21.60191
G1 X101.105 Y139.958 E21.60896
G1 X100.162 Y140.332 E21.67981
G1 X100.052 Y140.373 E21.68801
G1 X99.09 Y140.719 E21.75942
G1 X98.988 Y140.754 E21.76695
G1 X98.017 Y141.071 E21.83829
G1 X97.915 Y141.103 E21.84576
G1 X96.927 Y141.394 E21.9177
G1 X96.822 Y141.423 E21.92531
G1 X95.842 Y141.68 E21.99607
G1 X95.735 Y141.706 E22.00376
G1 X94.74 Y141.935 E22.07508
G1 X94.637 Y141.957 E22.08243
G1 X93.626 Y142.159 E22.15444
G1 X93.514 Y142.18 E22.1624
G1 X92.505 Y142.349 E22.23386
G1 X92.402 Y142.365 E22.24114
G1 X91.396 Y142.504 E22.31207
G1 X91.288 Y142.517 E22.31967
G1 X90.276 Y142.626 E22.39076
G1 X90.16 Y142.637 E22.3989
G1 X89.14 Y142.714 E22.47035
G1 X89.039 Y142.72 E22.47742
G1 X88.01 Y142.769 E22.54937
G1 X87.896 Y142.773 E22.55734
G1 X86.978 Y142.788 E22.62146
G1 X86.44 Y142.756 E22.65911
G1 X85.912 Y142.646 E22.69678
G1 X85.407 Y142.459 E22.73439
G1 X84.934 Y142.199 E22.77209
G1 X84.361 Y141.737 E22.8235
G1 X84.194 Y141.572 E22.8399
G1 X83.839 Y141.166 E22.87757
G1 X83.549 Y140.712 E22.91519
G1 X83.328 Y140.219 E22.95293
G1 X83.183 Y139.7 E22.99057
G1 X83.112 Y138.983 E23.04089
G1 X83.112 Y71.017 E27.78807
G1 X83.152 Y70.479 E27.82575
G1 X83.271 Y69.953 E27.86341
G1 X83.466 Y69.451 E27.90103
G1 X83.734 Y68.982 E27.93876
M204 S3000
M205 X10 Y10
G0 F3000 X84.29 Y69.166
M204 S1800
M205 X8 Y8
G1 F2400 X84.587 Y68.826 E27.97029
G1 X84.754 Y68.661 E27.98669
G1 X85.134 Y68.342 E28.02134
G1 X85.56 Y68.088 E28.05598
G1 X86.021 Y67.906 E28.0906
G1 X86.506 Y67.8 E28.12528
G1 X86.962 Y67.772 E28.15719
G1 X87.744 Y67.783 E28.21181
G1 X87.833 Y67.786 E28.21803
G1 X88.862 Y67.83 E28.28997
G1 X88.955 Y67.835 E28.29647
G1 X89.965 Y67.909 E28.36721
G1 X90.058 Y67.917 E28.37373
G1 X91.08 Y68.023 E28.44549
G1 X91.171 Y68.034 E28.4519
G1 X92.186 Y68.17 E28.52342
G1 X92.273 Y68.183 E28.52957
G1 X93.272 Y68.346 E28.60027
G1 X93.367 Y68.363 E28.60701
G1 X94.38 Y68.561 E28.6791
G1 X94.464 Y68.579 E28.6851
G1 X95.461 Y68.803 E28.75647
G1 X95.556 Y68.826 E28.7633
G1 X96.536 Y69.079 E28.83399
G1 X96.626 Y69.104 E28.84052
