;FLAVOR:RepRap
;TIME:12664
;Filament used: 17.4449m
;Layer height: 0.4
;MINX:-94.735
;MINY:-67.7
;MINZ:0.3
;MAXX:94.734
;MAXY:41.795
;MAXZ:79.9
;Generated with Cura_SteamEngine 4.2.1
T0
M190 S60
M104 S200
M109 S200
M82 ;absolute extrusion mode
G28 ;Home
G1 Z15.0 F6000 ;Move the platform down 15mm
;Prime the extruder
G92 E0
G1 F200 E3
G92 E0
M141 S28
M83 ;relative extrusion mode
G1 F1500 E-6.5
;LAYER_COUNT:200
;LAYER:0
M107
G0 F3600 X0.00 Y-43.195 Z0.3
;TYPE:SKIRT
G1 F1500 E6.5
G1 F900 X-5.264 Y-43.015 E0.32847
G1 X-10.526 Y-42.474 E0.32988
G1 X-15.706 Y-41.581 E0.3278
G1 X-20.836 Y-40.331 E0.32928
G1 X-25.855 Y-38.738 E0.32839
G1 X-30.782 Y-36.794 E0.33031
G1 X-35.54 Y-34.531 E0.32857
G1 X-40.122 Y-31.956 E0.32778
G1 X-44.548 Y-29.052 E0.33013
G1 X-48.75 Y-25.866 E0.32886
G1 X-52.72 Y-22.405 E0.32845
G1 X-56.451 Y-18.674 E0.32905
G1 X-59.912 Y-14.704 E0.32845
G1 X-63.102 Y-10.496 E0.3293
G1 X-65.993 Y-6.09 E0.32864
G1 X-68.577 Y-1.493 E0.32887
G1 X-70.842 Y3.27 E0.32891
G1 X-72.78 Y8.181 E0.32925
G1 X-74.373 Y13.198 E0.32827
G1 X-75.628 Y18.349 E0.33063
G1 X-76.519 Y23.518 E0.32711
G1 X-77.061 Y28.788 E0.33039
G1 X-77.245 Y34.171 E0.33589
G1 X-77.311 Y34.955 E0.04907
G1 X-77.457 Y35.728 E0.04906
G1 X-77.681 Y36.483 E0.04911
G1 X-77.98 Y37.211 E0.04908
G1 X-78.352 Y37.905 E0.04911
G1 X-78.791 Y38.558 E0.04907
G1 X-79.295 Y39.163 E0.04911
G1 X-79.627 Y39.501 E0.02955
G1 X-79.772 Y39.64 E0.01253
G1 X-80.367 Y40.155 E0.04907
G1 X-81.011 Y40.607 E0.04907
G1 X-81.698 Y40.991 E0.04908
G1 X-82.421 Y41.304 E0.04913
G1 X-83.171 Y41.542 E0.04907
G1 X-83.942 Y41.703 E0.04912
G1 X-84.724 Y41.784 E0.04903
G1 X-85.135 Y41.795 E0.02564
G1 X-86.842 Y41.795 E0.10645
G1 X-87.628 Y41.755 E0.04908
G1 X-88.406 Y41.636 E0.04908
G1 X-89.168 Y41.438 E0.0491
G1 X-89.906 Y41.164 E0.04909
G1 X-90.612 Y40.816 E0.04909
G1 X-91.28 Y40.399 E0.04911
G1 X-91.901 Y39.916 E0.04906
G1 X-92.413 Y39.433 E0.0439
G1 X-92.56 Y39.281 E0.01319
G1 X-93.078 Y38.688 E0.0491
G1 X-93.533 Y38.045 E0.04912
G1 X-93.92 Y37.36 E0.04906
G1 X-94.236 Y36.639 E0.04909
G1 X-94.477 Y35.89 E0.04907
G1 X-94.641 Y35.12 E0.0491
G1 X-94.726 Y34.338 E0.04905
G1 X-94.735 Y33.631 E0.04409
G1 X-94.545 Y28.014 E0.35049
G1 X-94.51 Y27.498 E0.03225
G1 X-93.912 Y21.571 E0.3715
G1 X-93.841 Y21.046 E0.03304
G1 X-92.845 Y15.207 E0.3694
G1 X-92.738 Y14.689 E0.03299
G1 X-91.339 Y8.901 E0.37135
G1 X-91.197 Y8.391 E0.03301
G1 X-89.415 Y2.74 E0.36952
G1 X-89.238 Y2.24 E0.03308
G1 X-87.065 Y-3.297 E0.37094
G1 X-86.856 Y-3.78 E0.03282
G1 X-84.312 Y-9.157 E0.37096
G1 X-84.068 Y-9.631 E0.03325
G1 X-81.17 Y-14.803 E0.36972
G1 X-80.898 Y-15.253 E0.03279
G1 X-77.648 Y-20.229 E0.37064
G1 X-77.344 Y-20.661 E0.03294
G1 X-73.771 Y-25.393 E0.36978
G1 X-73.436 Y-25.806 E0.03316
G1 X-69.529 Y-30.303 E0.3715
G1 X-69.169 Y-30.69 E0.03296
G1 X-64.988 Y-34.886 E0.3694
G1 X-64.602 Y-35.248 E0.033
G1 X-60.12 Y-39.171 E0.37146
G1 X-59.709 Y-39.507 E0.03311
G1 X-54.991 Y-43.097 E0.36972
G1 X-54.56 Y-43.402 E0.03293
G1 X-49.603 Y-46.666 E0.37013
G1 X-49.153 Y-46.941 E0.03289
G1 X-43.977 Y-49.865 E0.37073
G1 X-43.504 Y-50.111 E0.03325
G1 X-38.135 Y-52.674 E0.37102
G1 X-37.655 Y-52.884 E0.03267
G1 X-32.144 Y-55.071 E0.36975
G1 X-31.642 Y-55.25 E0.03324
G1 X-25.986 Y-57.056 E0.37027
G1 X-25.478 Y-57.199 E0.03291
G1 X-19.695 Y-58.62 E0.37137
G1 X-19.177 Y-58.729 E0.03301
G1 X-13.343 Y-59.746 E0.36931
G1 X-12.818 Y-59.819 E0.03306
G1 X-11.719 Y-59.934 E0.06891
G1 X-11.668 Y-60.062 E0.00859
G1 X-11.338 Y-60.776 E0.04905
G1 X-11.129 Y-61.149 E0.02666
G1 X-10.73 Y-61.817 E0.04852
G1 X-10.293 Y-62.472 E0.0491
G1 X-10.03 Y-62.805 E0.02646
G1 X-9.529 Y-63.406 E0.04879
G1 X-8.995 Y-63.985 E0.04912
G1 X-8.673 Y-64.282 E0.02732
G1 X-8.082 Y-64.798 E0.04893
G1 X-7.464 Y-65.285 E0.04907
G1 X-7.106 Y-65.524 E0.02684
G1 X-6.437 Y-65.944 E0.04926
G1 X-5.75 Y-66.328 E0.04908
G1 X-5.362 Y-66.506 E0.02662
G1 X-4.646 Y-66.812 E0.04856
G1 X-3.907 Y-67.085 E0.04913
G1 X-3.498 Y-67.2 E0.0265
G1 X-2.734 Y-67.393 E0.04914
G1 X-1.962 Y-67.547 E0.04909
G1 X-1.538 Y-67.597 E0.02663
G1 X-.757 Y-67.668 E0.04891
G1 X0.03 Y-67.7 E0.04912
G1 X0.443 Y-67.684 E0.02578
G1 X1.22 Y-67.634 E0.04856
G1 X2.002 Y-67.544 E0.04909
G1 X2.453 Y-67.454 E0.02868
G1 X3.221 Y-67.278 E0.04914
G1 X3.979 Y-67.064 E0.04912
G1 X4.377 Y-66.916 E0.02648
G1 X5.107 Y-66.623 E0.04905
G1 X5.821 Y-66.293 E0.04905
G1 X6.194 Y-66.084 E0.02666
G1 X6.862 Y-65.685 E0.04852
G1 X7.517 Y-65.248 E0.0491
G1 X7.85 Y-64.985 E0.02646
G1 X8.451 Y-64.484 E0.04879
G1 X9.03 Y-63.95 E0.04912
G1 X9.327 Y-63.628 E0.02732
G1 X9.843 Y-63.037 E0.04893
G1 X10.33 Y-62.419 E0.04907
G1 X10.569 Y-62.061 E0.02684
G1 X10.989 Y-61.392 E0.04926
G1 X11.373 Y-60.705 E0.04908
G1 X11.548 Y-60.324 E0.02615
G1 X11.711 Y-59.945 E0.02573
G1 X12.486 Y-59.865 E0.04859
G1 X12.996 Y-59.796 E0.03209
G1 X18.838 Y-58.8 E0.36958
G1 X19.357 Y-58.693 E0.03305
G1 X25.144 Y-57.294 E0.37129
G1 X25.654 Y-57.152 E0.03301
G1 X31.305 Y-55.37 E0.36952
G1 X31.806 Y-55.193 E0.03314
G1 X37.345 Y-53.019 E0.37108
G1 X37.828 Y-52.81 E0.03282
G1 X43.198 Y-50.269 E0.37049
G1 X43.67 Y-50.026 E0.03311
G1 X48.847 Y-47.127 E0.37002
G1 X49.299 Y-46.853 E0.03296
G1 X54.276 Y-43.601 E0.37076
G1 X54.707 Y-43.298 E0.03286
G1 X59.438 Y-39.726 E0.36969
G1 X59.851 Y-39.391 E0.03316
G1 X64.348 Y-35.484 E0.3715
G1 X64.735 Y-35.124 E0.03296
G1 X68.931 Y-30.943 E0.3694
G1 X69.293 Y-30.557 E0.033
G1 X73.216 Y-26.075 E0.37146
G1 X73.552 Y-25.664 E0.03311
G1 X77.142 Y-20.946 E0.36972
G1 X77.447 Y-20.514 E0.03298
G1 X80.71 Y-15.557 E0.3701
G1 X80.984 Y-15.109 E0.03275
G1 X83.906 Y-9.938 E0.3704
G1 X84.153 Y-9.464 E0.03333
G1 X86.719 Y-4.09 E0.37138
G1 X86.928 Y-3.611 E0.03259
G1 X89.114 Y1.895 E0.36944
G1 X89.294 Y2.398 E0.03332
G1 X91.101 Y8.058 E0.37053
G1 X91.244 Y8.566 E0.03291
G1 X92.665 Y14.35 E0.37143
G1 X92.774 Y14.868 E0.03301
G1 X93.791 Y20.701 E0.36925
G1 X93.864 Y21.227 E0.03312
G1 X94.483 Y27.153 E0.37157
G1 X94.52 Y27.679 E0.03288
G1 X94.734 Y33.614 E0.37036
G1 X94.722 Y34.401 E0.04909
G1 X94.631 Y35.183 E0.0491
G1 X94.461 Y35.951 E0.04905
G1 X94.213 Y36.698 E0.04909
G1 X93.892 Y37.417 E0.0491
G1 X93.499 Y38.099 E0.04909
G1 X93.038 Y38.737 E0.04909
G1 X92.542 Y39.3 E0.04679
G1 X92.394 Y39.452 E0.01323
G1 X91.817 Y39.987 E0.04907
G1 X91.188 Y40.461 E0.04912
G1 X90.515 Y40.869 E0.04908
G1 X89.804 Y41.206 E0.04907
G1 X89.062 Y41.47 E0.04911
G1 X88.298 Y41.657 E0.04905
G1 X87.518 Y41.765 E0.04911
G1 X86.841 Y41.795 E0.04226
G1 X85.136 Y41.795 E0.10633
G1 X84.35 Y41.755 E0.04908
G1 X83.572 Y41.636 E0.04908
G1 X82.81 Y41.438 E0.0491
G1 X82.072 Y41.164 E0.04909
G1 X81.366 Y40.816 E0.04909
G1 X80.698 Y40.399 E0.04911
G1 X80.077 Y39.916 E0.04906
G1 X79.773 Y39.64 E0.02561
G1 X79.628 Y39.501 E0.01253
G1 X79.088 Y38.928 E0.0491
G1 X78.609 Y38.303 E0.04911
G1 X78.196 Y37.633 E0.04908
G1 X77.853 Y36.925 E0.04906
G1 X77.584 Y36.185 E0.0491
G1 X77.391 Y35.422 E0.04908
G1 X77.276 Y34.643 E0.04911
G1 X77.246 Y34.172 E0.02943
G1 X77.061 Y28.787 E0.33602
G1 X76.519 Y23.517 E0.33039
G1 X75.628 Y18.349 E0.32705
G1 X74.372 Y13.197 E0.3307
G1 X72.781 Y8.185 E0.32793
G1 X70.839 Y3.263 E0.32998
G1 X68.577 Y-1.493 E0.32843
G1 X65.997 Y-6.083 E0.32837
G1 X63.097 Y-10.503 E0.32968
G1 X59.911 Y-14.705 E0.32886
G1 X56.45 Y-18.675 E0.32845
G1 X52.719 Y-22.406 E0.32905
G1 X48.749 Y-25.867 E0.32845
G1 X44.548 Y-29.051 E0.32873
G1 X40.122 Y-31.956 E0.33016
G1 X35.54 Y-34.531 E0.32778
G1 X30.782 Y-36.794 E0.32857
G1 X25.855 Y-38.738 E0.33031
G1 X20.836 Y-40.331 E0.32839
G1 X15.706 Y-41.581 E0.32928
G1 X10.526 Y-42.474 E0.3278
G1 X5.264 Y-43.015 E0.32988
G1 X0.00 Y-43.195 E0.32847
G0 F3600 X0.00 Y-43.695
G1 F900 X-5.303 Y-43.513 E0.3309
G1 X-10.589 Y-42.97 E0.33138
G1 X-15.809 Y-42.07 E0.33034
G1 X-20.984 Y-40.809 E0.33217
G1 X-26.019 Y-39.211 E0.32943
G1 X-30.981 Y-37.253 E0.33266
G1 X-35.77 Y-34.975 E0.33072
G1 X-40.385 Y-32.382 E0.33012
G1 X-44.838 Y-29.46 E0.33215
G1 X-49.066 Y-26.255 E0.33086
G1 X-53.049 Y-22.782 E0.32956
G1 X-56.828 Y-19.003 E0.33329
G1 X-60.301 Y-15.02 E0.32956
G1 X-63.506 Y-10.792 E0.33086
G1 X-66.423 Y-6.346 E0.33161
G1 X-69.018 Y-1.73 E0.33024
G1 X-71.301 Y3.072 E0.33159
G1 X-73.254 Y8.022 E0.33185
G1 X-74.854 Y13.06 E0.32965
G1 X-76.115 Y18.235 E0.33217
G1 X-77.015 Y23.456 E0.3304
G1 X-77.559 Y28.748 E0.33176
G1 X-77.744 Y34.153 E0.33727
G1 X-77.81 Y34.912 E0.04751
G1 X-77.955 Y35.659 E0.04745
G1 X-78.178 Y36.387 E0.04748
G1 X-78.476 Y37.088 E0.0475
G1 X-78.845 Y37.754 E0.04748
G1 X-79.283 Y38.377 E0.04749
G1 X-79.973 Y39.14 E0.06415
G1 X-80.118 Y39.279 E0.01253
G1 X-80.694 Y39.776 E0.04744
G1 X-81.32 Y40.21 E0.0475
G1 X-81.987 Y40.576 E0.04745
G1 X-82.69 Y40.87 E0.04752
G1 X-83.419 Y41.089 E0.04747
G1 X-84.167 Y41.23 E0.04747
G1 X-85.135 Y41.295 E0.0605
G1 X-86.842 Y41.295 E0.10645
G1 X-87.602 Y41.255 E0.04746
G1 X-88.354 Y41.136 E0.04748
G1 X-89.089 Y40.938 E0.04747
G1 X-89.8 Y40.664 E0.04752
G1 X-90.478 Y40.318 E0.04747
G1 X-91.115 Y39.902 E0.04745
G1 X-91.706 Y39.421 E0.04752
G1 X-92.054 Y39.085 E0.03017
G1 X-92.201 Y38.933 E0.01319
G1 X-92.7 Y38.359 E0.04743
G1 X-93.137 Y37.735 E0.04751
G1 X-93.506 Y37.069 E0.04748
G1 X-93.803 Y36.368 E0.04748
G1 X-94.025 Y35.64 E0.04746
G1 X-94.17 Y34.893 E0.04745
G1 X-94.235 Y34.134 E0.04751
G1 X-94.235 Y33.648 E0.03031
G1 X-94.045 Y28.031 E0.35049
G1 X-94.012 Y27.548 E0.03019
G1 X-93.414 Y21.621 E0.3715
G1 X-93.348 Y21.13 E0.0309
G1 X-92.352 Y15.291 E0.3694
G1 X-92.252 Y14.807 E0.03082
G1 X-90.853 Y9.019 E0.37135
G1 X-90.72 Y8.542 E0.03088
G1 X-88.938 Y2.891 E0.36952
G1 X-88.773 Y2.422 E0.03101
G1 X-86.6 Y-3.115 E0.37094
G1 X-86.405 Y-3.567 E0.0307
G1 X-83.861 Y-8.944 E0.37096
G1 X-83.632 Y-9.387 E0.0311
G1 X-80.734 Y-14.559 E0.36972
G1 X-80.479 Y-14.98 E0.0307
G1 X-77.229 Y-19.956 E0.37064
G1 X-76.945 Y-20.36 E0.0308
G1 X-73.372 Y-25.092 E0.36978
G1 X-73.059 Y-25.478 E0.03099
G1 X-69.152 Y-29.975 E0.3715
G1 X-68.815 Y-30.337 E0.03084
G1 X-64.634 Y-34.533 E0.3694
G1 X-64.273 Y-34.871 E0.03084
G1 X-59.791 Y-38.794 E0.37146
G1 X-59.406 Y-39.109 E0.03102
G1 X-54.688 Y-42.699 E0.36972
G1 X-54.285 Y-42.984 E0.03078
G1 X-49.328 Y-46.248 E0.37013
G1 X-48.907 Y-46.505 E0.03076
G1 X-43.731 Y-49.429 E0.37073
G1 X-43.288 Y-49.66 E0.03116
G1 X-37.919 Y-52.223 E0.37102
G1 X-37.47 Y-52.419 E0.03055
G1 X-31.959 Y-54.606 E0.36975
G1 X-31.49 Y-54.773 E0.03105
G1 X-25.834 Y-56.579 E0.37027
G1 X-25.359 Y-56.714 E0.0308
G1 X-19.576 Y-58.135 E0.37137
G1 X-19.091 Y-58.236 E0.03089
G1 X-13.257 Y-59.253 E0.36931
G1 X-12.766 Y-59.322 E0.03092
G1 X-11.368 Y-59.468 E0.08766
G1 X-11.204 Y-59.876 E0.02742
G1 X-10.7 Y-60.893 E0.07078
G1 X-10.301 Y-61.561 E0.04852
G1 X-9.646 Y-62.485 E0.07063
G1 X-9.145 Y-63.086 E0.04879
G1 X-8.627 Y-63.645 E0.04753
G1 X-8.344 Y-63.905 E0.02397
G1 X-7.753 Y-64.421 E0.04893
G1 X-6.84 Y-65.1 E0.07096
G1 X-6.171 Y-65.52 E0.04926
G1 X-5.165 Y-66.047 E0.07082
G1 X-4.449 Y-66.353 E0.04856
G1 X-3.376 Y-66.715 E0.07062
G1 X-2.612 Y-66.908 E0.04914
G1 X-1.492 Y-67.099 E0.07085
G1 X-.711 Y-67.17 E0.04891
G1 X0.411 Y-67.185 E0.06998
G1 X1.188 Y-67.135 E0.04856
G1 X1.944 Y-67.046 E0.04747
G1 X2.341 Y-66.967 E0.02524
G1 X3.109 Y-66.791 E0.04914
G1 X4.191 Y-66.452 E0.07071
G1 X4.921 Y-66.159 E0.04905
G1 X5.938 Y-65.655 E0.07078
G1 X6.606 Y-65.256 E0.04852
G1 X7.53 Y-64.601 E0.07063
G1 X8.131 Y-64.1 E0.04879
G1 X8.69 Y-63.582 E0.04753
G1 X8.95 Y-63.299 E0.02397
G1 X9.466 Y-62.708 E0.04893
G1 X10.145 Y-61.795 E0.07096
G1 X10.565 Y-61.126 E0.04926
G1 X11.089 Y-60.127 E0.07035
G1 X11.367 Y-59.478 E0.04403
G1 X12.435 Y-59.368 E0.06696
G1 X12.912 Y-59.303 E0.03002
G1 X18.754 Y-58.307 E0.36958
G1 X19.24 Y-58.207 E0.03094
G1 X25.027 Y-56.808 E0.37129
G1 X25.503 Y-56.675 E0.03082
G1 X31.154 Y-54.893 E0.36952
G1 X31.623 Y-54.728 E0.03101
G1 X37.162 Y-52.554 E0.37108
G1 X37.614 Y-52.358 E0.03072
G1 X42.984 Y-49.817 E0.37049
G1 X43.425 Y-49.59 E0.03093
G1 X48.602 Y-46.691 E0.37002
G1 X49.026 Y-46.434 E0.03092
G1 X54.003 Y-43.182 E0.37076
G1 X54.406 Y-42.899 E0.03071
G1 X59.137 Y-39.327 E0.36969
G1 X59.523 Y-39.014 E0.03099
G1 X64.02 Y-35.107 E0.3715
G1 X64.382 Y-34.77 E0.03084
G1 X68.578 Y-30.589 E0.3694
G1 X68.916 Y-30.228 E0.03084
G1 X72.839 Y-25.746 E0.37146
G1 X73.154 Y-25.361 E0.03102
G1 X76.744 Y-20.643 E0.36972
G1 X77.03 Y-20.239 E0.03087
G1 X80.293 Y-15.282 E0.3701
G1 X80.549 Y-14.863 E0.03062
G1 X83.471 Y-9.692 E0.3704
G1 X83.701 Y-9.249 E0.03113
G1 X86.267 Y-3.875 E0.37138
G1 X86.463 Y-3.426 E0.03055
G1 X88.649 Y2.08 E0.36944
G1 X88.818 Y2.55 E0.03115
G1 X90.625 Y8.21 E0.37053
G1 X90.759 Y8.685 E0.03078
G1 X92.18 Y14.469 E0.37143
G1 X92.281 Y14.954 E0.03089
G1 X93.298 Y20.787 E0.36925
G1 X93.367 Y21.279 E0.03098
G1 X93.986 Y27.205 E0.37157
G1 X94.02 Y27.697 E0.03076
G1 X94.234 Y33.632 E0.37036
G1 X94.222 Y34.393 E0.04746
G1 X94.129 Y35.149 E0.0475
G1 X93.958 Y35.891 E0.04749
G1 X93.71 Y36.61 E0.04743
G1 X93.388 Y37.3 E0.04749
G1 X92.996 Y37.952 E0.04744
G1 X92.537 Y38.56 E0.04751
G1 X92.183 Y38.951 E0.03289
G1 X92.035 Y39.103 E0.01323
G1 X91.476 Y39.62 E0.04748
G1 X90.866 Y40.075 E0.04746
G1 X90.212 Y40.464 E0.04745
G1 X89.52 Y40.782 E0.04749
G1 X88.799 Y41.026 E0.04747
G1 X88.056 Y41.192 E0.04748
G1 X87.3 Y41.28 E0.04746
G1 X86.841 Y41.295 E0.02864
G1 X85.136 Y41.295 E0.10633
G1 X84.376 Y41.255 E0.04746
G1 X83.624 Y41.136 E0.04748
G1 X82.889 Y40.938 E0.04747
G1 X82.178 Y40.664 E0.04752
G1 X81.5 Y40.318 E0.04747
G1 X80.863 Y39.902 E0.04745
G1 X80.119 Y39.279 E0.06052
G1 X79.974 Y39.14 E0.01253
G1 X79.453 Y38.585 E0.04747
G1 X78.993 Y37.978 E0.0475
G1 X78.599 Y37.327 E0.04745
G1 X78.275 Y36.637 E0.04754
G1 X78.026 Y35.918 E0.04745
G1 X77.853 Y35.177 E0.04745
G1 X77.745 Y34.155 E0.06409
G1 X77.559 Y28.747 E0.33746
G1 X77.015 Y23.455 E0.33176
G1 X76.115 Y18.235 E0.33034
G1 X74.854 Y13.059 E0.33223
G1 X73.254 Y8.021 E0.32965
G1 X71.3 Y3.07 E0.33193
G1 X69.018 Y-1.73 E0.33145
G1 X66.423 Y-6.346 E0.33024
G1 X63.505 Y-10.793 E0.3317
G1 X60.3 Y-15.021 E0.33086
G1 X56.827 Y-19.004 E0.32956
G1 X53.048 Y-22.783 E0.33329
G1 X49.074 Y-26.248 E0.32881
G1 X44.828 Y-29.466 E0.33225
G1 X40.385 Y-32.382 E0.33142
G1 X35.77 Y-34.975 E0.33012
G1 X30.981 Y-37.253 E0.33072
G1 X26.019 Y-39.211 E0.33266
G1 X20.984 Y-40.809 E0.32943
G1 X15.809 Y-42.07 E0.33217
G1 X10.589 Y-42.97 E0.33034
G1 X5.303 Y-43.513 E0.33138
G1 X0.00 Y-43.695 E0.3309
G0 F3600 X0.00 Y-44.195
G1 F900 X-5.327 Y-44.013 E0.3324
G1 X-10.667 Y-43.464 E0.33477
G1 X-15.909 Y-42.561 E0.33172
G1 X-21.109 Y-41.293 E0.33379
G1 X-26.197 Y-39.678 E0.3329
G1 X-31.175 Y-37.714 E0.33373
G1 X-36.007 Y-35.416 E0.33368
G1 X-40.641 Y-32.811 E0.33152
G1 X-45.124 Y-29.87 E0.33436
G1 X-49.382 Y-26.642 E0.33322
G1 X-53.4 Y-23.139 E0.33243
G1 X-57.185 Y-19.354 E0.33382
G1 X-60.688 Y-15.336 E0.33243
G1 X-63.916 Y-11.078 E0.33322
G1 X-66.853 Y-6.602 E0.33386
G1 X-69.462 Y-1.96 E0.33208
G1 X-71.76 Y2.872 E0.33368
G1 X-73.723 Y7.849 E0.33365
G1 X-75.337 Y12.932 E0.33259
G1 X-76.606 Y18.136 E0.33405
G1 X-77.509 Y23.378 E0.33172
G1 X-78.059 Y28.724 E0.33515
G1 X-78.244 Y34.136 E0.3377
G1 X-78.309 Y34.868 E0.04583
G1 X-78.453 Y35.588 E0.04579
G1 X-78.675 Y36.289 E0.04586
G1 X-78.971 Y36.961 E0.04579
G1 X-79.338 Y37.597 E0.04579
G1 X-79.773 Y38.189 E0.04581
G1 X-80.319 Y38.779 E0.05013
G1 X-80.464 Y38.918 E0.01253
G1 X-81.021 Y39.396 E0.04577
G1 X-81.627 Y39.812 E0.04584
G1 X-82.274 Y40.159 E0.04579
G1 X-82.956 Y40.434 E0.04586
G1 X-83.663 Y40.632 E0.04579
G1 X-84.387 Y40.753 E0.04578
G1 X-85.135 Y40.795 E0.04672
G1 X-86.842 Y40.795 E0.10645
G1 X-87.575 Y40.755 E0.04578
G1 X-88.3 Y40.636 E0.04582
G1 X-89.008 Y40.438 E0.04585
