;FLAVOR:RepRap
;TIME:14666
;Filament used: 19.8245m
;Layer height: 0.4
;MINX:-94.743
;MINY:-63.02
;MINZ:0.3
;MAXX:94.735
;MAXY:39.473
;MAXZ:93.9
;Generated with Cura_SteamEngine 4.2.1
T0
M190 S60
M104 S200
M109 S200
M82 ;absolute extrusion mode
G28 ;Home
G1 Z15.0 F6000 ;Move the platform down 15mm
;Prime the extruder
G92 E0
G1 F200 E3
G92 E0
M141 S28
M83 ;relative extrusion mode
G1 F1500 E-6.5
;LAYER_COUNT:235
;LAYER:0
M107
G0 F3600 X1.826 Y-45.459 Z0.3
;TYPE:SKIRT
G1 F1500 E6.5
G1 F900 X0.009 Y-45.518 E0.11337
G1 X-1.807 Y-45.461 E0.11331
G1 X-6.819 Y-45.215 E0.31294
G1 X-8.001 Y-45.1 E0.07406
G1 X-14.413 Y-44.15 E0.40423
G1 X-15.066 Y-44.038 E0.04132
G1 X-15.407 Y-43.953 E0.02192
G1 X-22.262 Y-42.238 E0.44067
G1 X-25.845 Y-40.973 E0.23696
G1 X-25.845 Y-40.974 E0.00006
G1 X-29.624 Y-39.609 E0.25057
G1 X-36.357 Y-36.425 E0.46447
G1 X-40.135 Y-34.168 E0.27445
G1 X-42.974 Y-32.455 E0.20678
G1 X-48.984 Y-27.994 E0.46677
G1 X-52.752 Y-24.586 E0.31684
G1 X-54.675 Y-22.83 E0.1624
G1 X-59.655 Y-17.337 E0.46238
G1 X-59.742 Y-17.225 E0.00884
G1 X-64.186 Y-11.236 E0.46508
G1 X-65.889 Y-8.407 E0.20592
G1 X-65.888 Y-8.407 E0.00006
G1 X-68.067 Y-4.773 E0.26424
G1 X-68.449 Y-3.985 E0.05461
G1 X-71.342 Y2.132 E0.42199
G1 X-73.881 Y9.216 E0.4693
G1 X-74.268 Y10.727 E0.09727
G1 X-75.746 Y16.632 E0.37961
G1 X-76.854 Y24.08 E0.46959
G1 X-76.971 Y26.327 E0.14032
G1 X-77.248 Y31.956 E0.35146
G1 X-77.251 Y32.037 E0.00505
G1 X-77.323 Y32.821 E0.0491
G1 X-77.474 Y33.593 E0.04906
G1 X-77.703 Y34.347 E0.04914
G1 X-78.006 Y35.073 E0.04906
G1 X-78.382 Y35.764 E0.04906
G1 X-78.826 Y36.414 E0.04909
G1 X-79.334 Y37.016 E0.04912
G1 X-79.9 Y37.563 E0.04909
G1 X-80.519 Y38.05 E0.04912
G1 X-81.183 Y38.471 E0.04903
G1 X-81.888 Y38.823 E0.04914
G1 X-82.624 Y39.101 E0.04906
G1 X-83.384 Y39.304 E0.04906
G1 X-84.162 Y39.428 E0.04913
G1 X-84.995 Y39.473 E0.05202
G1 X-86.995 Y39.473 E0.12473
G1 X-87.781 Y39.433 E0.04908
G1 X-88.559 Y39.314 E0.04908
G1 X-89.321 Y39.116 E0.0491
G1 X-90.059 Y38.842 E0.04909
G1 X-90.765 Y38.494 E0.04909
G1 X-91.433 Y38.077 E0.04911
G1 X-92.054 Y37.594 E0.04906
G1 X-92.624 Y37.05 E0.04914
G1 X-93.135 Y36.452 E0.04905
G1 X-93.583 Y35.805 E0.04908
G1 X-93.963 Y35.115 E0.04912
G1 X-94.271 Y34.391 E0.04907
G1 X-94.504 Y33.639 E0.0491
G1 X-94.66 Y32.868 E0.04906
G1 X-94.737 Y32.084 E0.04913
G1 X-94.743 Y31.535 E0.03424
G1 X-94.645 Y27.502 E0.25158
G1 X-94.616 Y26.995 E0.03167
G1 X-94.445 Y25.096 E0.11891
G1 X-94.441 Y25.052 E0.00276
G1 X-93.825 Y18.618 E0.40308
G1 X-93.721 Y17.895 E0.04555
G1 X-92.17 Y9.823 E0.5126
G1 X-91.997 Y9.108 E0.04588
G1 X-89.69 Y1.224 E0.51229
G1 X-89.484 Y0.615 E0.04009
G1 X-89.175 Y-.187 E0.0536
G1 X-89.138 Y-.28 E0.00624
G1 X-87.124 Y-5.314 E0.33813
G1 X-87.624 Y-5.847 E0.04558
G1 X-88.11 Y-6.418 E0.04676
G1 X-89.294 Y-7.953 E0.1209
G1 X-89.72 Y-8.564 E0.04645
G1 X-90.752 Y-10.207 E0.121
G1 X-91.12 Y-10.861 E0.0468
G1 X-91.988 Y-12.596 E0.12098
G1 X-92.287 Y-13.274 E0.04621
G1 X-92.985 Y-15.083 E0.12092
G1 X-93.221 Y-15.794 E0.04672
G1 X-93.741 Y-17.661 E0.12086
G1 X-93.906 Y-18.39 E0.04661
G1 X-94.244 Y-20.3 E0.12096
G1 X-94.339 Y-21.038 E0.0464
G1 X-94.492 Y-22.971 E0.12092
G1 X-94.515 Y-23.711 E0.04617
G1 X-94.483 Y-25.651 E0.121
G1 X-94.433 Y-26.406 E0.04719
G1 X-94.212 Y-28.332 E0.1209
G1 X-94.091 Y-29.073 E0.04682
G1 X-93.684 Y-30.972 E0.12112
G1 X-93.497 Y-31.681 E0.04573
G1 X-92.914 Y-33.528 E0.12079
G1 X-92.65 Y-34.239 E0.0473
G1 X-91.888 Y-36.023 E0.12098
G1 X-91.562 Y-36.695 E0.04658
G1 X-90.632 Y-38.397 E0.12095
G1 X-90.248 Y-39.027 E0.04601
G1 X-89.159 Y-40.635 E0.12111
G1 X-88.71 Y-41.233 E0.04663
G1 X-87.474 Y-42.725 E0.12083
G1 X-86.964 Y-43.283 E0.04714
G1 X-85.587 Y-44.649 E0.12096
G1 X-85.038 Y-45.144 E0.0461
G1 X-83.538 Y-46.372 E0.12089
G1 X-82.932 Y-46.821 E0.04703
G1 X-81.317 Y-47.899 E0.12109
G1 X-80.685 Y-48.279 E0.04599
G1 X-78.978 Y-49.197 E0.12087
G1 X-78.301 Y-49.519 E0.04675
G1 X-76.513 Y-50.268 E0.12089
G1 X-75.804 Y-50.526 E0.04705
G1 X-73.95 Y-51.098 E0.121
G1 X-73.238 Y-51.281 E0.04585
G1 X-71.337 Y-51.675 E0.12107
G1 X-70.591 Y-51.792 E0.04709
G1 X-68.663 Y-51.999 E0.12093
G1 X-67.924 Y-52.043 E0.04617
G1 X-65.986 Y-52.065 E0.12087
G1 X-65.246 Y-52.038 E0.04618
G1 X-63.314 Y-51.875 E0.12091
G1 X-62.561 Y-51.774 E0.04738
G1 X-60.651 Y-51.422 E0.12112
G1 X-59.931 Y-51.253 E0.04612
G1 X-58.069 Y-50.722 E0.12075
G1 X-57.354 Y-50.48 E0.04707
G1 X-55.546 Y-49.768 E0.12118
G1 X-54.869 Y-49.463 E0.04631
G1 X-53.143 Y-48.584 E0.12079
G1 X-52.496 Y-48.214 E0.04648
G1 X-51.658 Y-47.68 E0.06197
G1 X-51.419 Y-47.849 E0.01825
G1 X-50.812 Y-48.238 E0.04496
G1 X-43.888 Y-52.231 E0.49846
G1 X-43.522 Y-52.429 E0.02595
G1 X-43.037 Y-52.675 E0.03391
G1 X-42.748 Y-52.814 E0.02
G1 X-35.696 Y-56.032 E0.48341
G1 X-35.055 Y-56.29 E0.04309
G1 X-31.675 Y-57.481 E0.22349
G1 X-31.462 Y-57.553 E0.01402
G1 X-31.031 Y-57.691 E0.02822
G1 X-26.942 Y-59.106 E0.26984
G1 X-26.235 Y-59.313 E0.04594
G1 X-18.443 Y-61.204 E0.50004
G1 X-17.92 Y-61.312 E0.0333
G1 X-16.907 Y-61.485 E0.06409
G1 X-16.705 Y-61.517 E0.01275
G1 X-10.033 Y-62.476 E0.42036
G1 X-9.682 Y-62.518 E0.02205
G1 X-8.153 Y-62.667 E0.0958
G1 X-7.779 Y-62.695 E0.02339
G1 X-6.305 Y-62.767 E0.09203
G1 X-6.29 Y-62.767 E0.00094
G1 X-2.558 Y-62.942 E0.23299
G1 X-2.449 Y-62.947 E0.0068
G1 X-.284 Y-63.018 E0.13509
G1 X0.162 Y-63.02 E0.02781
G1 X0.727 Y-63.006 E0.03525
G1 X0.796 Y-63.004 E0.0043
G1 X2.433 Y-62.949 E0.10215
G1 X4.987 Y-62.887 E0.15932
G1 X5.519 Y-62.856 E0.03323
G1 X6.646 Y-62.751 E0.07059
G1 X6.811 Y-62.733 E0.01035
G1 X7.807 Y-62.619 E0.06252
G1 X12.575 Y-62.163 E0.2987
G1 X12.94 Y-62.119 E0.02293
G1 X14.137 Y-61.947 E0.07541
G1 X14.5 Y-61.886 E0.02296
G1 X19.145 Y-60.992 E0.29499
G1 X19.582 Y-60.895 E0.02792
G1 X19.926 Y-60.808 E0.02213
G1 X22.247 Y-60.362 E0.14739
G1 X22.967 Y-60.187 E0.04621
G1 X30.164 Y-58.075 E0.46775
G1 X30.33 Y-58.025 E0.01081
G1 X30.849 Y-57.86 E0.03396
G1 X31.371 Y-57.673 E0.03458
G1 X31.988 Y-57.427 E0.04142
G1 X31.997 Y-57.423 E0.00061
G1 X38.919 Y-54.653 E0.46496
G1 X39.572 Y-54.356 E0.04474
G1 X43.509 Y-52.34 E0.27584
G1 X43.549 Y-52.32 E0.00279
G1 X47.15 Y-50.45 E0.25304
G1 X47.764 Y-50.094 E0.04426
G1 X49.347 Y-49.078 E0.1173
G1 X49.355 Y-49.073 E0.00059
G1 X51.588 Y-47.636 E0.1656
G1 X52.213 Y-48.045 E0.04658
G1 X52.86 Y-48.425 E0.04679
G1 X54.579 Y-49.325 E0.12101
G1 X55.255 Y-49.638 E0.04646
G1 X57.053 Y-50.369 E0.12104
G1 X57.759 Y-50.617 E0.04667
G1 X59.615 Y-51.17 E0.12077
G1 X60.336 Y-51.348 E0.04631
G1 X62.242 Y-51.722 E0.12113
G1 X62.983 Y-51.83 E0.0467
G1 X64.913 Y-52.018 E0.12093
G1 X65.652 Y-52.055 E0.04614
G1 X67.59 Y-52.058 E0.12086
G1 X68.341 Y-52.023 E0.04689
G1 X70.271 Y-51.838 E0.12091
G1 X71.017 Y-51.729 E0.04702
G1 X72.923 Y-51.357 E0.12111
G1 X73.638 Y-51.182 E0.04591
G1 X75.496 Y-50.632 E0.12084
G1 X76.211 Y-50.382 E0.04724
G1 X78.009 Y-49.652 E0.12102
G1 X78.681 Y-49.341 E0.04618
G1 X80.399 Y-48.444 E0.12086
G1 X81.043 Y-48.067 E0.04654
G1 X82.67 Y-47.007 E0.1211
G1 X83.278 Y-46.568 E0.04677
G1 X84.793 Y-45.357 E0.12095
G1 X85.347 Y-44.868 E0.04608
G1 X86.738 Y-43.52 E0.1208
G1 X87.256 Y-42.968 E0.04721
G1 X88.512 Y-41.487 E0.1211
G1 X88.964 Y-40.898 E0.0463
G1 X90.07 Y-39.307 E0.12084
G1 X90.465 Y-38.676 E0.04643
G1 X91.414 Y-36.985 E0.12093
G1 X91.748 Y-36.317 E0.04658
G1 X92.53 Y-34.542 E0.12096
G1 X92.801 Y-33.835 E0.04722
G1 X93.406 Y-31.993 E0.12091
G1 X93.601 Y-31.288 E0.04562
G1 X94.03 Y-29.395 E0.12105
G1 X94.161 Y-28.654 E0.04693
G1 X94.404 Y-26.731 E0.12088
G1 X94.462 Y-25.983 E0.04679
G1 X94.518 Y-24.043 E0.12103
G1 X94.504 Y-23.307 E0.04591
G1 X94.376 Y-21.372 E0.12094
G1 X94.29 Y-20.626 E0.04683
G1 X93.975 Y-18.711 E0.12103
G1 X93.817 Y-17.974 E0.04701
G1 X93.318 Y-16.101 E0.12088
G1 X93.091 Y-15.39 E0.04654
G1 X92.414 Y-13.573 E0.12092
G1 X92.124 Y-12.895 E0.04599
G1 X91.276 Y-11.148 E0.1211
G1 X90.913 Y-10.484 E0.04719
G1 X89.901 Y-8.832 E0.12082
G1 X89.482 Y-8.217 E0.04641
G1 X88.315 Y-6.668 E0.12095
G1 X87.837 Y-6.094 E0.04658
G1 X87.133 Y-5.326 E0.06497
G1 X87.785 Y-3.897 E0.09795
G1 X88.054 Y-3.226 E0.04508
G1 X89.201 Y0.068 E0.21752
G1 X89.205 Y0.081 E0.00085
G1 X90.753 Y4.552 E0.29506
G1 X90.946 Y5.196 E0.04193
G1 X91.241 Y6.368 E0.07537
G1 X91.256 Y6.432 E0.0041
G1 X92.946 Y13.396 E0.4469
G1 X93.086 Y14.117 E0.0458
G1 X94.26 Y22.253 E0.51264
G1 X94.329 Y22.965 E0.04461
G1 X94.453 Y25.393 E0.15161
G1 X94.454 Y25.421 E0.00175
G1 X94.735 Y31.356 E0.37054
G1 X94.733 Y32.144 E0.04914
G1 X94.65 Y32.926 E0.04904
G1 X94.488 Y33.697 E0.04913
G1 X94.25 Y34.447 E0.04907
G1 X93.936 Y35.169 E0.0491
G1 X93.551 Y35.855 E0.04906
G1 X93.098 Y36.499 E0.0491
G1 X92.582 Y37.093 E0.04907
G1 X92.008 Y37.632 E0.0491
G1 X91.383 Y38.111 E0.04911
G1 X90.712 Y38.523 E0.0491
G1 X90.003 Y38.865 E0.04909
G1 X89.263 Y39.133 E0.04908
G1 X88.5 Y39.325 E0.04907
G1 X87.721 Y39.439 E0.0491
G1 X86.994 Y39.473 E0.04539
G1 X84.995 Y39.473 E0.12466
G1 X84.209 Y39.433 E0.04908
G1 X83.431 Y39.314 E0.04908
G1 X82.669 Y39.116 E0.0491
G1 X81.931 Y38.842 E0.04909
G1 X81.225 Y38.494 E0.04909
G1 X80.557 Y38.077 E0.04911
G1 X79.936 Y37.594 E0.04906
G1 X79.366 Y37.05 E0.04914
G1 X78.855 Y36.452 E0.04905
G1 X78.407 Y35.805 E0.04908
G1 X78.027 Y35.115 E0.04912
G1 X77.719 Y34.391 E0.04907
G1 X77.486 Y33.639 E0.0491
G1 X77.33 Y32.868 E0.04906
G1 X77.254 Y32.1 E0.04813
G1 X76.869 Y24.211 E0.49257
G1 X75.768 Y16.748 E0.47045
G1 X75.649 Y16.242 E0.03242
G1 X73.923 Y9.344 E0.44344
G1 X71.391 Y2.251 E0.46968
G1 X70.881 Y1.157 E0.07527
G1 X68.129 Y-4.663 E0.40148
G1 X64.267 Y-11.116 E0.46899
G1 X63.133 Y-12.657 E0.11932
G1 X59.711 Y-17.271 E0.35824
G1 X54.672 Y-22.835 E0.46813
G1 X52.748 Y-24.591 E0.16245
G1 X52.748 Y-24.59 E0.00006
G1 X49.056 Y-27.935 E0.31069
G1 X48.921 Y-28.042 E0.01074
G1 X42.975 Y-32.453 E0.4617
G1 X40.102 Y-34.188 E0.2093
G1 X40.102 Y-34.189 E0.00006
G1 X36.564 Y-36.309 E0.25722
G1 X35.683 Y-36.743 E0.06125
G1 X29.634 Y-39.603 E0.41727
G1 X25.914 Y-40.948 E0.24669
G1 X25.54 Y-41.068 E0.02449
G1 X25.297 Y-41.15 E0.01599
G1 X22.253 Y-42.24 E0.20164
G1 X15.058 Y-44.039 E0.46251
G1 X14.42 Y-44.148 E0.04036
G1 X8 Y-45.1 E0.40475
G1 X6.805 Y-45.216 E0.07487
G1 X5.415 Y-45.285 E0.08679
G1 X1.826 Y-45.459 E0.22408
G0 F3600 X1.869 Y-45.958
G1 F900 X0.009 Y-46.019 E0.11606
G1 X-1.845 Y-45.96 E0.11568
G1 X-6.85 Y-45.715 E0.3125
G1 X-8.043 Y-45.599 E0.07475
G1 X-14.489 Y-44.644 E0.40638
G1 X-15.177 Y-44.525 E0.04354
G1 X-15.528 Y-44.438 E0.02255
G1 X-22.414 Y-42.715 E0.44267
G1 X-25.963 Y-41.462 E0.23471
G1 X-29.823 Y-40.068 E0.25594
G1 X-36.6 Y-36.862 E0.46754
G1 X-40.362 Y-34.616 E0.27324
G1 X-40.362 Y-34.615 E0.00006
G1 X-43.258 Y-32.866 E0.21098
G1 X-49.303 Y-28.381 E0.46941
G1 X-53.062 Y-24.98 E0.31613
G1 X-55.03 Y-23.183 E0.1662
G1 X-60.038 Y-17.658 E0.46503
G1 X-60.15 Y-17.515 E0.01133
G1 X-64.599 Y-11.52 E0.46557
G1 X-66.323 Y-8.655 E0.20852
G1 X-68.505 Y-5.017 E0.26455
G1 X-68.869 Y-4.265 E0.0521
G1 X-71.802 Y1.936 E0.42779
G1 X-74.361 Y9.075 E0.47295
G1 X-74.752 Y10.603 E0.09836
G1 X-76.238 Y16.539 E0.38161
G1 X-77.353 Y24.033 E0.47249
G1 X-77.471 Y26.301 E0.14163
G1 X-77.748 Y31.931 E0.35153
G1 X-77.751 Y32.017 E0.00537
G1 X-77.822 Y32.775 E0.04748
G1 X-77.972 Y33.521 E0.04745
G1 X-78.199 Y34.248 E0.0475
G1 X-78.501 Y34.946 E0.04743
G1 X-78.875 Y35.61 E0.04753
G1 X-79.316 Y36.23 E0.04745
G1 X-79.82 Y36.801 E0.0475
G1 X-80.381 Y37.315 E0.04745
G1 X-80.993 Y37.768 E0.04748
G1 X-81.649 Y38.155 E0.0475
G1 X-82.342 Y38.47 E0.04747
G1 X-83.064 Y38.711 E0.04747
G1 X-83.808 Y38.875 E0.04751
G1 X-84.564 Y38.96 E0.04744
G1 X-84.995 Y38.973 E0.02689
G1 X-86.995 Y38.973 E0.12473
G1 X-87.755 Y38.933 E0.04746
G1 X-88.507 Y38.814 E0.04748
G1 X-89.242 Y38.616 E0.04747
G1 X-89.953 Y38.342 E0.04752
G1 X-90.631 Y37.996 E0.04747
G1 X-91.268 Y37.58 E0.04745
G1 X-91.859 Y37.099 E0.04752
G1 X-92.396 Y36.56 E0.04745
G1 X-92.873 Y35.967 E0.04746
G1 X-93.286 Y35.327 E0.0475
G1 X-93.629 Y34.647 E0.0475
G1 X-93.899 Y33.935 E0.04749
G1 X-94.093 Y33.199 E0.04747
G1 X-94.209 Y32.447 E0.04745
G1 X-94.243 Y31.547 E0.05617
G1 X-94.145 Y27.514 E0.25158
G1 X-94.118 Y27.04 E0.02961
G1 X-93.947 Y25.141 E0.11891
G1 X-93.943 Y25.1 E0.00257
G1 X-93.327 Y18.666 E0.40308
G1 X-93.23 Y17.989 E0.04265
G1 X-91.679 Y9.917 E0.5126
G1 X-91.517 Y9.249 E0.04287
G1 X-89.21 Y1.365 E0.51229
G1 X-89.017 Y0.794 E0.03759
G1 X-88.708 Y-0.008 E0.0536
G1 X-88.674 Y-0.094 E0.00577
G1 X-86.541 Y-5.425 E0.35808
G1 X-87.259 Y-6.19 E0.06543
G1 X-87.714 Y-6.723 E0.0437
G1 X-88.898 Y-8.258 E0.1209
G1 X-89.296 Y-8.83 E0.04346
G1 X-90.328 Y-10.473 E0.121
G1 X-90.673 Y-11.085 E0.04381
G1 X-91.541 Y-12.82 E0.12098
G1 X-91.821 Y-13.454 E0.04322
G1 X-92.519 Y-15.263 E0.12092
G1 X-92.739 Y-15.928 E0.04368
G1 X-93.259 Y-17.795 E0.12086
G1 X-93.414 Y-18.477 E0.04362
G1 X-93.752 Y-20.387 E0.12096
G1 X-93.84 Y-21.078 E0.04344
G1 X-93.993 Y-23.011 E0.12092
G1 X-94.015 Y-23.703 E0.04318
G1 X-93.983 Y-25.643 E0.121
G1 X-93.937 Y-26.349 E0.04412
G1 X-93.716 Y-28.275 E0.1209
G1 X-93.602 Y-28.968 E0.0438
G1 X-93.195 Y-30.867 E0.12112
G1 X-93.02 Y-31.53 E0.04276
G1 X-92.437 Y-33.377 E0.12079
G1 X-92.19 Y-34.043 E0.0443
G1 X-91.428 Y-35.827 E0.12098
G1 X-91.123 Y-36.455 E0.04354
G1 X-90.193 Y-38.157 E0.12095
G1 X-89.834 Y-38.746 E0.04302
G1 X-88.745 Y-40.354 E0.12111
G1 X-88.325 Y-40.914 E0.04365
G1 X-87.089 Y-42.406 E0.12083
G1 X-86.612 Y-42.928 E0.0441
G1 X-85.235 Y-44.294 E0.12096
G1 X-84.722 Y-44.757 E0.0431
G1 X-83.222 Y-45.985 E0.12089
G1 X-82.654 Y-46.405 E0.04405
G1 X-81.039 Y-47.483 E0.12109
G1 X-80.448 Y-47.838 E0.04299
G1 X-78.741 Y-48.756 E0.12087
G1 X-78.108 Y-49.058 E0.04374
G1 X-76.32 Y-49.807 E0.12089
G1 X-75.656 Y-50.048 E0.04405
G1 X-73.802 Y-50.62 E0.121
G1 X-73.136 Y-50.791 E0.04288
G1 X-71.235 Y-51.185 E0.12107
G1 X-70.538 Y-51.295 E0.044
G1 X-68.61 Y-51.502 E0.12093
G1 X-67.918 Y-51.543 E0.04323
G1 X-65.98 Y-51.565 E0.12087
G1 X-65.288 Y-51.539 E0.04319
G1 X-63.356 Y-51.376 E0.12091
G1 X-62.652 Y-51.282 E0.04429
G1 X-60.742 Y-50.93 E0.12112
G1 X-60.068 Y-50.772 E0.04317
G1 X-58.206 Y-50.241 E0.12075
G1 X-57.537 Y-50.015 E0.04404
G1 X-55.729 Y-49.303 E0.12118
G1 X-55.096 Y-49.017 E0.04332
G1 X-53.37 Y-48.138 E0.12079
G1 X-52.764 Y-47.792 E0.04352
G1 X-51.643 Y-47.078 E0.08288
G1 X-51.13 Y-47.441 E0.03919
G1 X-50.562 Y-47.804 E0.04204
G1 X-43.638 Y-51.797 E0.49846
G1 X-43.296 Y-51.983 E0.02428
G1 X-42.811 Y-52.229 E0.03391
G1 X-42.541 Y-52.359 E0.01869
G1 X-35.489 Y-55.577 E0.48341
G1 X-34.888 Y-55.819 E0.0404
G1 X-31.508 Y-57.01 E0.22349
G1 X-31.309 Y-57.077 E0.01309
G1 X-30.847 Y-57.225 E0.03025
G1 X-26.778 Y-58.633 E0.26852
G1 X-26.117 Y-58.827 E0.04296
G1 X-18.325 Y-60.718 E0.50004
G1 X-17.835 Y-60.82 E0.03121
G1 X-16.822 Y-60.993 E0.06409
G1 X-16.633 Y-61.022 E0.01192
G1 X-9.961 Y-61.981 E0.42036
G1 X-9.633 Y-62.021 E0.02061
G1 X-8.104 Y-62.17 E0.0958
G1 X-7.755 Y-62.195 E0.02182
G1 X-6.281 Y-62.267 E0.09203
G1 X-6.267 Y-62.268 E0.00088
G1 X-2.535 Y-62.443 E0.23299
G1 X-2.433 Y-62.447 E0.00637
G1 X-.268 Y-62.518 E0.13509
G1 X0.15 Y-62.52 E0.02607
G1 X0.715 Y-62.506 E0.03525
G1 X0.78 Y-62.504 E0.00406
G1 X2.407 Y-62.449 E0.10152
G1 X4.975 Y-62.387 E0.16019
G1 X5.473 Y-62.358 E0.03111
G1 X6.6 Y-62.253 E0.07059
G1 X6.754 Y-62.237 E0.00966
G1 X7.804 Y-62.116 E0.06591
G1 X12.528 Y-61.665 E0.29594
G1 X12.869 Y-61.624 E0.02142
G1 X14.066 Y-61.452 E0.07541
G1 X14.405 Y-61.395 E0.02144
G1 X19.05 Y-60.501 E0.29499
G1 X19.459 Y-60.41 E0.02613
G1 X19.81 Y-60.321 E0.02258
G1 X22.153 Y-59.871 E0.14879
G1 X22.826 Y-59.708 E0.04318
G1 X30.023 Y-57.596 E0.46775
G1 X30.179 Y-57.548 E0.01018
