;FLAVOR:RepRap
;TIME:11378
;Filament used: 14.5422m
;Layer height: 0.4
;MINX:-98.561
;MINY:-36.916
;MINZ:0.3
;MAXX:98.548
;MAXY:55.446
;MAXZ:54.7
;Generated with Cura_SteamEngine 4.2.1
T0
M190 S60
M104 S200
M109 S200
M82 ;absolute extrusion mode
G28 ;Home
G1 Z15.0 F6000 ;Move the platform down 15mm
;Prime the extruder
G92 E0
G1 F200 E3
G92 E0
M141 S28
M83 ;relative extrusion mode
G1 F1500 E-6.5
;LAYER_COUNT:137
;LAYER:0
M107
G0 F3600 X-28.808 Y10.838 Z0.3
;TYPE:SKIRT
G1 F1500 E6.5
G1 F900 X-28.554 Y11.583 E0.04909
G1 X-28.377 Y12.35 E0.04909
G1 X-28.279 Y13.131 E0.04909
G1 X-28.258 Y13.705 E0.03582
G1 X-28.258 Y13.879 E0.01085
G1 X-28.298 Y14.665 E0.04908
G1 X-28.417 Y15.443 E0.04908
G1 X-28.615 Y16.205 E0.0491
G1 X-28.889 Y16.943 E0.04909
G1 X-29.237 Y17.649 E0.04909
G1 X-29.654 Y18.317 E0.04911
G1 X-30.277 Y19.096 E0.06221
G1 X-30.429 Y19.263 E0.01408
G1 X-30.453 Y19.289 E0.00221
G1 X-30.611 Y19.461 E0.01457
G1 X-30.836 Y19.696 E0.02029
G1 X-35.449 Y24.313 E0.40702
G1 X-36.032 Y24.841 E0.04905
G1 X-36.667 Y25.306 E0.04908
G1 X-37.345 Y25.706 E0.04909
G1 X-38.061 Y26.034 E0.04911
G1 X-38.476 Y26.176 E0.02735
G1 X-36.463 Y27.574 E0.15284
G1 X-32.331 Y30.028 E0.2997
G1 X-28.012 Y32.188 E0.30115
G1 X-23.565 Y34.03 E0.30018
G1 X-19.012 Y35.545 E0.29924
G1 X-14.314 Y36.746 E0.3024
G1 X-9.54 Y37.604 E0.30249
G1 X-6.687 Y37.952 E0.17924
G1 X-5.911 Y38.087 E0.04912
G1 X-5.154 Y38.3 E0.04904
G1 X-4.421 Y38.589 E0.04914
G1 X-3.722 Y38.95 E0.04906
G1 X-3.063 Y39.381 E0.04911
G1 X-2.451 Y39.876 E0.04909
G1 X-1.847 Y40.481 E0.05331
G1 X-1.721 Y40.622 E0.01179
G1 X-1.227 Y41.235 E0.0491
G1 X-.798 Y41.895 E0.04909
G1 X-.438 Y42.594 E0.04903
G1 X-.15 Y43.327 E0.04911
G1 X0.001 Y43.87 E0.03515
G1 X0.107 Y43.462 E0.02629
G1 X0.381 Y42.724 E0.04909
G1 X0.729 Y42.018 E0.04909
G1 X1.146 Y41.35 E0.04911
G1 X1.721 Y40.624 E0.05776
G1 X1.847 Y40.483 E0.01179
G1 X2.401 Y39.923 E0.04912
G1 X3.008 Y39.423 E0.04904
G1 X3.663 Y38.987 E0.04907
G1 X4.36 Y38.619 E0.04915
G1 X5.089 Y38.324 E0.04904
G1 X5.845 Y38.104 E0.0491
G1 X6.687 Y37.954 E0.05334
G1 X9.44 Y37.618 E0.17296
G1 X14.312 Y36.743 E0.30869
G1 X19.013 Y35.545 E0.30254
G1 X23.565 Y34.03 E0.29918
G1 X28.012 Y32.188 E0.30018
G1 X32.331 Y30.028 E0.30115
G1 X36.465 Y27.573 E0.29984
G1 X38.413 Y26.222 E0.14784
G1 X37.768 Y25.959 E0.04344
G1 X37.073 Y25.589 E0.0491
G1 X36.419 Y25.152 E0.04905
G1 X35.613 Y24.46 E0.06625
G1 X33.451 Y22.33 E0.18927
G1 X33.412 Y22.291 E0.00344
G1 X30.925 Y19.806 E0.21925
G1 X30.677 Y19.547 E0.02236
G1 X30.282 Y19.114 E0.03655
G1 X29.782 Y18.506 E0.04909
G1 X29.346 Y17.851 E0.04907
G1 X28.979 Y17.155 E0.04907
G1 X28.684 Y16.425 E0.0491
G1 X28.465 Y15.669 E0.04908
G1 X28.323 Y14.895 E0.04907
G1 X28.258 Y13.891 E0.06274
G1 X28.258 Y13.705 E0.0116
G1 X28.298 Y12.919 E0.04908
G1 X28.417 Y12.141 E0.04908
G1 X28.615 Y11.379 E0.0491
G1 X28.889 Y10.641 E0.04909
G1 X29.237 Y9.935 E0.04909
G1 X29.654 Y9.267 E0.04911
G1 X30.137 Y8.646 E0.04906
G1 X30.528 Y8.225 E0.03583
G1 X37.391 Y1.362 E0.60528
G1 X37.975 Y0.834 E0.0491
G1 X38.61 Y0.369 E0.04908
G1 X39.288 Y-0.03 E0.04906
G1 X40.004 Y-.358 E0.04911
G1 X40.749 Y-.612 E0.04909
G1 X41.516 Y-.789 E0.04909
G1 X42.297 Y-.887 E0.04909
G1 X42.871 Y-.908 E0.03582
G1 X43.028 Y-.908 E0.00979
G1 X43.814 Y-.868 E0.04908
G1 X44.592 Y-.749 E0.04908
G1 X45.354 Y-.551 E0.0491
G1 X46.092 Y-.277 E0.04909
G1 X46.798 Y0.071 E0.04909
G1 X47.466 Y0.488 E0.04911
G1 X48.28 Y1.143 E0.06516
G1 X48.957 Y1.767 E0.05742
G1 X49.183 Y1.984 E0.01954
G1 X53.363 Y6.161 E0.36852
G1 X53.891 Y6.745 E0.0491
G1 X54.357 Y7.379 E0.04907
G1 X54.756 Y8.058 E0.04911
G1 X55.084 Y8.773 E0.04906
G1 X55.291 Y9.382 E0.04011
G1 X56.746 Y7.289 E0.15897
G1 X59.192 Y3.17 E0.29875
G1 X61.359 Y-1.163 E0.30213
G1 X63.195 Y-5.599 E0.2994
G1 X64.086 Y-8.276 E0.17595
G1 X63.213 Y-8.737 E0.06157
G1 X61.084 Y-10.07 E0.15665
G1 X60.439 Y-10.521 E0.04908
G1 X60.132 Y-10.774 E0.02481
G1 X58.255 Y-12.395 E0.15466
G1 X57.686 Y-12.939 E0.04909
G1 X57.418 Y-13.237 E0.02499
G1 X55.825 Y-15.109 E0.15329
G1 X55.346 Y-15.734 E0.04911
G1 X55.119 Y-16.082 E0.02591
G1 X53.849 Y-18.154 E0.15156
G1 X53.473 Y-18.845 E0.04906
G1 X53.302 Y-19.227 E0.0261
G1 X52.373 Y-21.46 E0.15083
G1 X52.107 Y-22.201 E0.0491
G1 X51.994 Y-22.622 E0.02718
G1 X51.432 Y-24.955 E0.14965
G1 X51.286 Y-25.729 E0.04912
G1 X51.241 Y-26.153 E0.02659
G1 X51.063 Y-28.383 E0.13951
G1 X51.04 Y-29.17 E0.0491
G1 X51.097 Y-29.955 E0.04908
G1 X51.234 Y-30.73 E0.04908
G1 X51.448 Y-31.488 E0.04912
G1 X51.738 Y-32.219 E0.04904
G1 X52.101 Y-32.918 E0.04912
G1 X52.533 Y-33.576 E0.04909
G1 X53.063 Y-34.224 E0.05221
G1 X53.209 Y-34.384 E0.01351
G1 X53.769 Y-34.938 E0.04912
G1 X54.381 Y-35.432 E0.04905
G1 X55.041 Y-35.861 E0.04909
G1 X55.741 Y-36.222 E0.04912
G1 X56.474 Y-36.509 E0.04909
G1 X57.232 Y-36.721 E0.04908
G1 X58.007 Y-36.854 E0.04904
G1 X58.933 Y-36.91 E0.05785
G1 X90.658 Y-36.916 E1.97846
G1 X91.444 Y-36.876 E0.04908
G1 X92.222 Y-36.757 E0.04908
G1 X92.984 Y-36.559 E0.0491
G1 X93.722 Y-36.285 E0.04909
G1 X94.428 Y-35.938 E0.04906
G1 X95.095 Y-35.521 E0.04906
G1 X95.717 Y-35.038 E0.04911
G1 X96.281 Y-34.5 E0.04861
G1 X96.429 Y-34.344 E0.01341
G1 X96.941 Y-33.746 E0.04909
G1 X97.39 Y-33.1 E0.04906
G1 X97.771 Y-32.411 E0.0491
G1 X98.08 Y-31.687 E0.04909
G1 X98.314 Y-30.935 E0.04911
G1 X98.471 Y-30.164 E0.04907
G1 X98.548 Y-29.38 E0.04913
G1 X98.547 Y-28.613 E0.04783
G1 X98.478 Y-27.268 E0.08399
G1 X98.41 Y-26.57 E0.04374
G1 X98.287 Y-25.708 E0.0543
G1 X98.275 Y-25.628 E0.00504
G1 X98.162 Y-24.891 E0.0465
G1 X98.037 Y-24.254 E0.04048
G1 X97.805 Y-23.289 E0.06189
G1 X97.668 Y-22.791 E0.03221
G1 X97.476 Y-22.176 E0.04018
G1 X97.43 Y-22.035 E0.00925
G1 X97.113 Y-21.084 E0.06252
G1 X96.84 Y-20.382 E0.04697
G1 X96.281 Y-19.127 E0.08568
G1 X95.953 Y-18.474 E0.04557
G1 X95.012 Y-16.805 E0.11949
G1 X94.47 Y-15.973 E0.06192
G1 X93.321 Y-14.435 E0.11972
G1 X92.797 Y-13.806 E0.05105
G1 X92.117 Y-13.072 E0.0624
G1 X92.05 Y-13 E0.00613
G1 X91.591 Y-12.517 E0.04155
G1 X91.04 Y-11.992 E0.04746
G1 X89.766 Y-10.891 E0.10501
G1 X89.137 Y-10.402 E0.04969
G1 X87.996 Y-9.605 E0.0868
G1 X87.469 Y-9.267 E0.03904
G1 X86.47 Y-8.683 E0.07216
G1 X86.103 Y-8.482 E0.02609
G1 X85.294 Y-8.066 E0.05673
G1 X84.595 Y-7.749 E0.04786
G1 X83.651 Y-7.376 E0.0633
G1 X83.118 Y-7.157 E0.03594
G1 X82.325 Y-6.88 E0.05238
G1 X81.954 Y-6.773 E0.02408
G1 X81.652 Y-5.588 E0.07626
G1 X81.5 Y-5.07 E0.03367
G1 X79.767 Y0.166 E0.34395
G1 X79.574 Y0.688 E0.03471
G1 X77.475 Y5.774 E0.34313
G1 X77.248 Y6.273 E0.03419
G1 X74.78 Y11.227 E0.34516
G1 X74.512 Y11.718 E0.03488
G1 X71.713 Y16.447 E0.3427
G1 X71.417 Y16.909 E0.03422
G1 X68.276 Y21.449 E0.34428
G1 X67.941 Y21.899 E0.03499
G1 X64.478 Y26.202 E0.34446
G1 X64.12 Y26.616 E0.03413
G1 X60.38 Y30.645 E0.34283
G1 X59.988 Y31.037 E0.03457
G1 X55.944 Y34.812 E0.345
G1 X55.528 Y35.174 E0.03439
G1 X51.253 Y38.63 E0.34282
G1 X50.811 Y38.962 E0.03447
G1 X46.283 Y42.116 E0.34413
G1 X45.816 Y42.417 E0.03465
G1 X41.067 Y45.243 E0.34463
G1 X40.581 Y45.509 E0.03455
G1 X35.667 Y47.976 E0.3429
G1 X35.167 Y48.206 E0.03432
G1 X30.066 Y50.328 E0.34454
G1 X29.546 Y50.522 E0.03461
G1 X24.319 Y52.269 E0.34369
G1 X23.791 Y52.425 E0.03433
G1 X18.455 Y53.796 E0.34358
G1 X17.91 Y53.915 E0.03479
G1 X12.473 Y54.902 E0.34461
G1 X12.031 Y54.969 E0.02788
G1 X8.611 Y55.388 E0.21488
G1 X7.826 Y55.444 E0.04908
G1 X7.04 Y55.42 E0.04904
G1 X6.259 Y55.317 E0.04913
G1 X5.493 Y55.134 E0.04911
G1 X4.75 Y54.875 E0.04907
G1 X4.037 Y54.542 E0.04908
G1 X3.361 Y54.139 E0.04908
G1 X2.544 Y53.509 E0.06434
G1 X2.375 Y53.36 E0.01405
G1 X1.811 Y52.81 E0.04913
G1 X1.307 Y52.206 E0.04906
G1 X0.866 Y51.554 E0.04909
G1 X0.494 Y50.86 E0.04911
G1 X0.194 Y50.133 E0.04905
G1 X-0.003 Y49.473 E0.04295
G1 X-.107 Y49.874 E0.02583
G1 X-.381 Y50.612 E0.04909
G1 X-.729 Y51.318 E0.04909
G1 X-1.146 Y51.986 E0.04911
G1 X-1.629 Y52.607 E0.04906
G1 X-2.321 Y53.314 E0.0617
G1 X-2.488 Y53.464 E0.014
G1 X-3.1 Y53.959 E0.04909
G1 X-3.758 Y54.39 E0.04905
G1 X-4.457 Y54.752 E0.04909
G1 X-5.19 Y55.041 E0.04914
G1 X-5.947 Y55.255 E0.04906
G1 X-6.723 Y55.39 E0.04912
G1 X-7.508 Y55.446 E0.04908
G1 X-8.597 Y55.392 E0.068
G1 X-11.798 Y55.005 E0.20108
G1 X-12.236 Y54.939 E0.02762
G1 X-17.686 Y53.962 E0.3453
G1 X-18.225 Y53.846 E0.03438
G1 X-23.569 Y52.489 E0.34384
G1 X-24.098 Y52.334 E0.03438
G1 X-29.335 Y50.6 E0.34403
G1 X-29.855 Y50.407 E0.03459
G1 X-34.939 Y48.309 E0.34299
G1 X-35.44 Y48.081 E0.03433
G1 X-40.394 Y45.612 E0.34519
G1 X-40.884 Y45.345 E0.0348
G1 X-45.615 Y42.545 E0.34284
G1 X-46.077 Y42.25 E0.03418
G1 X-50.615 Y39.111 E0.34411
G1 X-51.064 Y38.775 E0.03497
G1 X-55.369 Y35.311 E0.34459
G1 X-55.784 Y34.952 E0.03422
G1 X-59.812 Y31.212 E0.34278
G1 X-60.204 Y30.821 E0.03453
G1 X-63.979 Y26.777 E0.345
G1 X-64.341 Y26.361 E0.03439
G1 X-67.798 Y22.084 E0.34296
G1 X-68.13 Y21.642 E0.03447
G1 X-71.283 Y17.116 E0.34399
G1 X-71.583 Y16.65 E0.03456
G1 X-74.41 Y11.901 E0.34466
G1 X-74.678 Y11.412 E0.03477
G1 X-77.143 Y6.499 E0.34279
G1 X-77.371 Y6.001 E0.03416
G1 X-79.496 Y0.894 E0.34496
G1 X-79.692 Y0.372 E0.03477
G1 X-81.436 Y-4.849 E0.34328
G1 X-81.591 Y-5.376 E0.03426
G1 X-81.945 Y-6.755 E0.08879
G1 X-82.44 Y-6.909 E0.03233
G1 X-83.011 Y-7.122 E0.03801
G1 X-83.255 Y-7.218 E0.01635
G1 X-83.666 Y-7.387 E0.02771
G1 X-84.23 Y-7.597 E0.03753
G1 X-84.931 Y-7.898 E0.04758
G1 X-85.965 Y-8.403 E0.07176
G1 X-86.51 Y-8.697 E0.03862
G1 X-87.318 Y-9.175 E0.05855
G1 X-87.706 Y-9.42 E0.02862
G1 X-88.849 Y-10.191 E0.08598
G1 X-89.492 Y-10.675 E0.05019
G1 X-90.78 Y-11.754 E0.10478
G1 X-91.347 Y-12.28 E0.04823
G1 X-91.976 Y-12.924 E0.05614
G1 X-92.044 Y-12.994 E0.00609
G1 X-92.583 Y-13.56 E0.04874
G1 X-93.085 Y-14.142 E0.04793
G1 X-94.114 Y-15.463 E0.10443
G1 X-94.58 Y-16.132 E0.05084
G1 X-95.446 Y-17.524 E0.10224
G1 X-95.781 Y-18.118 E0.04253
G1 X-96.107 Y-18.762 E0.04501
G1 X-96.26 Y-19.083 E0.02218
G1 X-96.779 Y-20.237 E0.07891
G1 X-97.05 Y-20.925 E0.04611
G1 X-97.576 Y-22.475 E0.10208
G1 X-97.798 Y-23.265 E0.05117
G1 X-98.159 Y-24.87 E0.10259
G1 X-98.263 Y-25.428 E0.0354
G1 X-98.338 Y-25.931 E0.03172
G1 X-98.397 Y-26.435 E0.03165
G1 X-98.531 Y-28.054 E0.10131
G1 X-98.556 Y-28.573 E0.0324
G1 X-98.561 Y-28.897 E0.02021
G1 X-98.533 Y-29.684 E0.04911
G1 X-98.426 Y-30.464 E0.0491
G1 X-98.24 Y-31.229 E0.0491
G1 X-97.977 Y-31.971 E0.04909
G1 X-97.64 Y-32.682 E0.04907
G1 X-97.233 Y-33.356 E0.0491
G1 X-96.76 Y-33.985 E0.04908
G1 X-96.348 Y-34.441 E0.03833
G1 X-96.202 Y-34.59 E0.01301
G1 X-95.623 Y-35.124 E0.04912
G1 X-94.993 Y-35.596 E0.04909
G1 X-94.318 Y-36.001 E0.04909
G1 X-93.606 Y-36.337 E0.0491
G1 X-92.864 Y-36.598 E0.04905
G1 X-92.098 Y-36.782 E0.04913
G1 X-91.318 Y-36.888 E0.04909
G1 X-90.666 Y-36.916 E0.0407
G1 X-58.938 Y-36.916 E1.97865
G1 X-58.152 Y-36.876 E0.04908
G1 X-57.374 Y-36.757 E0.04908
G1 X-56.612 Y-36.559 E0.0491
G1 X-55.874 Y-36.285 E0.04909
G1 X-55.168 Y-35.937 E0.04909
G1 X-54.5 Y-35.52 E0.04911
G1 X-53.879 Y-35.037 E0.04906
G1 X-53.234 Y-34.412 E0.05601
G1 X-53.085 Y-34.25 E0.01373
G1 X-52.582 Y-33.645 E0.04907
G1 X-52.143 Y-32.991 E0.04912
G1 X-51.773 Y-32.297 E0.04905
G1 X-51.475 Y-31.568 E0.04911
G1 X-51.253 Y-30.813 E0.04908
G1 X-51.108 Y-30.039 E0.04911
G1 X-51.043 Y-29.255 E0.04906
G1 X-51.063 Y-28.388 E0.05408
G1 X-51.242 Y-26.142 E0.14051
G1 X-51.345 Y-25.362 E0.04907
G1 X-51.439 Y-24.92 E0.02818
G1 X-52.02 Y-22.54 E0.15278
G1 X-52.245 Y-21.786 E0.04907
G1 X-52.407 Y-21.368 E0.02796
G1 X-53.359 Y-19.109 E0.15288
G1 X-53.701 Y-18.4 E0.04909
G1 X-53.925 Y-18.019 E0.02756
G1 X-55.235 Y-15.918 E0.15441
G1 X-55.684 Y-15.272 E0.04906
G1 X-55.959 Y-14.937 E0.02703
G1 X-57.598 Y-13.049 E0.15592
G1 X-58.143 Y-12.482 E0.04905
G1 X-58.458 Y-12.202 E0.02628
G1 X-60.388 Y-10.577 E0.15734
G1 X-61.016 Y-10.101 E0.04914
G1 X-61.365 Y-9.876 E0.0259
G1 X-63.544 Y-8.556 E0.15888
G1 X-64.086 Y-8.277 E0.03802
G1 X-63.195 Y-5.599 E0.17601
G1 X-61.359 Y-1.163 E0.2994
G1 X-59.192 Y3.17 E0.30213
G1 X-56.744 Y7.291 E0.29892
G1 X-55.383 Y9.252 E0.14886
G1 X-55.122 Y8.609 E0.04328
G1 X-54.754 Y7.913 E0.0491
G1 X-54.317 Y7.258 E0.0491
G1 X-53.583 Y6.408 E0.07004
G1 X-49.024 Y1.841 E0.40243
G1 X-48.76 Y1.588 E0.0228
G1 X-48.24 Y1.114 E0.04388
G1 X-47.632 Y0.614 E0.04909
G1 X-46.976 Y0.179 E0.04909
G1 X-46.28 Y-.188 E0.04907
G1 X-45.55 Y-.483 E0.0491
G1 X-44.794 Y-.702 E0.04908
G1 X-44.02 Y-.843 E0.04906
G1 X-43.019 Y-.908 E0.06256
G1 X-42.871 Y-.908 E0.00923
G1 X-42.085 Y-.868 E0.04908
G1 X-41.307 Y-.749 E0.04908
G1 X-40.545 Y-.551 E0.0491
G1 X-39.807 Y-.277 E0.04909
G1 X-39.101 Y0.071 E0.04909
G1 X-38.433 Y0.488 E0.04911
G1 X-37.812 Y0.971 E0.04906
G1 X-37.391 Y1.362 E0.03583
G1 X-30.528 Y8.225 E0.60528
G1 X-30 Y8.809 E0.0491
G1 X-29.535 Y9.444 E0.04908
G1 X-29.136 Y10.122 E0.04906
G1 X-28.808 Y10.838 E0.04911
G0 F3600 X-29.236 Y11.116
G1 F900 X-29.002 Y11.84 E0.04745
G1 X-28.845 Y12.585 E0.04748
G1 X-28.758 Y13.705 E0.07006
G1 X-28.758 Y13.879 E0.01085
G1 X-28.798 Y14.639 E0.04746
G1 X-28.917 Y15.391 E0.04748
G1 X-29.115 Y16.126 E0.04747
G1 X-29.389 Y16.837 E0.04752
G1 X-29.735 Y17.515 E0.04747
G1 X-30.151 Y18.152 E0.04745
G1 X-30.646 Y18.759 E0.04885
G1 X-30.798 Y18.926 E0.01408
G1 X-30.821 Y18.951 E0.00212
G1 X-30.979 Y19.123 E0.01457
G1 X-31.189 Y19.342 E0.01892
G1 X-35.802 Y23.959 E0.40702
G1 X-36.368 Y24.469 E0.04751
G1 X-36.984 Y24.916 E0.04746
G1 X-37.643 Y25.297 E0.04747
G1 X-38.339 Y25.606 E0.04749
G1 X-39.063 Y25.84 E0.04745
G1 X-39.655 Y25.966 E0.03775
G1 X-36.746 Y27.987 E0.2209
G1 X-32.56 Y30.473 E0.30362
G1 X-28.221 Y32.643 E0.30254
G1 X-23.743 Y34.497 E0.30225
G1 X-19.14 Y36.029 E0.30254
G1 X-14.428 Y37.233 E0.30329
G1 X-9.619 Y38.098 E0.30472
G1 X-6.748 Y38.448 E0.18037
G1 X-5.998 Y38.58 E0.04749
G1 X-5.266 Y38.79 E0.04749
G1 X-4.56 Y39.075 E0.04748
G1 X-3.888 Y39.433 E0.04748
G1 X-3.257 Y39.859 E0.04748
G1 X-2.675 Y40.349 E0.04745
G1 X-2.22 Y40.814 E0.04057
G1 X-2.094 Y40.955 E0.01179
G1 X-1.617 Y41.549 E0.04751
G1 X-1.205 Y42.189 E0.04747
G1 X-.863 Y42.869 E0.04747
G1 X-.593 Y43.581 E0.04749
G1 X-.4 Y44.317 E0.04745
G1 X-.285 Y45.07 E0.0475
G1 X-.25 Y45.786 E0.04471
G1 X-.25 Y47.548 E0.10988
G1 X-.29 Y48.308 E0.04746
G1 X-.409 Y49.06 E0.04748
G1 X-.607 Y49.795 E0.04747
G1 X-.881 Y50.506 E0.04752
G1 X-1.227 Y51.184 E0.04747
G1 X-1.643 Y51.821 E0.04745
G1 X-2.124 Y52.412 E0.04752
G1 X-2.655 Y52.942 E0.04679
G1 X-2.822 Y53.092 E0.014
G1 X-3.415 Y53.57 E0.0475
G1 X-4.054 Y53.984 E0.04748
G1 X-4.733 Y54.328 E0.04747
G1 X-5.444 Y54.599 E0.04745
G1 X-6.18 Y54.794 E0.04748
G1 X-6.933 Y54.911 E0.04752
G1 X-7.693 Y54.948 E0.04745
G1 X-8.537 Y54.896 E0.05273
G1 X-11.738 Y54.509 E0.20108
G1 X-12.147 Y54.447 E0.0258
G1 X-17.597 Y53.47 E0.3453
G1 X-18.102 Y53.361 E0.03222
G1 X-23.446 Y52.004 E0.34384
G1 X-23.941 Y51.86 E0.03215
G1 X-29.178 Y50.126 E0.34403
G1 X-29.665 Y49.945 E0.0324
G1 X-34.749 Y47.847 E0.34299
G1 X-35.217 Y47.634 E0.03207
G1 X-40.171 Y45.165 E0.34519
G1 X-40.63 Y44.915 E0.03259
G1 X-45.361 Y42.115 E0.34284
G1 X-45.792 Y41.839 E0.03192
G1 X-50.33 Y38.7 E0.34411
G1 X-50.751 Y38.385 E0.03279
G1 X-55.056 Y34.921 E0.34459
G1 X-55.444 Y34.586 E0.03197
G1 X-59.472 Y30.846 E0.34278
G1 X-59.839 Y30.48 E0.03232
G1 X-63.614 Y26.436 E0.345
G1 X-63.952 Y26.046 E0.03218
G1 X-67.409 Y21.769 E0.34296
G1 X-67.72 Y21.356 E0.03224
G1 X-70.873 Y16.83 E0.34399
G1 X-71.154 Y16.394 E0.03235
G1 X-73.981 Y11.645 E0.34466
G1 X-74.231 Y11.188 E0.03249
G1 X-76.696 Y6.275 E0.34279
G1 X-76.91 Y5.809 E0.03198
G1 X-79.035 Y0.702 E0.34496
G1 X-79.218 Y0.214 E0.0325
G1 X-80.962 Y-5.007 E0.34328
G1 X-81.107 Y-5.501 E0.03211
G1 X-81.53 Y-7.148 E0.10604
