;FLAVOR:Marlin
;TIME:994
;Filament used: 0.34759m
;Layer height: 0.1
;MINX:84
;MINY:92.1
;MINZ:0.1
;MAXX:126
;MAXY:117.9
;MAXZ:8.9
;Generated with Cura_SteamEngine 4.2.1
M140 S60
M105
M190 S60
M104 S200
M105
M109 S200
M82 ;absolute extrusion mode
G21 ;metric values
G90 ;absolute positioning
M82 ;set extruder to absolute mode
M107 ;start with the fan off
G28 X0 Y0 ;move X/Y to min endstops
G28 Z0 ;move Z to min endstops
G1 Z15.0 F50 ;move the platform down 15mm
G92 E0 ;zero the extruded length
G1 F200 E3 ;extrude 3mm of feed stock
G92 E0 ;zero the extruded length again
G1 F50
M117 Printing...
G5
M141 S28
G92 E0
G92 E0
G1 F2400 E-6
;LAYER_COUNT:90
;LAYER:0
M106 S255
M204 S3000
M205 X10 Y10
G0 F1500 X90.161 Y93.697 Z0.1
M204 S1800
M205 X8 Y8
;TYPE:SKIRT
G1 F2400 E0
G1 X90.491 Y93.447 E0.00964
G1 X90.983 Y93.112 E0.0235
G1 X91.483 Y92.82 E0.03698
G1 X91.865 Y92.654 E0.04667
G1 X92.414 Y92.447 E0.06034
G1 X92.969 Y92.281 E0.07382
G1 X93.367 Y92.21 E0.08323
G1 X93.958 Y92.135 E0.0971
G1 X94.487 Y92.102 E0.10945
G1 X115.492 Y92.1 E0.59849
G1 X115.969 Y92.127 E0.60961
G1 X116.538 Y92.192 E0.62294
G1 X117.107 Y92.297 E0.63641
G1 X117.481 Y92.412 E0.64552
G1 X118.035 Y92.611 E0.65923
G1 X118.565 Y92.844 E0.67271
G1 X118.918 Y93.052 E0.68225
G1 X119.409 Y93.374 E0.69592
G1 X119.871 Y93.724 E0.70941
G1 X120.167 Y94.01 E0.719
G1 X120.57 Y94.439 E0.7327
G1 X120.937 Y94.888 E0.7462
G1 X121.155 Y95.23 E0.75564
G1 X121.445 Y95.737 E0.76924
G1 X121.697 Y96.258 E0.78272
G1 X121.832 Y96.649 E0.79235
G1 X121.996 Y97.213 E0.80602
G1 X122.146 Y98.006 E0.82481
G1 X122.183 Y98.413 E0.83433
G1 X122.2 Y98.793 E0.84318
G1 X122.2 Y101.703 E0.91093
G1 X122.351 Y101.764 E0.91472
G1 X122.872 Y102.017 E0.92821
G1 X123.31 Y102.306 E0.94043
G1 X123.723 Y102.617 E0.95246
G1 X124.161 Y102.996 E0.96595
G1 X124.509 Y103.39 E0.97819
G1 X124.831 Y103.803 E0.99038
G1 X125.155 Y104.283 E1.00386
G1 X125.379 Y104.731 E1.01553
G1 X125.583 Y105.207 E1.02758
G1 X125.774 Y105.753 E1.04105
G1 X125.882 Y106.273 E1.05341
G1 X125.957 Y106.803 E1.06588
G1 X125.998 Y107.389 E1.07955
G1 X126 Y111.658 E1.17895
G1 X125.971 Y112.151 E1.19044
G1 X125.908 Y112.686 E1.20298
G1 X125.801 Y113.255 E1.21646
G1 X125.632 Y113.767 E1.22902
G1 X125.435 Y114.255 E1.24127
G1 X125.181 Y114.776 E1.25476
G1 X124.889 Y115.217 E1.26708
G1 X124.575 Y115.632 E1.2792
G1 X124.195 Y116.069 E1.29268
G1 X123.811 Y116.408 E1.3046
G1 X123.4 Y116.729 E1.31675
G1 X122.92 Y117.053 E1.33023
G1 X122.467 Y117.281 E1.34204
G1 X121.99 Y117.485 E1.35411
G1 X121.442 Y117.675 E1.36762
G1 X120.923 Y117.782 E1.37996
G1 X120.39 Y117.857 E1.39249
G1 X119.807 Y117.898 E1.40609
G1 X115.041 Y117.9 E1.51706
G1 X114.54 Y117.87 E1.52874
G1 X114.005 Y117.806 E1.54129
G1 X113.436 Y117.698 E1.55477
G1 X112.936 Y117.532 E1.56704
G1 X112.449 Y117.336 E1.57926
G1 X111.928 Y117.083 E1.59274
G1 X111.483 Y116.789 E1.60516
G1 X111.068 Y116.475 E1.61728
G1 X110.631 Y116.095 E1.63076
G1 X110.293 Y115.712 E1.64265
G1 X109.971 Y115.3 E1.65483
G1 X109.646 Y114.82 E1.66832
G1 X109.419 Y114.367 E1.68012
G1 X109.216 Y113.893 E1.69212
G1 X109.025 Y113.346 E1.70561
G1 X108.918 Y112.826 E1.71797
G1 X108.843 Y112.294 E1.73048
G1 X108.802 Y111.709 E1.74414
G1 X108.801 Y101.6 E1.9795
G1 X101.2 Y101.6 E2.15646
G1 X101.2 Y111.605 E2.3894
G1 X101.188 Y111.925 E2.39686
G1 X101.153 Y112.383 E2.40755
G1 X101.069 Y112.956 E2.42103
G1 X100.962 Y113.352 E2.43058
G1 X100.802 Y113.848 E2.44272
G1 X100.587 Y114.386 E2.45621
G1 X100.323 Y114.853 E2.4687
G1 X100.038 Y115.29 E2.48084
G1 X99.689 Y115.753 E2.49434
G1 X99.33 Y116.118 E2.50626
G1 X98.94 Y116.469 E2.51848
G1 X98.483 Y116.826 E2.53198
G1 X98.028 Y117.094 E2.54427
G1 X97.566 Y117.328 E2.55633
G1 X97.032 Y117.553 E2.56982
G1 X96.555 Y117.686 E2.58135
G1 X96.046 Y117.796 E2.59347
G1 X95.473 Y117.879 E2.60695
G1 X95.167 Y117.891 E2.61408
G1 X90.246 Y117.9 E2.72866
G1 X89.738 Y117.87 E2.7405
G1 X89.204 Y117.806 E2.75303
G1 X88.635 Y117.698 E2.76651
G1 X88.136 Y117.532 E2.77875
G1 X87.649 Y117.336 E2.79098
G1 X87.128 Y117.083 E2.80446
G1 X86.683 Y116.789 E2.81688
G1 X86.268 Y116.475 E2.82899
G1 X85.831 Y116.095 E2.84248
G1 X85.493 Y115.712 E2.85437
G1 X85.171 Y115.3 E2.86654
G1 X84.846 Y114.82 E2.88004
G1 X84.619 Y114.367 E2.89184
G1 X84.416 Y113.893 E2.90384
G1 X84.225 Y113.346 E2.91733
G1 X84.118 Y112.826 E2.92969
G1 X84.043 Y112.294 E2.9422
G1 X84.002 Y111.71 E2.95583
G1 X84 Y107.439 E3.05527
G1 X84.03 Y106.936 E3.067
G1 X84.094 Y106.403 E3.0795
G1 X84.203 Y105.834 E3.09299
G1 X84.369 Y105.332 E3.1053
G1 X84.566 Y104.844 E3.11755
G1 X84.82 Y104.323 E3.13104
G1 X85.112 Y103.882 E3.14336
G1 X85.426 Y103.467 E3.15547
G1 X85.806 Y103.03 E3.16896
G1 X86.19 Y102.691 E3.18088
G1 X86.601 Y102.37 E3.19302
G1 X87.081 Y102.046 E3.20651
G1 X87.534 Y101.818 E3.21831
G1 X87.794 Y101.707 E3.2249
G1 X87.8 Y98.968 E3.28867
G1 X87.805 Y98.763 E3.29344
G1 X87.833 Y98.213 E3.30626
G1 X87.903 Y97.638 E3.31975
G1 X87.978 Y97.313 E3.32751
G1 X88.132 Y96.753 E3.34104
G1 X88.324 Y96.207 E3.35451
G1 X88.5 Y95.846 E3.36386
G1 X88.786 Y95.325 E3.3777
G1 X89.099 Y94.838 E3.39118
G1 X89.356 Y94.525 E3.40061
G1 X89.743 Y94.098 E3.41402
G1 X90.161 Y93.697 E3.42751
M204 S3000
M205 X10 Y10
G0 F1500 X90.549 Y94.103
M204 S1800
M205 X8 Y8
G1 F2400 X90.806 Y93.91 E3.43499
G1 X91.298 Y93.575 E3.44885
G1 X91.765 Y93.306 E3.4614
G1 X92.063 Y93.178 E3.46895
G1 X92.612 Y92.971 E3.48261
G1 X93.129 Y92.819 E3.49516
G1 X93.438 Y92.766 E3.50245
G1 X94.029 Y92.691 E3.51632
G1 X94.487 Y92.662 E3.52701
G1 X115.492 Y92.66 E4.01605
G1 X115.905 Y92.684 E4.02568
G1 X116.474 Y92.749 E4.03902
G1 X117.004 Y92.849 E4.05157
G1 X117.292 Y92.939 E4.0586
G1 X117.846 Y93.138 E4.0723
G1 X118.338 Y93.358 E4.08485
G1 X118.611 Y93.52 E4.09224
G1 X119.102 Y93.842 E4.10591
G1 X119.53 Y94.17 E4.11847
G1 X119.759 Y94.394 E4.12592
G1 X120.162 Y94.823 E4.13963
G1 X120.501 Y95.242 E4.15218
G1 X120.669 Y95.508 E4.1595
G1 X120.959 Y96.015 E4.1731
G1 X121.191 Y96.501 E4.18564
G1 X121.294 Y96.806 E4.19313
G1 X121.458 Y97.37 E4.20681
G1 X121.588 Y98.056 E4.22306
G1 X121.625 Y98.463 E4.23258
G1 X121.64 Y98.793 E4.24027
G1 X121.64 Y102.083 E4.31687
G1 X121.652 Y102.087 E4.31716
G1 X122.142 Y102.284 E4.32946
G1 X122.626 Y102.521 E4.342
G1 X122.974 Y102.753 E4.35174
G1 X123.387 Y103.064 E4.36378
G1 X123.792 Y103.42 E4.37633
G1 X124.068 Y103.734 E4.38607
G1 X124.39 Y104.147 E4.39826
G1 X124.689 Y104.596 E4.41082
G1 X124.865 Y104.951 E4.42004
G1 X125.069 Y105.427 E4.4321
G1 X125.244 Y105.937 E4.44465
G1 X125.327 Y106.351 E4.45449
G1 X125.402 Y106.881 E4.46695
G1 X125.438 Y107.389 E4.4788
G1 X125.44 Y111.658 E4.5782
G1 X125.415 Y112.086 E4.58818
G1 X125.352 Y112.621 E4.60072
G1 X125.249 Y113.15 E4.61327
G1 X125.112 Y113.558 E4.62329
G1 X124.915 Y114.046 E4.63554
G1 X124.677 Y114.529 E4.64808
G1 X124.443 Y114.879 E4.65788
G1 X124.129 Y115.294 E4.66999
G1 X123.772 Y115.699 E4.68256
G1 X123.467 Y115.967 E4.69202
G1 X123.056 Y116.288 E4.70416
G1 X122.607 Y116.587 E4.71672
G1 X122.246 Y116.766 E4.7261
G1 X121.769 Y116.97 E4.73818
G1 X121.259 Y117.145 E4.75073
G1 X120.845 Y117.227 E4.76056
G1 X120.312 Y117.302 E4.77309
G1 X119.807 Y117.338 E4.78488
G1 X115.041 Y117.34 E4.89584
G1 X114.607 Y117.314 E4.90596
G1 X114.072 Y117.25 E4.91851
G1 X113.542 Y117.147 E4.93108
G1 X113.145 Y117.013 E4.94083
G1 X112.658 Y116.817 E4.95305
G1 X112.174 Y116.579 E4.96561
G1 X111.821 Y116.343 E4.9755
G1 X111.406 Y116.029 E4.98761
G1 X111.001 Y115.672 E5.00018
G1 X110.734 Y115.367 E5.00962
G1 X110.412 Y114.955 E5.02179
G1 X110.112 Y114.507 E5.03435
G1 X109.934 Y114.147 E5.0437
G1 X109.731 Y113.673 E5.0557
G1 X109.556 Y113.163 E5.06826
G1 X109.473 Y112.748 E5.07811
G1 X109.398 Y112.216 E5.09062
G1 X109.362 Y111.709 E5.10245
G1 X109.361 Y101.04 E5.35085
G1 X100.64 Y101.04 E5.55389
G1 X100.64 Y111.605 E5.79987
G1 X100.629 Y111.882 E5.80632
G1 X100.594 Y112.34 E5.81702
G1 X100.514 Y112.874 E5.82959
G1 X100.429 Y113.18 E5.83698
G1 X100.269 Y113.676 E5.84912
G1 X100.066 Y114.176 E5.86168
G1 X99.854 Y114.547 E5.87163
G1 X99.569 Y114.984 E5.88377
G1 X99.242 Y115.413 E5.89633
G1 X98.955 Y115.702 E5.90582
G1 X98.565 Y116.053 E5.91803
G1 X98.139 Y116.383 E5.93058
G1 X97.775 Y116.594 E5.94037
G1 X97.313 Y116.828 E5.95243
G1 X96.815 Y117.036 E5.965
G1 X96.437 Y117.139 E5.97412
G1 X95.928 Y117.249 E5.98624
G1 X95.166 Y117.331 E6.00408
G1 X90.245 Y117.34 E6.11866
G1 X89.805 Y117.314 E6.12892
G1 X89.271 Y117.25 E6.14144
G1 X88.742 Y117.146 E6.15399
G1 X88.345 Y117.013 E6.16374
G1 X87.858 Y116.817 E6.17596
G1 X87.374 Y116.579 E6.18852
G1 X87.021 Y116.343 E6.19841
G1 X86.606 Y116.029 E6.21052
G1 X86.201 Y115.672 E6.22309
G1 X85.934 Y115.367 E6.23253
G1 X85.612 Y114.955 E6.2447
G1 X85.312 Y114.507 E6.25726
G1 X85.134 Y114.147 E6.26661
G1 X84.931 Y113.673 E6.27861
G1 X84.756 Y113.163 E6.29116
G1 X84.673 Y112.748 E6.30102
G1 X84.598 Y112.216 E6.31353
G1 X84.562 Y111.71 E6.32534
G1 X84.56 Y107.439 E6.42477
G1 X84.586 Y107.003 E6.43494
G1 X84.65 Y106.47 E6.44744
G1 X84.754 Y105.941 E6.45999
G1 X84.889 Y105.541 E6.46982
G1 X85.086 Y105.053 E6.48208
G1 X85.324 Y104.57 E6.49461
G1 X85.558 Y104.22 E6.50441
G1 X85.872 Y103.805 E6.51653
G1 X86.229 Y103.4 E6.5291
G1 X86.534 Y103.132 E6.53855
G1 X86.945 Y102.811 E6.55069
G1 X87.394 Y102.512 E6.56325
G1 X87.755 Y102.333 E6.57264
G1 X88.232 Y102.129 E6.58471
G1 X88.354 Y102.087 E6.58772
G1 X88.36 Y98.97 E6.66029
G1 X88.365 Y98.792 E6.66443
G1 X88.393 Y98.242 E6.67726
G1 X88.518 Y97.462 E6.69565
G1 X88.672 Y96.902 E6.70917
G1 X88.853 Y96.394 E6.72173
G1 X88.991 Y96.115 E6.72897
G1 X89.277 Y95.594 E6.74281
G1 X89.571 Y95.142 E6.75536
G1 X89.771 Y94.902 E6.76264
G1 X90.158 Y94.475 E6.77605
G1 X90.549 Y94.103 E6.78862
M204 S3000
M205 X10 Y10
G0 F1500 X91.122 Y94.373
M204 S1800
M205 X8 Y8
G1 F2400 X91.614 Y94.038 E6.80248
G1 X92.26 Y93.702 E6.81943
G1 X92.809 Y93.495 E6.83309
G1 X93.508 Y93.322 E6.84986
G1 X94.099 Y93.247 E6.86373
G1 X94.487 Y93.222 E6.87278
G1 X115.492 Y93.22 E7.36182
G1 X115.842 Y93.24 E7.36998
G1 X116.411 Y93.305 E7.38331
G1 X117.102 Y93.466 E7.39983
G1 X117.656 Y93.665 E7.41354
G1 X118.304 Y93.988 E7.4304
G1 X118.795 Y94.31 E7.44407
G1 X119.351 Y94.777 E7.46097
G1 X119.754 Y95.206 E7.47467
G1 X120.183 Y95.786 E7.49147
G1 X120.473 Y96.293 E7.50507
G1 X120.757 Y96.962 E7.52199
G1 X120.921 Y97.526 E7.53567
G1 X121.03 Y98.107 E7.54943
G1 X121.067 Y98.514 E7.55894
G1 X121.08 Y98.793 E7.56545
G1 X121.08 Y102.491 E7.65154
G1 X121.137 Y102.502 E7.65289
G1 X121.443 Y102.606 E7.66042
G1 X121.933 Y102.803 E7.67271
G1 X122.377 Y103.025 E7.68427
G1 X122.637 Y103.201 E7.69158
G1 X123.05 Y103.512 E7.70362
G1 X123.421 Y103.841 E7.71516
G1 X123.626 Y104.078 E7.72246
G1 X123.948 Y104.491 E7.73465
G1 X124.22 Y104.906 E7.7462
G1 X124.35 Y105.172 E7.7531
G1 X124.554 Y105.648 E7.76515
G1 X124.712 Y106.118 E7.7767
G1 X124.773 Y106.429 E7.78408
G1 X124.848 Y106.959 E7.79654
G1 X124.878 Y107.39 E7.8066
G1 X124.88 Y111.659 E7.90599
G1 X124.859 Y112.02 E7.91441
G1 X124.796 Y112.555 E7.92695
G1 X124.698 Y113.042 E7.93852
G1 X124.593 Y113.348 E7.94605
G1 X124.396 Y113.836 E7.9583
G1 X124.174 Y114.279 E7.96984
G1 X123.996 Y114.541 E7.97721
G1 X123.682 Y114.956 E7.98933
G1 X123.352 Y115.327 E8.00089
G1 X123.122 Y115.525 E8.00795
G1 X122.711 Y115.846 E8.0201
G1 X122.297 Y116.119 E8.03164
G1 X122.026 Y116.251 E8.03866
G1 X121.549 Y116.455 E8.05074
G1 X121.079 Y116.613 E8.06228
G1 X120.767 Y116.673 E8.06968
G1 X120.234 Y116.748 E8.08221
G1 X119.806 Y116.778 E8.0922
G1 X115.04 Y116.78 E8.20316
G1 X114.673 Y116.758 E8.21172
G1 X114.138 Y116.694 E8.22427
G1 X113.652 Y116.596 E8.23581
G1 X113.354 Y116.493 E8.24315
G1 X112.867 Y116.297 E8.25537
G1 X112.423 Y116.076 E8.26692
G1 X112.159 Y115.896 E8.27436
G1 X111.744 Y115.582 E8.28648
G1 X111.373 Y115.252 E8.29804
G1 X111.175 Y115.023 E8.30508
G1 X110.853 Y114.611 E8.31726
G1 X110.58 Y114.197 E8.3288
G1 X110.449 Y113.927 E8.33579
G1 X110.246 Y113.453 E8.3478
G1 X110.088 Y112.982 E8.35936
G1 X110.027 Y112.67 E8.36677
G1 X109.952 Y112.138 E8.37927
G1 X109.922 Y111.708 E8.38931
G1 X109.92 Y100.48 E8.65072
G1 X100.08 Y100.48 E8.87982
G1 X100.08 Y111.605 E9.13883
G1 X100.071 Y111.84 E9.14431
G1 X100.036 Y112.298 E9.155
G1 X99.896 Y113.009 E9.17187
G1 X99.736 Y113.505 E9.184
G1 X99.546 Y113.963 E9.19555
G1 X99.385 Y114.242 E9.20305
G1 X99.1 Y114.679 E9.2152
G1 X98.796 Y115.071 E9.22674
G1 X98.58 Y115.285 E9.23382
G1 X98.19 Y115.636 E9.24604
G1 X97.796 Y115.937 E9.25758
G1 X97.522 Y116.095 E9.26495
G1 X97.06 Y116.329 E9.277
G1 X96.601 Y116.516 E9.28854
G1 X96.319 Y116.592 E9.29534
G1 X95.81 Y116.702 E9.30747
G1 X95.165 Y116.771 E9.32257
G1 X90.244 Y116.78 E9.43714
G1 X89.871 Y116.758 E9.44584
G1 X89.337 Y116.694 E9.45836
G1 X88.851 Y116.596 E9.46991
G1 X88.554 Y116.493 E9.47722
G1 X88.067 Y116.297 E9.48945
G1 X87.623 Y116.076 E9.50099
G1 X87.359 Y115.896 E9.50843
G1 X86.944 Y115.582 E9.52055
G1 X86.573 Y115.252 E9.53211
G1 X86.375 Y115.023 E9.53916
G1 X86.053 Y114.611 E9.55133
G1 X85.78 Y114.197 E9.56288
G1 X85.649 Y113.927 E9.56986
G1 X85.446 Y113.453 E9.58187
G1 X85.288 Y112.982 E9.59344
G1 X85.227 Y112.67 E9.60084
G1 X85.152 Y112.138 E9.61335
G1 X85.122 Y111.709 E9.62336
G1 X85.12 Y107.438 E9.7228
G1 X85.142 Y107.07 E9.73138
G1 X85.206 Y106.537 E9.74388
G1 X85.305 Y106.051 E9.75543
G1 X85.408 Y105.751 E9.76281
G1 X85.605 Y105.263 E9.77506
G1 X85.827 Y104.82 E9.7866
G1 X86.005 Y104.558 E9.79397
G1 X86.319 Y104.143 E9.80609
G1 X86.649 Y103.772 E9.81765
G1 X86.879 Y103.574 E9.82472
G1 X87.29 Y103.253 E9.83686
G1 X87.704 Y102.98 E9.8484
G1 X87.975 Y102.848 E9.85542
G1 X88.452 Y102.644 E9.8675
G1 X88.913 Y102.489 E9.87882
G1 X88.92 Y98.971 E9.96073
G1 X88.924 Y98.82 E9.96425
G1 X88.952 Y98.27 E9.97707
G1 X89.058 Y97.61 E9.99263
G1 X89.212 Y97.05 E10.00615
G1 X89.482 Y96.385 E10.02286
G1 X89.768 Y95.864 E10.0367
G1 X90.186 Y95.278 E10.05346
G1 X90.573 Y94.851 E10.06688
G1 X91.122 Y94.373 E10.08382
M204 S3000
M205 X10 Y10
G0 F1500 X91.437 Y94.836
M204 S1800
M205 X8 Y8
G1 F2400 X91.929 Y94.501 E10.09768
G1 X92.458 Y94.226 E10.11156
G1 X93.007 Y94.019 E10.12522
G1 X93.579 Y93.877 E10.13895
G1 X94.17 Y93.802 E10.15282
G1 X94.487 Y93.782 E10.16021
G1 X115.492 Y93.78 E10.64925
G1 X115.778 Y93.796 E10.65592
G1 X116.347 Y93.861 E10.66925
G1 X116.913 Y93.993 E10.68279
G1 X117.467 Y94.192 E10.69649
G1 X117.997 Y94.457 E10.71029
G1 X118.488 Y94.779 E10.72396
G1 X118.943 Y95.161 E10.73779
G1 X119.346 Y95.59 E10.75149
G1 X119.696 Y96.064 E10.76521
G1 X119.986 Y96.571 E10.77881
G1 X120.219 Y97.118 E10.79265
G1 X120.383 Y97.682 E10.80633
G1 X120.473 Y98.158 E10.81761
G1 X120.51 Y98.565 E10.82712
G1 X120.52 Y98.793 E10.83243
G1 X120.52 Y102.953 E10.92929
G1 X120.586 Y102.961 E10.93084
G1 X121.234 Y103.126 E10.9464
G1 X121.724 Y103.323 E10.9587
G1 X122.3 Y103.648 E10.9741
G1 X122.713 Y103.959 E10.98613
G1 X123.184 Y104.423 E11.00153
G1 X123.506 Y104.836 E11.01372
G1 X123.835 Y105.392 E11.02876
G1 X124.039 Y105.868 E11.04082
G1 X124.218 Y106.508 E11.05629
G1 X124.293 Y107.038 E11.06875
G1 X124.318 Y107.39 E11.07697
G1 X124.32 Y111.659 E11.17636
G1 X124.303 Y111.955 E11.18326
G1 X124.24 Y112.49 E11.19581
G1 X124.074 Y113.138 E11.21138
G1 X123.877 Y113.626 E11.22363
G1 X123.55 Y114.204 E11.23909
G1 X123.236 Y114.619 E11.25121
G1 X122.777 Y115.084 E11.26642
G1 X122.366 Y115.405 E11.27856
G1 X121.806 Y115.736 E11.29371
G1 X121.329 Y115.94 E11.30579
G1 X120.689 Y116.118 E11.32125
G1 X120.156 Y116.193 E11.33378
G1 X119.806 Y116.218 E11.34195
G1 X115.04 Y116.22 E11.45292
G1 X114.74 Y116.202 E11.45991
G1 X114.205 Y116.138 E11.47246
